Swk6666/libfranka/data/circle_trajectory_impedance/circle_trajectory_data_impedance.csv
timestamp,desired_x,desired_y,desired_z,actual_x,actual_y,actual_z,commanded_x,commanded_y,commanded_z,error_x,error_y,error_z,error_norm,q_d0,q_d1,q_d2,q_d3,q_d4,q_d5,q_d6,q0,q1,q2,q3,q4,q5,q6,tau0,tau1,tau2,tau3,tau4,tau5,tau6
0.000000,0.307037,0.000118,0.590251,0.307036,0.000118,0.590249,0.307037,0.000118,0.590251,0.000000,0.000000,0.000003,0.000003,0.000571,-0.785021,-0.000080,-2.356095,-0.000234,1.571231,0.785543,0.000574,-0.785020,-0.000083,-2.356100,-0.000234,1.571230,0.785542,-1.480959,-2.516897,-0.543517,18.416338,0.997075,1.106744,-0.172447
0.001000,0.307037,0.000118,0.590251,0.307037,0.000119,0.590248,0.307037,0.000118,0.590251,-0.000000,-0.000001,0.000003,0.000003,0.000571,-0.785021,-0.000080,-2.356095,-0.000234,1.571231,0.785543,0.000574,-0.785019,-0.000081,-2.356100,-0.000232,1.571231,0.785544,-1.480959,-2.540701,-0.571288,18.416338,0.997075,1.093927,-0.191673
0.002000,0.307037,0.000118,0.590251,0.307036,0.000119,0.590249,0.307037,0.000118,0.590251,0.000000,-0.000000,0.000002,0.000002,0.000571,-0.785021,-0.000080,-2.356095,-0.000234,1.571231,0.785543,0.000572,-0.785020,-0.000080,-2.356099,-0.000235,1.571228,0.785546,-1.429384,-2.489126,-0.595092,18.340960,0.978765,1.120477,-0.205406
0.003000,0.307037,0.000118,0.590251,0.307036,0.000118,0.590248,0.307037,0.000118,0.590251,0.000001,0.000000,0.000003,0.000003,0.000571,-0.785021,-0.000080,-2.356095,-0.000234,1.571231,0.785543,0.000574,-0.785021,-0.000083,-2.356101,-0.000232,1.571228,0.785550,-1.381777,-2.437551,-0.543517,18.265581,0.931157,1.179071,-0.211814
0.004000,0.307037,0.000118,0.590251,0.307035,0.000120,0.590250,0.307037,0.000118,0.590251,0.000001,-0.000001,0.000001,0.000002,0.000571,-0.785021,-0.000080,-2.356095,-0.000234,1.571231,0.785543,0.000574,-0.785025,-0.000080,-2.356099,-0.000231,1.571229,0.785545,-1.306399,-2.338369,-0.622863,18.138628,0.889959,1.219354,-0.132163
0.005000,0.307037,0.000118,0.590251,0.307035,0.000119,0.590248,0.307037,0.000118,0.590251,0.000002,-0.000001,0.000003,0.000004,0.000571,-0.785021,-0.000080,-2.356095,-0.000234,1.571231,0.785543,0.000577,-0.785025,-0.000083,-2.356104,-0.000234,1.571229,0.785544,-1.258791,-2.262991,-0.595092,18.114824,0.878057,1.232171,-0.138572
0.006000,0.307037,0.000118,0.590251,0.307036,0.000119,0.590246,0.307037,0.000118,0.590251,0.000001,-0.000001,0.000005,0.000005,0.000571,-0.785021,-0.000080,-2.356095,-0.000234,1.571231,0.785543,0.000582,-0.785023,-0.000086,-2.356107,-0.000233,1.571232,0.785543,-1.207216,-2.235220,-0.543517,18.091021,0.883550,1.238580,-0.138572
0.007000,0.307037,0.000118,0.590251,0.307037,0.000119,0.590245,0.307037,0.000118,0.590251,-0.000001,-0.000001,0.000006,0.000006,0.000571,-0.785021,-0.000080,-2.356095,-0.000234,1.571231,0.785543,0.000588,-0.785018,-0.000092,-2.356106,-0.000233,1.571235,0.785546,-1.131838,-2.286794,-0.468139,18.091021,0.883550,1.225763,-0.165122
0.008000,0.307037,0.000118,0.590251,0.307039,0.000123,0.590241,0.307037,0.000118,0.590251,-0.000002,-0.000005,0.000010,0.000011,0.000571,-0.785021,-0.000080,-2.356095,-0.000234,1.571231,0.785543,0.000597,-0.785014,-0.000088,-2.356113,-0.000234,1.571237,0.785548,-1.108034,-2.338369,-0.519713,18.214006,0.895452,1.212030,-0.178855
0.010000,0.307037,0.000118,0.590251,0.307038,0.000125,0.590240,0.307037,0.000118,0.590251,-0.000001,-0.000007,0.000011,0.000013,0.000571,-0.785020,-0.000080,-2.356095,-0.000234,1.571231,0.785543,0.000608,-0.785016,-0.000091,-2.356116,-0.000235,1.571236,0.785541,-1.032656,-2.338369,-0.519713,18.392534,0.866155,1.252313,-0.119346
0.011000,0.307037,0.000118,0.590251,0.307037,0.000126,0.590242,0.307037,0.000118,0.590251,-0.000001,-0.000008,0.000010,0.000012,0.000571,-0.785020,-0.000080,-2.356095,-0.000234,1.571231,0.785543,0.000616,-0.785017,-0.000095,-2.356113,-0.000236,1.571233,0.785543,-1.008852,-2.338369,-0.468139,18.368731,0.842351,1.285272,-0.105613
0.012000,0.307037,0.000118,0.590251,0.307037,0.000127,0.590242,0.307037,0.000118,0.590251,-0.000000,-0.000009,0.000010,0.000013,0.000571,-0.785020,-0.000080,-2.356095,-0.000234,1.571231,0.785543,0.000619,-0.785019,-0.000095,-2.356115,-0.000235,1.571232,0.785545,-0.985048,-2.310598,-0.468139,18.392534,0.830449,1.298089,-0.119346
0.013000,0.307037,0.000118,0.590251,0.307037,0.000127,0.590240,0.307037,0.000118,0.590251,-0.000000,-0.000009,0.000011,0.000014,0.000571,-0.785020,-0.000080,-2.356095,-0.000234,1.571231,0.785543,0.000622,-0.785019,-0.000097,-2.356118,-0.000235,1.571234,0.785546,-0.933474,-2.310598,-0.468139,18.444109,0.824041,1.310907,-0.125755
0.014000,0.307037,0.000118,0.590251,0.307036,0.000130,0.590241,0.307037,0.000118,0.590251,0.000000,-0.000011,0.000011,0.000016,0.000571,-0.785020,-0.000080,-2.356095,-0.000234,1.571231,0.785543,0.000633,-0.785020,-0.000099,-2.356118,-0.000235,1.571233,0.785548,-1.008852,-2.286794,-0.444335,18.444109,0.824041,1.331048,-0.138572
0.015000,0.307037,0.000118,0.590251,0.307036,0.000131,0.590241,0.307037,0.000118,0.590251,0.000000,-0.000012,0.000010,0.000016,0.000571,-0.785020,-0.000080,-2.356095,-0.000234,1.571231,0.785543,0.000640,-0.785022,-0.000102,-2.356118,-0.000235,1.571236,0.785549,-1.008852,-2.262991,-0.416564,18.416338,0.818548,1.331048,-0.145896
0.016000,0.307037,0.000118,0.590251,0.307037,0.000134,0.590238,0.307037,0.000118,0.590251,-0.000000,-0.000015,0.000014,0.000021,0.000571,-0.785020,-0.000080,-2.356095,-0.000234,1.571231,0.785543,0.000648,-0.785020,-0.000100,-2.356125,-0.000235,1.571238,0.785544,-1.032656,-2.262991,-0.444335,18.467913,0.824041,1.324640,-0.105613
0.017000,0.307037,0.000118,0.590251,0.307039,0.000137,0.590237,0.307037,0.000118,0.590251,-0.000002,-0.000018,0.000014,0.000023,0.000571,-0.785020,-0.000080,-2.356095,-0.000234,1.571231,0.785543,0.000654,-0.785016,-0.000098,-2.356124,-0.000235,1.571244,0.785540,-1.032656,-2.310598,-0.468139,18.444109,0.818548,1.304498,-0.072654
0.018000,0.307037,0.000118,0.590251,0.307039,0.000138,0.590236,0.307037,0.000118,0.590251,-0.000002,-0.000019,0.000016,0.000025,0.000571,-0.785020,-0.000080,-2.356095,-0.000234,1.571231,0.785543,0.000660,-0.785015,-0.000100,-2.356128,-0.000235,1.571246,0.785539,-1.032656,-2.286794,-0.468139,18.491716,0.824041,1.324640,-0.058921
0.019000,0.307037,0.000118,0.590251,0.307040,0.000143,0.590235,0.307037,0.000118,0.590251,-0.000003,-0.000025,0.000016,0.000030,0.000571,-0.785020,-0.000080,-2.356095,-0.000234,1.571231,0.785543,0.000674,-0.785013,-0.000097,-2.356128,-0.000233,1.571248,0.785542,-1.131838,-2.310598,-0.495910,18.491716,0.806646,1.351190,-0.058921
0.020000,0.307037,0.000118,0.590251,0.307039,0.000145,0.590238,0.307037,0.000118,0.590251,-0.000002,-0.000026,0.000013,0.000029,0.000571,-0.785020,-0.000080,-2.356095,-0.000234,1.571231,0.785543,0.000684,-0.785017,-0.000101,-2.356123,-0.000237,1.571247,0.785544,-1.131838,-2.211416,-0.468139,18.491716,0.806646,1.370416,-0.099204
0.021000,0.307037,0.000118,0.590251,0.307040,0.000149,0.590236,0.307037,0.000118,0.590251,-0.000003,-0.000030,0.000015,0.000034,0.000571,-0.785020,-0.000080,-2.356095,-0.000234,1.571231,0.785543,0.000694,-0.785014,-0.000099,-2.356127,-0.000233,1.571251,0.785546,-1.131838,-2.211416,-0.495910,18.567095,0.794744,1.370416,-0.119346
0.022000,0.307037,0.000118,0.590251,0.307040,0.000152,0.590235,0.307037,0.000118,0.590251,-0.000003,-0.000033,0.000017,0.000037,0.000571,-0.785020,-0.000080,-2.356095,-0.000234,1.571231,0.785543,0.000704,-0.785011,-0.000099,-2.356128,-0.000234,1.571251,0.785544,-1.131838,-2.211416,-0.495910,18.618670,0.806646,1.384149,-0.079063
0.023000,0.307037,0.000118,0.590251,0.307041,0.000154,0.590235,0.307037,0.000118,0.590251,-0.000004,-0.000036,0.000017,0.000039,0.000571,-0.785020,-0.000080,-2.356094,-0.000234,1.571231,0.785543,0.000716,-0.785008,-0.000101,-2.356126,-0.000237,1.571252,0.785545,-1.159609,-2.211416,-0.468139,18.594866,0.812139,1.376825,-0.079063
0.024000,0.307037,0.000118,0.590251,0.307042,0.000157,0.590234,0.307037,0.000118,0.590251,-0.000006,-0.000038,0.000017,0.000043,0.000571,-0.785020,-0.000080,-2.356094,-0.000234,1.571231,0.785543,0.000727,-0.785005,-0.000103,-2.356126,-0.000237,1.571255,0.785548,-1.159609,-2.211416,-0.444335,18.567095,0.800237,1.384149,-0.099204
0.025000,0.307037,0.000118,0.590251,0.307044,0.000163,0.590234,0.307037,0.000118,0.590251,-0.000007,-0.000045,0.000017,0.000049,0.000571,-0.785020,-0.000080,-2.356094,-0.000234,1.571231,0.785543,0.000743,-0.785002,-0.000099,-2.356125,-0.000234,1.571261,0.785547,-1.207216,-2.211416,-0.495910,18.519487,0.800237,1.364007,-0.092796
0.026000,0.307037,0.000118,0.590251,0.307044,0.000167,0.590234,0.307037,0.000118,0.590251,-0.000008,-0.000048,0.000017,0.000052,0.000571,-0.785020,-0.000080,-2.356094,-0.000234,1.571231,0.785543,0.000754,-0.785001,-0.000099,-2.356124,-0.000236,1.571263,0.785547,-1.207216,-2.183645,-0.495910,18.491716,0.794744,1.364007,-0.092796
0.027000,0.307037,0.000118,0.590251,0.307046,0.000170,0.590233,0.307037,0.000118,0.590251,-0.000009,-0.000052,0.000018,0.000056,0.000571,-0.785020,-0.000080,-2.356094,-0.000234,1.571231,0.785543,0.000767,-0.784997,-0.000100,-2.356124,-0.000237,1.571265,0.785548,-1.258791,-2.183645,-0.519713,18.491716,0.794744,1.370416,-0.099204
0.028000,0.307037,0.000118,0.590251,0.307047,0.000174,0.590233,0.307037,0.000118,0.590251,-0.000010,-0.000055,0.000018,0.000059,0.000571,-0.785020,-0.000080,-2.356094,-0.000234,1.571231,0.785543,0.000779,-0.784994,-0.000101,-2.356123,-0.000237,1.571267,0.785544,-1.258791,-2.159841,-0.519713,18.467913,0.794744,1.370416,-0.058921
0.029000,0.307037,0.000118,0.590251,0.307048,0.000177,0.590232,0.307037,0.000118,0.590251,-0.000011,-0.000059,0.000020,0.000063,0.000571,-0.785020,-0.000080,-2.356094,-0.000234,1.571231,0.785543,0.000791,-0.784988,-0.000101,-2.356122,-0.000236,1.571266,0.785545,-1.282595,-2.211416,-0.519713,18.491716,0.788335,1.376825,-0.072654
0.030000,0.307037,0.000118,0.590251,0.307048,0.000180,0.590232,0.307037,0.000118,0.590251,-0.000011,-0.000062,0.000019,0.000065,0.000571,-0.785019,-0.000080,-2.356094,-0.000234,1.571231,0.785543,0.000804,-0.784989,-0.000105,-2.356122,-0.000236,1.571269,0.785545,-1.330202,-2.159841,-0.468139,18.491716,0.782842,1.384149,-0.066245
0.031000,0.307037,0.000118,0.590251,0.307050,0.000183,0.590232,0.307037,0.000118,0.590251,-0.000013,-0.000065,0.000019,0.000069,0.000571,-0.785019,-0.000080,-2.356094,-0.000234,1.571231,0.785543,0.000814,-0.784983,-0.000105,-2.356120,-0.000235,1.571275,0.785548,-1.330202,-2.235220,-0.468139,18.467913,0.776433,1.364007,-0.066245
0.032000,0.307037,0.000118,0.590251,0.307051,0.000187,0.590232,0.307037,0.000118,0.590251,-0.000014,-0.000069,0.000019,0.000073,0.000571,-0.785019,-0.000080,-2.356094,-0.000234,1.571231,0.785543,0.000823,-0.784981,-0.000101,-2.356118,-0.000237,1.571276,0.785549,-1.357973,-2.235220,-0.519713,18.444109,0.794744,1.370416,-0.092796
0.033000,0.307037,0.000118,0.590251,0.307052,0.000193,0.590233,0.307037,0.000118,0.590251,-0.000015,-0.000074,0.000018,0.000078,0.000571,-0.785019,-0.000080,-2.356094,-0.000234,1.571232,0.785543,0.000836,-0.784980,-0.000097,-2.356117,-0.000236,1.571281,0.785547,-1.405581,-2.235220,-0.543517,18.392534,0.782842,1.357599,-0.085471
0.034000,0.307037,0.000118,0.590251,0.307053,0.000194,0.590231,0.307037,0.000118,0.590251,-0.000015,-0.000076,0.000020,0.000080,0.000571,-0.785019,-0.000080,-2.356094,-0.000234,1.571232,0.785543,0.000843,-0.784977,-0.000099,-2.356119,-0.000239,1.571282,0.785549,-1.405581,-2.235220,-0.543517,18.416338,0.782842,1.357599,-0.105613
0.035000,0.307037,0.000118,0.590251,0.307054,0.000197,0.590231,0.307037,0.000118,0.590251,-0.000016,-0.000078,0.000021,0.000083,0.000571,-0.785019,-0.000080,-2.356094,-0.000234,1.571232,0.785543,0.000852,-0.784975,-0.000099,-2.356119,-0.000237,1.571287,0.785545,-1.405581,-2.262991,-0.543517,18.416338,0.782842,1.351190,-0.072654
0.036000,0.307037,0.000118,0.590251,0.307055,0.000200,0.590231,0.307037,0.000118,0.590251,-0.000018,-0.000081,0.000020,0.000085,0.000571,-0.785019,-0.000080,-2.356094,-0.000234,1.571232,0.785543,0.000858,-0.784970,-0.000097,-2.356116,-0.000236,1.571291,0.785542,-1.429384,-2.286794,-0.571288,18.368731,0.782842,1.351190,-0.046104
0.037000,0.307037,0.000118,0.590251,0.307056,0.000202,0.590231,0.307037,0.000118,0.590251,-0.000019,-0.000084,0.000020,0.000088,0.000571,-0.785018,-0.000080,-2.356094,-0.000234,1.571232,0.785543,0.000868,-0.784968,-0.000099,-2.356115,-0.000235,1.571293,0.785547,-1.457155,-2.310598,-0.543517,18.392534,0.776433,1.351190,-0.058921
0.038000,0.307037,0.000118,0.590251,0.307058,0.000206,0.590229,0.307037,0.000118,0.590251,-0.000020,-0.000087,0.000023,0.000093,0.000571,-0.785018,-0.000080,-2.356093,-0.000234,1.571232,0.785543,0.000879,-0.784964,-0.000097,-2.356118,-0.000235,1.571296,0.785550,-1.504763,-2.338369,-0.571288,18.444109,0.776433,1.351190,-0.079063
0.039000,0.307038,0.000118,0.590251,0.307059,0.000208,0.590229,0.307037,0.000118,0.590251,-0.000021,-0.000089,0.000022,0.000095,0.000571,-0.785018,-0.000080,-2.356093,-0.000234,1.571232,0.785543,0.000885,-0.784959,-0.000097,-2.356114,-0.000235,1.571296,0.785544,-1.504763,-2.362173,-0.571288,18.392534,0.776433,1.364007,-0.052512
0.040000,0.307038,0.000118,0.590251,0.307060,0.000210,0.590232,0.307037,0.000118,0.590251,-0.000022,-0.000092,0.000020,0.000097,0.000571,-0.785018,-0.000080,-2.356093,-0.000234,1.571232,0.785543,0.000893,-0.784958,-0.000097,-2.356109,-0.000235,1.571299,0.785550,-1.528566,-2.338369,-0.571288,18.340960,0.776433,1.370416,-0.085471
0.041000,0.307038,0.000118,0.590251,0.307061,0.000212,0.590230,0.307038,0.000118,0.590251,-0.000023,-0.000094,0.000021,0.000099,0.000571,-0.785018,-0.000080,-2.356093,-0.000234,1.571232,0.785543,0.000898,-0.784956,-0.000096,-2.356112,-0.000236,1.571306,0.785553,-1.504763,-2.310598,-0.595092,18.368731,0.782842,1.351190,-0.099204
0.042000,0.307038,0.000118,0.590251,0.307063,0.000215,0.590226,0.307038,0.000118,0.590251,-0.000025,-0.000097,0.000025,0.000103,0.000571,-0.785017,-0.000080,-2.356093,-0.000234,1.571232,0.785543,0.000905,-0.784948,-0.000094,-2.356116,-0.000237,1.571307,0.785547,-1.504763,-2.413748,-0.622863,18.416338,0.764531,1.351190,-0.079063
0.043000,0.307038,0.000118,0.590251,0.307064,0.000215,0.590227,0.307038,0.000118,0.590251,-0.000026,-0.000097,0.000025,0.000103,0.000571,-0.785017,-0.000080,-2.356093,-0.000234,1.571232,0.785543,0.000908,-0.784945,-0.000096,-2.356113,-0.000239,1.571309,0.785550,-1.457155,-2.389944,-0.595092,18.368731,0.776433,1.364007,-0.085471
0.044000,0.307038,0.000118,0.590251,0.307065,0.000218,0.590225,0.307038,0.000118,0.590251,-0.000027,-0.000100,0.000026,0.000107,0.000571,-0.785017,-0.000080,-2.356093,-0.000234,1.571232,0.785543,0.000914,-0.784942,-0.000092,-2.356114,-0.000240,1.571314,0.785551,-1.457155,-2.413748,-0.646667,18.392534,0.782842,1.357599,-0.085471
0.045000,0.307038,0.000118,0.590251,0.307066,0.000220,0.590225,0.307038,0.000118,0.590251,-0.000028,-0.000101,0.000027,0.000108,0.000571,-0.785017,-0.000080,-2.356093,-0.000234,1.571233,0.785543,0.000918,-0.784941,-0.000092,-2.356116,-0.000240,1.571316,0.785550,-1.429384,-2.389944,-0.646667,18.416338,0.782842,1.357599,-0.072654
0.046000,0.307038,0.000118,0.590251,0.307067,0.000221,0.590222,0.307038,0.000118,0.590251,-0.000029,-0.000102,0.000029,0.000110,0.000571,-0.785016,-0.000080,-2.356092,-0.000234,1.571233,0.785543,0.000923,-0.784936,-0.000094,-2.356118,-0.000239,1.571320,0.785547,-1.405581,-2.413748,-0.622863,18.444109,0.770940,1.357599,-0.046104
0.047000,0.307038,0.000118,0.590251,0.307068,0.000223,0.590223,0.307038,0.000118,0.590251,-0.000030,-0.000105,0.000028,0.000113,0.000571,-0.785016,-0.000080,-2.356092,-0.000234,1.571233,0.785543,0.000928,-0.784932,-0.000090,-2.356113,-0.000239,1.571318,0.785549,-1.381777,-2.437551,-0.670470,18.368731,0.770940,1.384149,-0.066245
0.048000,0.307038,0.000118,0.590251,0.307069,0.000223,0.590221,0.307038,0.000118,0.590251,-0.000030,-0.000105,0.000030,0.000113,0.000571,-0.785016,-0.000080,-2.356092,-0.000234,1.571233,0.785543,0.000930,-0.784932,-0.000092,-2.356118,-0.000239,1.571322,0.785552,-1.357973,-2.389944,-0.646667,18.444109,0.770940,1.376825,-0.092796
0.049000,0.307038,0.000118,0.590251,0.307069,0.000223,0.590220,0.307038,0.000118,0.590251,-0.000031,-0.000104,0.000032,0.000113,0.000571,-0.785015,-0.000080,-2.356092,-0.000234,1.571233,0.785543,0.000933,-0.784931,-0.000096,-2.356121,-0.000236,1.571324,0.785549,-1.306399,-2.389944,-0.595092,18.491716,0.776433,1.370416,-0.066245
0.050000,0.307039,0.000118,0.590251,0.307071,0.000226,0.590219,0.307038,0.000118,0.590251,-0.000032,-0.000107,0.000033,0.000117,0.000571,-0.785015,-0.000080,-2.356092,-0.000234,1.571233,0.785543,0.000935,-0.784925,-0.000090,-2.356120,-0.000238,1.571324,0.785551,-1.282595,-2.437551,-0.670470,18.467913,0.770940,1.376825,-0.079063
0.051000,0.307039,0.000118,0.590251,0.307071,0.000227,0.590217,0.307038,0.000118,0.590251,-0.000032,-0.000109,0.000035,0.000119,0.000571,-0.785015,-0.000080,-2.356091,-0.000234,1.571233,0.785543,0.000939,-0.784922,-0.000090,-2.356121,-0.000236,1.571323,0.785552,-1.231020,-2.465322,-0.670470,18.491716,0.776433,1.384149,-0.085471
0.052000,0.307039,0.000118,0.590251,0.307071,0.000227,0.590217,0.307039,0.000118,0.590251,-0.000033,-0.000109,0.000035,0.000119,0.000571,-0.785014,-0.000080,-2.356091,-0.000234,1.571234,0.785543,0.000942,-0.784922,-0.000092,-2.356121,-0.000239,1.571324,0.785548,-1.207216,-2.437551,-0.646667,18.491716,0.782842,1.376825,-0.052512
0.053000,0.307039,0.000118,0.590251,0.307073,0.000230,0.590216,0.307039,0.000118,0.590251,-0.000034,-0.000111,0.000036,0.000122,0.000571,-0.785014,-0.000080,-2.356091,-0.000234,1.571234,0.785543,0.000950,-0.784917,-0.000090,-2.356121,-0.000241,1.571327,0.785553,-1.231020,-2.465322,-0.670470,18.491716,0.794744,1.376825,-0.099204
0.054000,0.307039,0.000118,0.590251,0.307073,0.000232,0.590214,0.307039,0.000118,0.590251,-0.000034,-0.000113,0.000038,0.000124,0.000571,-0.785014,-0.000080,-2.356091,-0.000234,1.571234,0.785543,0.000954,-0.784916,-0.000088,-2.356125,-0.000240,1.571328,0.785546,-1.231020,-2.437551,-0.698241,18.543291,0.782842,1.376825,-0.039695
0.055000,0.307039,0.000118,0.590251,0.307074,0.000231,0.590213,0.307039,0.000118,0.590251,-0.000035,-0.000112,0.000039,0.000124,0.000571,-0.785013,-0.000080,-2.356091,-0.000234,1.571234,0.785543,0.000954,-0.784912,-0.000092,-2.356125,-0.000240,1.571328,0.785546,-1.159609,-2.437551,-0.646667,18.543291,0.782842,1.384149,-0.039695
0.056000,0.307039,0.000118,0.590251,0.307074,0.000232,0.590214,0.307039,0.000118,0.590251,-0.000035,-0.000113,0.000037,0.000124,0.000571,-0.785013,-0.000080,-2.356090,-0.000234,1.571234,0.785543,0.000955,-0.784913,-0.000090,-2.356121,-0.000240,1.571327,0.785550,-1.084231,-2.413748,-0.670470,18.491716,0.776433,1.390558,-0.072654
0.057000,0.307039,0.000118,0.590251,0.307076,0.000235,0.590209,0.307039,0.000118,0.590251,-0.000036,-0.000117,0.000042,0.000129,0.000571,-0.785012,-0.000080,-2.356090,-0.000234,1.571234,0.785543,0.000965,-0.784905,-0.000088,-2.356127,-0.000241,1.571326,0.785547,-1.131838,-2.465322,-0.698241,18.567095,0.788335,1.403375,-0.046104
0.058000,0.307040,0.000118,0.590251,0.307076,0.000235,0.590212,0.307039,0.000118,0.590251,-0.000036,-0.000116,0.000040,0.000128,0.000571,-0.785012,-0.000080,-2.356090,-0.000234,1.571235,0.785543,0.000968,-0.784907,-0.000092,-2.356123,-0.000242,1.571331,0.785547,-1.084231,-2.413748,-0.646667,18.519487,0.794744,1.390558,-0.046104
0.059000,0.307040,0.000118,0.590251,0.307077,0.000235,0.590210,0.307039,0.000118,0.590251,-0.000037,-0.000116,0.000042,0.000129,0.000571,-0.785012,-0.000080,-2.356090,-0.000234,1.571235,0.785543,0.000968,-0.784903,-0.000092,-2.356125,-0.000242,1.571332,0.785550,-1.032656,-2.437551,-0.646667,18.543291,0.794744,1.390558,-0.072654
0.060000,0.307040,0.000118,0.590251,0.307079,0.000238,0.590207,0.307040,0.000118,0.590251,-0.000039,-0.000120,0.000044,0.000134,0.000571,-0.785011,-0.000080,-2.356089,-0.000234,1.571235,0.785543,0.000974,-0.784898,-0.000088,-2.356128,-0.000240,1.571337,0.785552,-1.032656,-2.465322,-0.670470,18.594866,0.776433,1.376825,-0.085471
0.061000,0.307040,0.000118,0.590251,0.307078,0.000240,0.590208,0.307040,0.000118,0.590251,-0.000038,-0.000122,0.000044,0.000135,0.000571,-0.785011,-0.000080,-2.356089,-0.000234,1.571235,0.785543,0.000982,-0.784898,-0.000090,-2.356127,-0.000242,1.571332,0.785552,-1.060427,-2.413748,-0.670470,18.543291,0.794744,1.396966,-0.085471
0.062000,0.307040,0.000118,0.590251,0.307079,0.000240,0.590208,0.307040,0.000118,0.590251,-0.000039,-0.000122,0.000043,0.000135,0.000571,-0.785010,-0.000080,-2.356089,-0.000234,1.571235,0.785543,0.000986,-0.784897,-0.000092,-2.356126,-0.000241,1.571336,0.785552,-1.060427,-2.389944,-0.646667,18.543291,0.788335,1.390558,-0.085471
0.063000,0.307040,0.000118,0.590251,0.307080,0.000243,0.590206,0.307040,0.000118,0.590251,-0.000039,-0.000124,0.000045,0.000138,0.000571,-0.785009,-0.000080,-2.356088,-0.000234,1.571236,0.785543,0.000992,-0.784893,-0.000090,-2.356127,-0.000242,1.571337,0.785550,-1.060427,-2.389944,-0.646667,18.543291,0.800237,1.390558,-0.072654
0.064000,0.307041,0.000118,0.590251,0.307081,0.000246,0.590206,0.307040,0.000118,0.590251,-0.000041,-0.000128,0.000046,0.000142,0.000571,-0.785009,-0.000080,-2.356088,-0.000234,1.571236,0.785543,0.001000,-0.784888,-0.000088,-2.356126,-0.000242,1.571339,0.785547,-1.084231,-2.413748,-0.670470,18.543291,0.794744,1.396966,-0.046104
0.065000,0.307041,0.000118,0.590251,0.307081,0.000247,0.590207,0.307040,0.000118,0.590251,-0.000040,-0.000129,0.000045,0.000142,0.000571,-0.785008,-0.000080,-2.356088,-0.000234,1.571236,0.785543,0.001004,-0.784891,-0.000089,-2.356125,-0.000240,1.571341,0.785548,-1.084231,-2.338369,-0.646667,18.543291,0.782842,1.396966,-0.052512
0.066000,0.307041,0.000118,0.590251,0.307083,0.000250,0.590205,0.307041,0.000118,0.590251,-0.000042,-0.000131,0.000046,0.000145,0.000571,-0.785008,-0.000080,-2.356087,-0.000234,1.571236,0.785543,0.001011,-0.784883,-0.000087,-2.356123,-0.000242,1.571340,0.785550,-1.131838,-2.437551,-0.670470,18.519487,0.794744,1.403375,-0.072654
0.067000,0.307041,0.000118,0.590251,0.307084,0.000251,0.590206,0.307041,0.000118,0.590251,-0.000042,-0.000132,0.000045,0.000146,0.000571,-0.785007,-0.000080,-2.356087,-0.000234,1.571237,0.785543,0.001016,-0.784882,-0.000089,-2.356121,-0.000240,1.571343,0.785549,-1.159609,-2.413748,-0.646667,18.491716,0.782842,1.376825,-0.066245
0.068000,0.307041,0.000118,0.590251,0.307083,0.000253,0.590206,0.307041,0.000118,0.590251,-0.000042,-0.000135,0.000045,0.000148,0.000571,-0.785007,-0.000080,-2.356087,-0.000234,1.571237,0.785543,0.001023,-0.784885,-0.000087,-2.356123,-0.000242,1.571347,0.785552,-1.207216,-2.362173,-0.670470,18.491716,0.794744,1.376825,-0.085471
0.069000,0.307042,0.000118,0.590251,0.307085,0.000256,0.590203,0.307041,0.000118,0.590251,-0.000043,-0.000137,0.000048,0.000152,0.000571,-0.785006,-0.000080,-2.356086,-0.000234,1.571237,0.785543,0.001027,-0.784879,-0.000085,-2.356126,-0.000241,1.571350,0.785550,-1.258791,-2.413748,-0.698241,18.519487,0.788335,1.357599,-0.072654
0.070000,0.307042,0.000118,0.590251,0.307085,0.000257,0.590204,0.307041,0.000118,0.590251,-0.000043,-0.000139,0.000048,0.000153,0.000571,-0.785005,-0.000080,-2.356086,-0.000234,1.571237,0.785543,0.001033,-0.784878,-0.000085,-2.356124,-0.000241,1.571348,0.785550,-1.306399,-2.413748,-0.698241,18.491716,0.788335,1.376825,-0.072654
0.071000,0.307042,0.000118,0.590251,0.307085,0.000258,0.590205,0.307042,0.000118,0.590251,-0.000043,-0.000139,0.000047,0.000153,0.000571,-0.785005,-0.000080,-2.356086,-0.000234,1.571238,0.785543,0.001034,-0.784877,-0.000085,-2.356123,-0.000240,1.571349,0.785553,-1.306399,-2.413748,-0.698241,18.467913,0.776433,1.370416,-0.099204
0.072000,0.307042,0.000118,0.590251,0.307085,0.000260,0.590204,0.307042,0.000118,0.590251,-0.000043,-0.000142,0.000048,0.000155,0.000571,-0.785004,-0.000080,-2.356085,-0.000234,1.571238,0.785543,0.001042,-0.784877,-0.000085,-2.356125,-0.000242,1.571350,0.785549,-1.381777,-2.413748,-0.698241,18.491716,0.794744,1.364007,-0.058921
0.073000,0.307043,0.000118,0.590251,0.307085,0.000263,0.590204,0.307042,0.000118,0.590251,-0.000043,-0.000145,0.000048,0.000159,0.000571,-0.785003,-0.000080,-2.356085,-0.000234,1.571238,0.785543,0.001052,-0.784877,-0.000085,-2.356125,-0.000240,1.571349,0.785549,-1.457155,-2.389944,-0.698241,18.491716,0.782842,1.370416,-0.058921
0.074000,0.307043,0.000118,0.590251,0.307086,0.000264,0.590205,0.307042,0.000118,0.590251,-0.000043,-0.000146,0.000047,0.000159,0.000571,-0.785002,-0.000080,-2.356084,-0.000234,1.571239,0.785543,0.001052,-0.784876,-0.000084,-2.356122,-0.000240,1.571350,0.785548,-1.405581,-2.389944,-0.722045,18.491716,0.782842,1.364007,-0.052512
0.075000,0.307043,0.000118,0.590251,0.307087,0.000266,0.590202,0.307042,0.000118,0.590251,-0.000044,-0.000148,0.000049,0.000162,0.000571,-0.785002,-0.000080,-2.356084,-0.000234,1.571239,0.785543,0.001059,-0.784871,-0.000084,-2.356124,-0.000241,1.571350,0.785545,-1.457155,-2.465322,-0.722045,18.519487,0.788335,1.364007,-0.025962
0.076000,0.307043,0.000118,0.590251,0.307087,0.000267,0.590205,0.307043,0.000118,0.590251,-0.000043,-0.000149,0.000046,0.000161,0.000571,-0.785001,-0.000080,-2.356084,-0.000234,1.571239,0.785543,0.001063,-0.784874,-0.000084,-2.356120,-0.000244,1.571353,0.785552,-1.457155,-2.413748,-0.722045,18.467913,0.782842,1.364007,-0.092796
0.077000,0.307044,0.000118,0.590251,0.307088,0.000268,0.590204,0.307043,0.000118,0.590251,-0.000044,-0.000150,0.000047,0.000163,0.000571,-0.785000,-0.000080,-2.356083,-0.000234,1.571240,0.785543,0.001068,-0.784870,-0.000085,-2.356120,-0.000241,1.571354,0.785554,-1.457155,-2.465322,-0.698241,18.467913,0.782842,1.364007,-0.105613
0.078000,0.307044,0.000118,0.590251,0.307088,0.000269,0.590205,0.307043,0.000118,0.590251,-0.000044,-0.000151,0.000046,0.000164,0.000571,-0.784999,-0.000080,-2.356083,-0.000234,1.571240,0.785543,0.001074,-0.784870,-0.000087,-2.356118,-0.000241,1.571353,0.785552,-1.457155,-2.437551,-0.670470,18.444109,0.782842,1.370416,-0.092796
0.079000,0.307044,0.000118,0.590251,0.307089,0.000269,0.590204,0.307043,0.000118,0.590251,-0.000045,-0.000151,0.000048,0.000165,0.000571,-0.784998,-0.000080,-2.356082,-0.000234,1.571240,0.785543,0.001077,-0.784868,-0.000089,-2.356120,-0.000240,1.571357,0.785552,-1.405581,-2.465322,-0.646667,18.467913,0.782842,1.364007,-0.085471
0.080000,0.307044,0.000118,0.590251,0.307089,0.000272,0.590203,0.307044,0.000118,0.590251,-0.000045,-0.000153,0.000048,0.000167,0.000571,-0.784998,-0.000080,-2.356082,-0.000234,1.571241,0.785543,0.001083,-0.784867,-0.000089,-2.356121,-0.000240,1.571359,0.785549,-1.381777,-2.437551,-0.646667,18.491716,0.776433,1.364007,-0.058921
0.081000,0.307045,0.000118,0.590251,0.307090,0.000273,0.590202,0.307044,0.000118,0.590251,-0.000045,-0.000154,0.000050,0.000168,0.000571,-0.784997,-0.000080,-2.356081,-0.000234,1.571241,0.785543,0.001085,-0.784863,-0.000087,-2.356121,-0.000240,1.571358,0.785546,-1.306399,-2.489126,-0.670470,18.491716,0.776433,1.376825,-0.032371
0.082000,0.307045,0.000118,0.590251,0.307090,0.000273,0.590203,0.307044,0.000118,0.590251,-0.000045,-0.000154,0.000048,0.000168,0.000571,-0.784996,-0.000080,-2.356081,-0.000234,1.571242,0.785543,0.001092,-0.784862,-0.000092,-2.356118,-0.000240,1.571358,0.785544,-1.282595,-2.465322,-0.595092,18.444109,0.782842,1.370416,-0.019553
0.083000,0.307045,0.000118,0.590251,0.307090,0.000273,0.590201,0.307045,0.000118,0.590251,-0.000044,-0.000154,0.000050,0.000168,0.000571,-0.784995,-0.000080,-2.356080,-0.000234,1.571242,0.785543,0.001093,-0.784865,-0.000092,-2.356123,-0.000241,1.571358,0.785548,-1.183413,-2.413748,-0.595092,18.491716,0.788335,1.370416,-0.052512
0.084000,0.307046,0.000118,0.590251,0.307090,0.000275,0.590200,0.307045,0.000118,0.590251,-0.000044,-0.000157,0.000051,0.000171,0.000571,-0.784994,-0.000080,-2.356080,-0.000234,1.571242,0.785543,0.001103,-0.784863,-0.000094,-2.356124,-0.000240,1.571358,0.785553,-1.207216,-2.413748,-0.571288,18.519487,0.782842,1.370416,-0.099204
0.085000,0.307046,0.000118,0.590251,0.307090,0.000277,0.590203,0.307045,0.000118,0.590251,-0.000044,-0.000159,0.000049,0.000172,0.000571,-0.784993,-0.000080,-2.356079,-0.000234,1.571243,0.785543,0.001109,-0.784863,-0.000094,-2.356120,-0.000240,1.571362,0.785555,-1.159609,-2.389944,-0.571288,18.444109,0.782842,1.370416,-0.085471
0.086000,0.307046,0.000118,0.590251,0.307091,0.000279,0.590200,0.307045,0.000118,0.590251,-0.000045,-0.000161,0.000051,0.000174,0.000571,-0.784992,-0.000080,-2.356078,-0.000234,1.571243,0.785543,0.001115,-0.784861,-0.000094,-2.356124,-0.000240,1.571363,0.785550,-1.108034,-2.389944,-0.571288,18.491716,0.782842,1.370416,-0.066245
0.087000,0.307047,0.000118,0.590251,0.307091,0.000278,0.590201,0.307046,0.000118,0.590251,-0.000045,-0.000159,0.000051,0.000173,0.000571,-0.784991,-0.000080,-2.356078,-0.000234,1.571244,0.785543,0.001117,-0.784860,-0.000099,-2.356122,-0.000241,1.571363,0.785550,-1.032656,-2.362173,-0.495910,18.491716,0.788335,1.370416,-0.072654
0.088000,0.307047,0.000118,0.590251,0.307092,0.000278,0.590199,0.307046,0.000118,0.590251,-0.000045,-0.000160,0.000052,0.000174,0.000571,-0.784990,-0.000080,-2.356077,-0.000234,1.571244,0.785543,0.001123,-0.784857,-0.000102,-2.356124,-0.000242,1.571362,0.785547,-0.985048,-2.389944,-0.495910,18.519487,0.794744,1.384149,-0.039695
0.089000,0.307047,0.000118,0.590251,0.307092,0.000277,0.590201,0.307046,0.000118,0.590251,-0.000045,-0.000158,0.000051,0.000172,0.000571,-0.784989,-0.000080,-2.356077,-0.000234,1.571245,0.785543,0.001128,-0.784857,-0.000110,-2.356120,-0.000244,1.571361,0.785554,-0.961245,-2.362173,-0.392760,18.467913,0.782842,1.390558,-0.105613
0.090000,0.307048,0.000118,0.590251,0.307092,0.000280,0.590201,0.307047,0.000118,0.590251,-0.000044,-0.000162,0.000050,0.000175,0.000571,-0.784988,-0.000080,-2.356076,-0.000234,1.571245,0.785543,0.001134,-0.784857,-0.000106,-2.356120,-0.000243,1.571361,0.785552,-0.985048,-2.310598,-0.444335,18.467913,0.800237,1.390558,-0.085471
0.091000,0.307048,0.000118,0.590251,0.307093,0.000279,0.590198,0.307047,0.000118,0.590251,-0.000045,-0.000161,0.000054,0.000175,0.000571,-0.784987,-0.000080,-2.356075,-0.000234,1.571245,0.785543,0.001136,-0.784852,-0.000110,-2.356123,-0.000241,1.571361,0.785553,-0.985048,-2.338369,-0.392760,18.491716,0.788335,1.390558,-0.066245
0.092000,0.307048,0.000118,0.590251,0.307093,0.000282,0.590199,0.307047,0.000118,0.590251,-0.000045,-0.000164,0.000052,0.000178,0.000571,-0.784986,-0.000080,-2.356075,-0.000234,1.571246,0.785543,0.001142,-0.784853,-0.000106,-2.356120,-0.000241,1.571360,0.785546,-1.032656,-2.286794,-0.444335,18.467913,0.788335,1.396966,-0.025962
0.093000,0.307049,0.000118,0.590251,0.307094,0.000281,0.590196,0.307048,0.000118,0.590251,-0.000045,-0.000163,0.000055,0.000178,0.000571,-0.784984,-0.000080,-2.356074,-0.000234,1.571246,0.785543,0.001141,-0.784848,-0.000108,-2.356123,-0.000242,1.571360,0.785551,-1.008852,-2.310598,-0.416564,18.519487,0.794744,1.403375,-0.046104
0.094000,0.307049,0.000118,0.590251,0.307093,0.000283,0.590198,0.307048,0.000118,0.590251,-0.000044,-0.000165,0.000053,0.000179,0.000571,-0.784983,-0.000080,-2.356073,-0.000234,1.571247,0.785543,0.001147,-0.784854,-0.000108,-2.356123,-0.000241,1.571365,0.785552,-1.084231,-2.183645,-0.416564,18.519487,0.788335,1.384149,-0.079063
0.095000,0.307050,0.000118,0.590251,0.307095,0.000284,0.590196,0.307049,0.000118,0.590251,-0.000045,-0.000166,0.000055,0.000181,0.000571,-0.784982,-0.000080,-2.356073,-0.000234,1.571248,0.785543,0.001150,-0.784847,-0.000108,-2.356124,-0.000241,1.571364,0.785557,-1.131838,-2.235220,-0.416564,18.491716,0.788335,1.396966,-0.099204
0.096000,0.307050,0.000118,0.590251,0.307096,0.000284,0.590196,0.307049,0.000118,0.590251,-0.000046,-0.000166,0.000056,0.000181,0.000571,-0.784981,-0.000080,-2.356072,-0.000234,1.571248,0.785543,0.001150,-0.784842,-0.000108,-2.356122,-0.000240,1.571366,0.785554,-1.131838,-2.262991,-0.416564,18.491716,0.782842,1.384149,-0.092796
0.097000,0.307050,0.000118,0.590251,0.307097,0.000286,0.590196,0.307049,0.000118,0.590251,-0.000046,-0.000168,0.000055,0.000183,0.000571,-0.784979,-0.000080,-2.356071,-0.000234,1.571249,0.785543,0.001155,-0.784842,-0.000106,-2.356122,-0.000245,1.571369,0.785551,-1.207216,-2.211416,-0.444335,18.491716,0.794744,1.390558,-0.052512
0.098000,0.307051,0.000118,0.590251,0.307097,0.000287,0.590196,0.307050,0.000118,0.590251,-0.000046,-0.000168,0.000055,0.000183,0.000571,-0.784978,-0.000080,-2.356071,-0.000234,1.571249,0.785543,0.001156,-0.784841,-0.000106,-2.356121,-0.000242,1.571371,0.785548,-1.183413,-2.183645,-0.444335,18.491716,0.788335,1.384149,-0.013145
0.099000,0.307051,0.000118,0.590251,0.307097,0.000290,0.590197,0.307050,0.000118,0.590251,-0.000046,-0.000172,0.000054,0.000186,0.000571,-0.784977,-0.000080,-2.356070,-0.000234,1.571250,0.785543,0.001162,-0.784841,-0.000103,-2.356120,-0.000241,1.571372,0.785548,-1.258791,-2.132070,-0.495910,18.467913,0.782842,1.376825,-0.039695
0.100000,0.307052,0.000118,0.590251,0.307098,0.000289,0.590197,0.307051,0.000118,0.590251,-0.000046,-0.000171,0.000055,0.000185,0.000571,-0.784975,-0.000080,-2.356069,-0.000234,1.571250,0.785543,0.001162,-0.784838,-0.000105,-2.356118,-0.000240,1.571371,0.785553,-1.258791,-2.132070,-0.468139,18.444109,0.782842,1.384149,-0.092796
0.101000,0.307052,0.000118,0.590251,0.307099,0.000289,0.590195,0.307051,0.000118,0.590251,-0.000047,-0.000170,0.000056,0.000185,0.000571,-0.784974,-0.000080,-2.356068,-0.000234,1.571251,0.785543,0.001162,-0.784833,-0.000106,-2.356118,-0.000240,1.571371,0.785552,-1.231020,-2.183645,-0.444335,18.444109,0.782842,1.384149,-0.092796
0.102000,0.307053,0.000118,0.590251,0.307101,0.000291,0.590193,0.307051,0.000118,0.590251,-0.000048,-0.000172,0.000058,0.000188,0.000571,-0.784973,-0.000080,-2.356067,-0.000234,1.571251,0.785543,0.001167,-0.784827,-0.000105,-2.356120,-0.000243,1.571374,0.785553,-1.282595,-2.235220,-0.468139,18.467913,0.776433,1.384149,-0.072654
0.103000,0.307053,0.000118,0.590251,0.307101,0.000292,0.590193,0.307052,0.000118,0.590251,-0.000048,-0.000173,0.000058,0.000189,0.000571,-0.784971,-0.000080,-2.356067,-0.000234,1.571252,0.785543,0.001171,-0.784828,-0.000105,-2.356120,-0.000243,1.571375,0.785549,-1.306399,-2.183645,-0.468139,18.467913,0.794744,1.384149,-0.052512
0.104000,0.307054,0.000118,0.590251,0.307101,0.000294,0.590194,0.307052,0.000118,0.590251,-0.000047,-0.000176,0.000057,0.000191,0.000571,-0.784970,-0.000080,-2.356066,-0.000234,1.571253,0.785543,0.001174,-0.784829,-0.000101,-2.356118,-0.000241,1.571376,0.785548,-1.282595,-2.159841,-0.543517,18.444109,0.788335,1.384149,-0.025962
0.105000,0.307054,0.000118,0.590251,0.307102,0.000294,0.590193,0.307053,0.000118,0.590251,-0.000048,-0.000175,0.000058,0.000191,0.000571,-0.784968,-0.000080,-2.356065,-0.000234,1.571253,0.785543,0.001178,-0.784824,-0.000105,-2.356118,-0.000244,1.571376,0.785549,-1.282595,-2.183645,-0.495910,18.444109,0.788335,1.384149,-0.052512
0.106000,0.307055,0.000118,0.590251,0.307103,0.000295,0.590193,0.307053,0.000118,0.590251,-0.000048,-0.000177,0.000058,0.000192,0.000571,-0.784967,-0.000080,-2.356064,-0.000234,1.571254,0.785543,0.001180,-0.784822,-0.000102,-2.356116,-0.000245,1.571377,0.785554,-1.258791,-2.211416,-0.543517,18.416338,0.782842,1.370416,-0.072654
0.107000,0.307055,0.000118,0.590251,0.307104,0.000297,0.590194,0.307054,0.000118,0.590251,-0.000049,-0.000178,0.000058,0.000194,0.000571,-0.784965,-0.000080,-2.356063,-0.000234,1.571255,0.785543,0.001185,-0.784820,-0.000104,-2.356114,-0.000242,1.571381,0.785551,-1.258791,-2.235220,-0.495910,18.392534,0.782842,1.370416,-0.072654
0.108000,0.307056,0.000118,0.590251,0.307104,0.000297,0.590191,0.307054,0.000118,0.590251,-0.000049,-0.000179,0.000060,0.000195,0.000571,-0.784964,-0.000080,-2.356062,-0.000234,1.571255,0.785543,0.001187,-0.784818,-0.000103,-2.356118,-0.000242,1.571380,0.785554,-1.231020,-2.262991,-0.519713,18.444109,0.794744,1.384149,-0.079063
0.109000,0.307056,0.000118,0.590251,0.307105,0.000299,0.590190,0.307055,0.000118,0.590251,-0.000049,-0.000180,0.000061,0.000196,0.000571,-0.784962,-0.000080,-2.356061,-0.000234,1.571256,0.785543,0.001188,-0.784814,-0.000102,-2.356118,-0.000241,1.571379,0.785553,-1.231020,-2.310598,-0.519713,18.444109,0.782842,1.396966,-0.058921
0.110000,0.307057,0.000118,0.590251,0.307105,0.000301,0.590190,0.307055,0.000118,0.590251,-0.000048,-0.000183,0.000061,0.000199,0.000571,-0.784960,-0.000080,-2.356060,-0.000234,1.571257,0.785543,0.001193,-0.784814,-0.000100,-2.356118,-0.000240,1.571380,0.785551,-1.231020,-2.310598,-0.543517,18.444109,0.776433,1.390558,-0.066245
0.111000,0.307057,0.000118,0.590251,0.307106,0.000301,0.590190,0.307056,0.000118,0.590251,-0.000049,-0.000182,0.000061,0.000198,0.000571,-0.784959,-0.000080,-2.356060,-0.000234,1.571257,0.785543,0.001193,-0.784812,-0.000100,-2.356118,-0.000244,1.571386,0.785553,-1.183413,-2.338369,-0.571288,18.444109,0.782842,1.370416,-0.092796
0.112000,0.307058,0.000118,0.590251,0.307106,0.000299,0.590189,0.307056,0.000118,0.590251,-0.000048,-0.000181,0.000062,0.000197,0.000571,-0.784957,-0.000080,-2.356059,-0.000234,1.571258,0.785543,0.001193,-0.784812,-0.000104,-2.356120,-0.000240,1.571387,0.785555,-1.131838,-2.310598,-0.519713,18.467913,0.770940,1.370416,-0.085471
0.113000,0.307058,0.000118,0.590251,0.307106,0.000302,0.590191,0.307057,0.000118,0.590251,-0.000048,-0.000183,0.000061,0.000199,0.000571,-0.784955,-0.000080,-2.356058,-0.000234,1.571259,0.785543,0.001196,-0.784812,-0.000100,-2.356116,-0.000241,1.571386,0.785556,-1.131838,-2.338369,-0.571288,18.416338,0.788335,1.376825,-0.085471
0.114000,0.307059,0.000118,0.590251,0.307108,0.000303,0.590190,0.307057,0.000118,0.590251,-0.000049,-0.000185,0.000061,0.000201,0.000571,-0.784954,-0.000080,-2.356057,-0.000234,1.571260,0.785543,0.001200,-0.784806,-0.000098,-2.356114,-0.000240,1.571387,0.785550,-1.131838,-2.389944,-0.571288,18.416338,0.776433,1.396966,-0.058921
0.115000,0.307059,0.000118,0.590251,0.307109,0.000304,0.590189,0.307058,0.000118,0.590251,-0.000049,-0.000186,0.000062,0.000202,0.000571,-0.784952,-0.000080,-2.356056,-0.000234,1.571260,0.785543,0.001203,-0.784804,-0.000098,-2.356115,-0.000244,1.571391,0.785549,-1.131838,-2.413748,-0.571288,18.444109,0.782842,1.376825,-0.025962
0.116000,0.307060,0.000118,0.590251,0.307110,0.000305,0.590188,0.307059,0.000118,0.590251,-0.000050,-0.000187,0.000063,0.000204,0.000571,-0.784950,-0.000080,-2.356055,-0.000234,1.571261,0.785543,0.001206,-0.784802,-0.000098,-2.356117,-0.000241,1.571392,0.785550,-1.131838,-2.413748,-0.595092,18.444109,0.782842,1.364007,-0.058921
0.117000,0.307061,0.000118,0.590251,0.307109,0.000305,0.590186,0.307059,0.000118,0.590251,-0.000049,-0.000187,0.000065,0.000204,0.000571,-0.784948,-0.000080,-2.356054,-0.000234,1.571262,0.785543,0.001204,-0.784803,-0.000096,-2.356121,-0.000245,1.571393,0.785554,-1.060427,-2.389944,-0.595092,18.519487,0.788335,1.364007,-0.105613
0.118000,0.307061,0.000118,0.590251,0.307111,0.000306,0.590186,0.307060,0.000118,0.590251,-0.000049,-0.000188,0.000066,0.000205,0.000571,-0.784946,-0.000080,-2.356052,-0.000234,1.571263,0.785543,0.001209,-0.784797,-0.000098,-2.356119,-0.000246,1.571392,0.785552,-1.060427,-2.437551,-0.595092,18.467913,0.794744,1.370416,-0.092796
0.119000,0.307062,0.000118,0.590251,0.307111,0.000309,0.590185,0.307060,0.000118,0.590251,-0.000049,-0.000190,0.000067,0.000208,0.000571,-0.784944,-0.000080,-2.356051,-0.000234,1.571264,0.785543,0.001217,-0.784797,-0.000097,-2.356121,-0.000245,1.571393,0.785554,-1.108034,-2.389944,-0.622863,18.519487,0.782842,1.364007,-0.079063
0.120000,0.307062,0.000118,0.590251,0.307111,0.000309,0.590185,0.307061,0.000118,0.590251,-0.000048,-0.000190,0.000067,0.000207,0.000571,-0.784943,-0.000080,-2.356050,-0.000234,1.571264,0.785543,0.001217,-0.784796,-0.000098,-2.356120,-0.000243,1.571393,0.785549,-1.060427,-2.389944,-0.571288,18.491716,0.788335,1.364007,-0.025962
0.121000,0.307063,0.000118,0.590251,0.307112,0.000309,0.590183,0.307061,0.000118,0.590251,-0.000049,-0.000190,0.000068,0.000208,0.000571,-0.784941,-0.000080,-2.356049,-0.000234,1.571265,0.785543,0.001217,-0.784791,-0.000098,-2.356119,-0.000242,1.571392,0.785549,-0.985048,-2.465322,-0.595092,18.467913,0.788335,1.370416,-0.025962
0.122000,0.307064,0.000118,0.590251,0.307112,0.000311,0.590184,0.307062,0.000118,0.590251,-0.000048,-0.000192,0.000068,0.000209,0.000571,-0.784939,-0.000080,-2.356048,-0.000234,1.571266,0.785543,0.001226,-0.784792,-0.000100,-2.356119,-0.000241,1.571391,0.785546,-1.060427,-2.413748,-0.571288,18.491716,0.788335,1.376825,-0.025962
0.123000,0.307064,0.000118,0.590251,0.307113,0.000314,0.590182,0.307063,0.000118,0.590251,-0.000048,-0.000196,0.000069,0.000213,0.000571,-0.784937,-0.000080,-2.356047,-0.000234,1.571267,0.785543,0.001230,-0.784788,-0.000095,-2.356120,-0.000241,1.571391,0.785552,-1.060427,-2.465322,-0.622863,18.519487,0.788335,1.376825,-0.058921
0.124000,0.307065,0.000118,0.590251,0.307114,0.000314,0.590180,0.307063,0.000118,0.590251,-0.000049,-0.000196,0.000071,0.000214,0.000571,-0.784935,-0.000080,-2.356046,-0.000234,1.571268,0.785543,0.001235,-0.784784,-0.000098,-2.356122,-0.000241,1.571393,0.785554,-1.084231,-2.489126,-0.595092,18.519487,0.788335,1.390558,-0.092796
0.125000,0.307066,0.000118,0.590251,0.307113,0.000317,0.590179,0.307064,0.000118,0.590251,-0.000047,-0.000198,0.000073,0.000217,0.000571,-0.784932,-0.000080,-2.356044,-0.000234,1.571269,0.785543,0.001241,-0.784787,-0.000096,-2.356126,-0.000241,1.571391,0.785549,-1.159609,-2.437551,-0.595092,18.594866,0.788335,1.390558,-0.032371
0.126000,0.307066,0.000118,0.590251,0.307115,0.000316,0.590179,0.307065,0.000118,0.590251,-0.000048,-0.000197,0.000072,0.000216,0.000571,-0.784930,-0.000080,-2.356043,-0.000234,1.571270,0.785543,0.001240,-0.784781,-0.000098,-2.356122,-0.000244,1.571393,0.785551,-1.108034,-2.489126,-0.595092,18.519487,0.782842,1.390558,-0.072654
0.127000,0.307067,0.000118,0.590251,0.307115,0.000319,0.590179,0.307065,0.000118,0.590251,-0.000048,-0.000200,0.000072,0.000218,0.000571,-0.784928,-0.000080,-2.356042,-0.000234,1.571271,0.785543,0.001246,-0.784781,-0.000095,-2.356123,-0.000245,1.571393,0.785551,-1.183413,-2.465322,-0.622863,18.519487,0.782842,1.396966,-0.046104
0.128000,0.307068,0.000118,0.590251,0.307114,0.000320,0.590180,0.307066,0.000118,0.590251,-0.000046,-0.000202,0.000071,0.000219,0.000571,-0.784926,-0.000080,-2.356041,-0.000234,1.571272,0.785543,0.001247,-0.784785,-0.000093,-2.356123,-0.000242,1.571394,0.785557,-1.159609,-2.413748,-0.670470,18.519487,0.782842,1.396966,-0.092796
0.129000,0.307069,0.000118,0.590251,0.307114,0.000323,0.590177,0.307067,0.000118,0.590251,-0.000046,-0.000204,0.000075,0.000222,0.000571,-0.784924,-0.000080,-2.356040,-0.000234,1.571273,0.785543,0.001254,-0.784783,-0.000093,-2.356128,-0.000240,1.571393,0.785556,-1.258791,-2.413748,-0.646667,18.594866,0.770940,1.403375,-0.085471
0.130000,0.307069,0.000118,0.590251,0.307115,0.000323,0.590179,0.307067,0.000118,0.590251,-0.000045,-0.000204,0.000072,0.000221,0.000571,-0.784921,-0.000080,-2.356038,-0.000234,1.571273,0.785543,0.001255,-0.784782,-0.000092,-2.356123,-0.000241,1.571393,0.785554,-1.258791,-2.413748,-0.646667,18.519487,0.788335,1.403375,-0.092796
0.131000,0.307070,0.000118,0.590251,0.307115,0.000326,0.590177,0.307068,0.000118,0.590251,-0.000045,-0.000208,0.000075,0.000225,0.000571,-0.784919,-0.000080,-2.356037,-0.000234,1.571274,0.785543,0.001260,-0.784779,-0.000089,-2.356127,-0.000241,1.571393,0.785553,-1.306399,-2.413748,-0.698241,18.567095,0.788335,1.403375,-0.066245
0.132000,0.307071,0.000118,0.590251,0.307116,0.000326,0.590178,0.307069,0.000118,0.590251,-0.000045,-0.000208,0.000074,0.000225,0.000571,-0.784917,-0.000080,-2.356036,-0.000234,1.571275,0.785543,0.001266,-0.784779,-0.000092,-2.356125,-0.000240,1.571397,0.785549,-1.381777,-2.413748,-0.646667,18.543291,0.782842,1.396966,-0.019553
0.133000,0.307072,0.000118,0.590251,0.307116,0.000329,0.590178,0.307070,0.000118,0.590251,-0.000044,-0.000210,0.000074,0.000227,0.000571,-0.784914,-0.000080,-2.356034,-0.000234,1.571277,0.785543,0.001262,-0.784778,-0.000083,-2.356123,-0.000241,1.571393,0.785551,-1.282595,-2.389944,-0.773620,18.519487,0.788335,1.409784,-0.039695
0.134000,0.307072,0.000118,0.590251,0.307116,0.000330,0.590178,0.307070,0.000118,0.590251,-0.000043,-0.000211,0.000073,0.000228,0.000571,-0.784912,-0.000080,-2.356033,-0.000234,1.571278,0.785543,0.001270,-0.784779,-0.000087,-2.356123,-0.000240,1.571397,0.785552,-1.357973,-2.338369,-0.722045,18.519487,0.776433,1.403375,-0.046104
0.135000,0.307073,0.000118,0.590251,0.307116,0.000329,0.590177,0.307071,0.000118,0.590251,-0.000043,-0.000211,0.000075,0.000228,0.000571,-0.784910,-0.000080,-2.356031,-0.000234,1.571279,0.785543,0.001271,-0.784776,-0.000088,-2.356125,-0.000242,1.571397,0.785555,-1.330202,-2.362173,-0.698241,18.543291,0.770940,1.409784,-0.099204
0.136000,0.307074,0.000118,0.590251,0.307117,0.000331,0.590177,0.307072,0.000118,0.590251,-0.000043,-0.000212,0.000075,0.000229,0.000571,-0.784907,-0.000080,-2.356030,-0.000234,1.571280,0.785543,0.001274,-0.784773,-0.000087,-2.356123,-0.000245,1.571398,0.785555,-1.330202,-2.338369,-0.722045,18.519487,0.782842,1.396966,-0.085471
0.137000,0.307075,0.000118,0.590251,0.307117,0.000333,0.590177,0.307073,0.000118,0.590251,-0.000042,-0.000214,0.000075,0.000231,0.000571,-0.784905,-0.000080,-2.356029,-0.000234,1.571281,0.785543,0.001279,-0.784775,-0.000085,-2.356125,-0.000245,1.571399,0.785553,-1.357973,-2.286794,-0.749816,18.543291,0.782842,1.396966,-0.058921
0.138000,0.307076,0.000118,0.590251,0.307118,0.000333,0.590176,0.307074,0.000118,0.590251,-0.000042,-0.000215,0.000075,0.000231,0.000571,-0.784902,-0.000080,-2.356027,-0.000234,1.571282,0.785543,0.001281,-0.784771,-0.000087,-2.356123,-0.000242,1.571399,0.785550,-1.306399,-2.310598,-0.722045,18.519487,0.782842,1.390558,-0.032371
0.139000,0.307076,0.000118,0.590251,0.307119,0.000334,0.590177,0.307074,0.000118,0.590251,-0.000043,-0.000216,0.000074,0.000232,0.000571,-0.784899,-0.000080,-2.356026,-0.000234,1.571283,0.785543,0.001287,-0.784768,-0.000088,-2.356119,-0.000241,1.571402,0.785550,-1.330202,-2.310598,-0.698241,18.491716,0.782842,1.396966,-0.032371
0.140000,0.307077,0.000118,0.590251,0.307119,0.000336,0.590177,0.307075,0.000118,0.590251,-0.000042,-0.000218,0.000074,0.000234,0.000571,-0.784897,-0.000080,-2.356024,-0.000234,1.571284,0.785543,0.001292,-0.784768,-0.000087,-2.356121,-0.000243,1.571404,0.785556,-1.357973,-2.286794,-0.722045,18.491716,0.776433,1.384149,-0.079063
0.141000,0.307078,0.000118,0.590251,0.307120,0.000337,0.590177,0.307076,0.000118,0.590251,-0.000042,-0.000218,0.000075,0.000235,0.000571,-0.784894,-0.000080,-2.356023,-0.000234,1.571285,0.785543,0.001292,-0.784764,-0.000085,-2.356119,-0.000245,1.571403,0.785558,-1.282595,-2.310598,-0.749816,18.491716,0.782842,1.396966,-0.099204
0.142000,0.307079,0.000118,0.590251,0.307120,0.000338,0.590175,0.307077,0.000118,0.590251,-0.000041,-0.000219,0.000076,0.000236,0.000571,-0.784892,-0.000080,-2.356021,-0.000234,1.571286,0.785543,0.001300,-0.784765,-0.000088,-2.356122,-0.000245,1.571405,0.785559,-1.306399,-2.286794,-0.698241,18.519487,0.782842,1.384149,-0.105613
0.143000,0.307080,0.000118,0.590251,0.307121,0.000337,0.590178,0.307078,0.000118,0.590251,-0.000041,-0.000218,0.000074,0.000234,0.000571,-0.784889,-0.000080,-2.356020,-0.000234,1.571288,0.785543,0.001299,-0.784765,-0.000090,-2.356117,-0.000246,1.571407,0.785550,-1.231020,-2.286794,-0.670470,18.467913,0.788335,1.390558,-0.032371
0.144000,0.307081,0.000118,0.590251,0.307121,0.000337,0.590180,0.307079,0.000118,0.590251,-0.000040,-0.000218,0.000072,0.000233,0.000571,-0.784886,-0.000080,-2.356018,-0.000234,1.571289,0.785543,0.001301,-0.784765,-0.000092,-2.356113,-0.000243,1.571409,0.785548,-1.207216,-2.286794,-0.646667,18.416338,0.788335,1.384149,-0.039695
0.145000,0.307082,0.000118,0.590251,0.307120,0.000337,0.590179,0.307079,0.000118,0.590251,-0.000039,-0.000219,0.000073,0.000234,0.000571,-0.784883,-0.000080,-2.356016,-0.000234,1.571290,0.785543,0.001304,-0.784766,-0.000094,-2.356117,-0.000244,1.571409,0.785554,-1.207216,-2.262991,-0.622863,18.444109,0.782842,1.390558,-0.072654
0.146000,0.307083,0.000118,0.590251,0.307121,0.000339,0.590177,0.307080,0.000118,0.590251,-0.000039,-0.000221,0.000074,0.000236,0.000571,-0.784880,-0.000080,-2.356015,-0.000234,1.571291,0.785543,0.001305,-0.784763,-0.000090,-2.356117,-0.000241,1.571409,0.785552,-1.183413,-2.310598,-0.646667,18.467913,0.776433,1.390558,-0.079063
0.147000,0.307084,0.000118,0.590251,0.307121,0.000339,0.590180,0.307081,0.000118,0.590251,-0.000038,-0.000220,0.000072,0.000235,0.000571,-0.784878,-0.000080,-2.356013,-0.000234,1.571292,0.785543,0.001309,-0.784763,-0.000093,-2.356113,-0.000245,1.571410,0.785554,-1.183413,-2.310598,-0.622863,18.416338,0.788335,1.376825,-0.105613
0.148000,0.307085,0.000118,0.590251,0.307122,0.000339,0.590178,0.307082,0.000118,0.590251,-0.000038,-0.000221,0.000074,0.000236,0.000571,-0.784875,-0.000080,-2.356011,-0.000234,1.571294,0.785543,0.001308,-0.784761,-0.000092,-2.356117,-0.000243,1.571413,0.785552,-1.131838,-2.338369,-0.646667,18.467913,0.794744,1.384149,-0.058921
0.149000,0.307085,0.000118,0.590251,0.307122,0.000340,0.590177,0.307083,0.000118,0.590251,-0.000036,-0.000222,0.000074,0.000237,0.000571,-0.784872,-0.000080,-2.356010,-0.000234,1.571295,0.785543,0.001311,-0.784763,-0.000092,-2.356118,-0.000240,1.571413,0.785551,-1.159609,-2.286794,-0.646667,18.491716,0.776433,1.390558,-0.039695
0.150000,0.307086,0.000118,0.590251,0.307122,0.000339,0.590179,0.307084,0.000118,0.590251,-0.000036,-0.000221,0.000073,0.000235,0.000571,-0.784869,-0.000080,-2.356008,-0.000234,1.571296,0.785543,0.001308,-0.784762,-0.000092,-2.356115,-0.000241,1.571414,0.785550,-1.084231,-2.286794,-0.646667,18.444109,0.782842,1.384149,-0.025962
0.151000,0.307087,0.000118,0.590251,0.307123,0.000340,0.590177,0.307085,0.000118,0.590251,-0.000035,-0.000222,0.000075,0.000237,0.000571,-0.784866,-0.000080,-2.356006,-0.000234,1.571297,0.785543,0.001315,-0.784760,-0.000094,-2.356118,-0.000243,1.571418,0.785553,-1.159609,-2.310598,-0.622863,18.491716,0.776433,1.384149,-0.052512
0.152000,0.307088,0.000118,0.590251,0.307124,0.000339,0.590178,0.307086,0.000118,0.590251,-0.000035,-0.000221,0.000074,0.000235,0.000571,-0.784863,-0.000080,-2.356005,-0.000234,1.571299,0.785543,0.001312,-0.784758,-0.000094,-2.356115,-0.000245,1.571419,0.785554,-1.084231,-2.338369,-0.622863,18.444109,0.788335,1.384149,-0.092796
0.153000,0.307089,0.000118,0.590251,0.307124,0.000341,0.590178,0.307087,0.000118,0.590251,-0.000034,-0.000223,0.000074,0.000237,0.000571,-0.784859,-0.000080,-2.356003,-0.000234,1.571300,0.785543,0.001318,-0.784758,-0.000094,-2.356115,-0.000246,1.571418,0.785556,-1.131838,-2.310598,-0.622863,18.444109,0.788335,1.396966,-0.092796
0.154000,0.307090,0.000118,0.590251,0.307124,0.000339,0.590177,0.307088,0.000118,0.590251,-0.000034,-0.000221,0.000074,0.000236,0.000571,-0.784856,-0.000080,-2.356001,-0.000234,1.571301,0.785543,0.001317,-0.784757,-0.000097,-2.356116,-0.000246,1.571422,0.785552,-1.108034,-2.310598,-0.571288,18.467913,0.788335,1.390558,-0.079063
0.155000,0.307092,0.000118,0.590251,0.307124,0.000341,0.590177,0.307089,0.000118,0.590251,-0.000032,-0.000223,0.000075,0.000237,0.000571,-0.784853,-0.000080,-2.355999,-0.000234,1.571303,0.785543,0.001320,-0.784758,-0.000096,-2.356118,-0.000242,1.571422,0.785551,-1.108034,-2.262991,-0.595092,18.491716,0.782842,1.396966,-0.052512
0.156000,0.307093,0.000118,0.590251,0.307125,0.000342,0.590174,0.307090,0.000118,0.590251,-0.000032,-0.000224,0.000078,0.000239,0.000571,-0.784850,-0.000080,-2.355997,-0.000234,1.571304,0.785543,0.001321,-0.784754,-0.000094,-2.356121,-0.000245,1.571419,0.785550,-1.108034,-2.310598,-0.622863,18.567095,0.788335,1.396966,-0.032371
0.157000,0.307094,0.000118,0.590251,0.307124,0.000342,0.590177,0.307091,0.000118,0.590251,-0.000030,-0.000223,0.000075,0.000237,0.000571,-0.784847,-0.000080,-2.355996,-0.000234,1.571306,0.785543,0.001323,-0.784757,-0.000097,-2.356117,-0.000242,1.571421,0.785553,-1.108034,-2.262991,-0.571288,18.491716,0.782842,1.396966,-0.058921
0.158000,0.307095,0.000118,0.590251,0.307124,0.000343,0.590174,0.307092,0.000118,0.590251,-0.000030,-0.000225,0.000077,0.000240,0.000571,-0.784843,-0.000080,-2.355994,-0.000234,1.571307,0.785543,0.001326,-0.784755,-0.000096,-2.356122,-0.000241,1.571421,0.785553,-1.108034,-2.286794,-0.595092,18.543291,0.788335,1.403375,-0.085471
0.159000,0.307096,0.000118,0.590251,0.307126,0.000344,0.590173,0.307093,0.000118,0.590251,-0.000030,-0.000225,0.000079,0.000241,0.000571,-0.784840,-0.000080,-2.355992,-0.000234,1.571309,0.785543,0.001329,-0.784749,-0.000097,-2.356122,-0.000241,1.571424,0.785557,-1.108034,-2.338369,-0.543517,18.543291,0.782842,1.409784,-0.105613
0.160000,0.307097,0.000118,0.590251,0.307125,0.000343,0.590175,0.307094,0.000118,0.590251,-0.000028,-0.000224,0.000076,0.000238,0.000571,-0.784836,-0.000080,-2.355990,-0.000234,1.571310,0.785543,0.001328,-0.784756,-0.000099,-2.356120,-0.000244,1.571425,0.785556,-1.084231,-2.235220,-0.543517,18.519487,0.788335,1.409784,-0.085471
0.161000,0.307098,0.000118,0.590251,0.307126,0.000346,0.590174,0.307095,0.000118,0.590251,-0.000028,-0.000227,0.000077,0.000241,0.000571,-0.784833,-0.000080,-2.355988,-0.000234,1.571311,0.785543,0.001334,-0.784752,-0.000095,-2.356120,-0.000244,1.571426,0.785555,-1.159609,-2.286794,-0.595092,18.519487,0.776433,1.403375,-0.072654
0.162000,0.307099,0.000118,0.590251,0.307126,0.000345,0.590174,0.307096,0.000118,0.590251,-0.000027,-0.000226,0.000078,0.000241,0.000570,-0.784830,-0.000080,-2.355986,-0.000234,1.571313,0.785543,0.001338,-0.784750,-0.000101,-2.356120,-0.000242,1.571424,0.785550,-1.183413,-2.310598,-0.519713,18.519487,0.782842,1.423517,-0.032371
0.163000,0.307100,0.000118,0.590251,0.307127,0.000346,0.590174,0.307097,0.000118,0.590251,-0.000026,-0.000228,0.000078,0.000242,0.000570,-0.784826,-0.000080,-2.355984,-0.000234,1.571314,0.785543,0.001337,-0.784748,-0.000097,-2.356118,-0.000240,1.571425,0.785556,-1.131838,-2.338369,-0.571288,18.491716,0.776433,1.417108,-0.085471
0.164000,0.307101,0.000118,0.590251,0.307127,0.000346,0.590172,0.307098,0.000118,0.590251,-0.000026,-0.000227,0.000079,0.000242,0.000570,-0.784822,-0.000080,-2.355982,-0.000234,1.571316,0.785543,0.001339,-0.784746,-0.000099,-2.356120,-0.000241,1.571424,0.785552,-1.108034,-2.338369,-0.543517,18.519487,0.788335,1.423517,-0.072654
0.165000,0.307103,0.000118,0.590251,0.307127,0.000346,0.590177,0.307100,0.000118,0.590251,-0.000024,-0.000228,0.000075,0.000241,0.000570,-0.784819,-0.000080,-2.355980,-0.000234,1.571318,0.785543,0.001341,-0.784751,-0.000099,-2.356115,-0.000243,1.571429,0.785551,-1.159609,-2.262991,-0.543517,18.444109,0.776433,1.409784,-0.072654
0.166000,0.307104,0.000118,0.590251,0.307127,0.000347,0.590173,0.307101,0.000118,0.590251,-0.000023,-0.000229,0.000079,0.000243,0.000570,-0.784815,-0.000080,-2.355978,-0.000234,1.571319,0.785543,0.001341,-0.784751,-0.000097,-2.356123,-0.000243,1.571430,0.785550,-1.131838,-2.262991,-0.571288,18.567095,0.794744,1.409784,-0.039695
0.167000,0.307105,0.000118,0.590251,0.307129,0.000348,0.590171,0.307102,0.000118,0.590251,-0.000024,-0.000229,0.000080,0.000244,0.000570,-0.784812,-0.000080,-2.355976,-0.000234,1.571321,0.785543,0.001343,-0.784743,-0.000097,-2.356122,-0.000244,1.571432,0.785550,-1.159609,-2.338369,-0.571288,18.543291,0.782842,1.423517,-0.032371
0.168000,0.307106,0.000118,0.590251,0.307128,0.000347,0.590174,0.307103,0.000118,0.590251,-0.000022,-0.000228,0.000078,0.000242,0.000570,-0.784808,-0.000080,-2.355973,-0.000234,1.571322,0.785543,0.001345,-0.784746,-0.000101,-2.356118,-0.000245,1.571433,0.785555,-1.183413,-2.286794,-0.519713,18.491716,0.788335,1.403375,-0.079063
0.169000,0.307107,0.000118,0.590251,0.307129,0.000349,0.590174,0.307104,0.000118,0.590251,-0.000022,-0.000231,0.000078,0.000244,0.000570,-0.784804,-0.000080,-2.355971,-0.000234,1.571324,0.785543,0.001349,-0.784744,-0.000099,-2.356118,-0.000241,1.571436,0.785556,-1.207216,-2.310598,-0.543517,18.519487,0.776433,1.396966,-0.079063
0.170000,0.307109,0.000118,0.590251,0.307130,0.000349,0.590174,0.307105,0.000118,0.590251,-0.000022,-0.000230,0.000078,0.000244,0.000570,-0.784800,-0.000080,-2.355969,-0.000234,1.571326,0.785543,0.001349,-0.784740,-0.000099,-2.356116,-0.000244,1.571437,0.785557,-1.159609,-2.362173,-0.543517,18.467913,0.782842,1.390558,-0.092796
0.171000,0.307110,0.000118,0.590251,0.307129,0.000351,0.590173,0.307107,0.000118,0.590251,-0.000019,-0.000232,0.000079,0.000246,0.000570,-0.784796,-0.000080,-2.355967,-0.000234,1.571327,0.785543,0.001351,-0.784742,-0.000096,-2.356118,-0.000246,1.571433,0.785556,-1.183413,-2.310598,-0.595092,18.491716,0.794744,1.403375,-0.085471
0.172000,0.307111,0.000118,0.590251,0.307130,0.000350,0.590173,0.307108,0.000118,0.590251,-0.000019,-0.000231,0.000078,0.000245,0.000570,-0.784792,-0.000080,-2.355965,-0.000234,1.571329,0.785543,0.001352,-0.784741,-0.000099,-2.356116,-0.000244,1.571435,0.785550,-1.159609,-2.310598,-0.543517,18.467913,0.776433,1.403375,-0.025962
0.173000,0.307112,0.000118,0.590251,0.307130,0.000350,0.590172,0.307109,0.000118,0.590251,-0.000018,-0.000232,0.000079,0.000246,0.000570,-0.784788,-0.000080,-2.355962,-0.000234,1.571331,0.785543,0.001353,-0.784739,-0.000099,-2.356118,-0.000241,1.571438,0.785550,-1.159609,-2.338369,-0.571288,18.491716,0.770940,1.384149,-0.032371
0.174000,0.307114,0.000118,0.590251,0.307131,0.000349,0.590174,0.307110,0.000118,0.590251,-0.000017,-0.000231,0.000078,0.000244,0.000570,-0.784784,-0.000080,-2.355960,-0.000234,1.571332,0.785543,0.001353,-0.784739,-0.000102,-2.356114,-0.000245,1.571437,0.785549,-1.131838,-2.310598,-0.519713,18.467913,0.788335,1.396966,-0.052512
0.175000,0.307115,0.000118,0.590251,0.307131,0.000352,0.590173,0.307112,0.000118,0.590251,-0.000016,-0.000234,0.000079,0.000247,0.000570,-0.784780,-0.000080,-2.355958,-0.000234,1.571334,0.785543,0.001357,-0.784738,-0.000096,-2.356116,-0.000245,1.571438,0.785555,-1.207216,-2.310598,-0.595092,18.467913,0.782842,1.390558,-0.085471
0.176000,0.307116,0.000118,0.590251,0.307131,0.000351,0.590171,0.307113,0.000118,0.590251,-0.000015,-0.000233,0.000080,0.000247,0.000570,-0.784776,-0.000080,-2.355955,-0.000234,1.571336,0.785543,0.001355,-0.784736,-0.000097,-2.356118,-0.000245,1.571436,0.785558,-1.183413,-2.338369,-0.571288,18.491716,0.782842,1.403375,-0.105613
0.177000,0.307118,0.000118,0.590251,0.307131,0.000352,0.590173,0.307114,0.000118,0.590251,-0.000014,-0.000233,0.000079,0.000247,0.000570,-0.784772,-0.000080,-2.355953,-0.000234,1.571338,0.785543,0.001357,-0.784737,-0.000097,-2.356116,-0.000244,1.571441,0.785555,-1.207216,-2.286794,-0.571288,18.491716,0.776433,1.390558,-0.072654
0.178000,0.307119,0.000118,0.590251,0.307131,0.000352,0.590171,0.307116,0.000118,0.590251,-0.000012,-0.000234,0.000081,0.000247,0.000570,-0.784768,-0.000080,-2.355951,-0.000234,1.571339,0.785543,0.001357,-0.784736,-0.000098,-2.356119,-0.000242,1.571439,0.785552,-1.183413,-2.262991,-0.595092,18.519487,0.782842,1.390558,-0.046104
0.179000,0.307120,0.000118,0.590251,0.307133,0.000352,0.590170,0.307117,0.000118,0.590251,-0.000013,-0.000234,0.000082,0.000248,0.000570,-0.784764,-0.000080,-2.355948,-0.000234,1.571341,0.785543,0.001361,-0.784730,-0.000100,-2.356118,-0.000242,1.571442,0.785553,-1.231020,-2.338369,-0.543517,18.519487,0.788335,1.384149,-0.058921
0.180000,0.307122,0.000118,0.590251,0.307133,0.000353,0.590172,0.307118,0.000118,0.590251,-0.000011,-0.000234,0.000080,0.000248,0.000570,-0.784760,-0.000080,-2.355946,-0.000234,1.571343,0.785543,0.001360,-0.784731,-0.000098,-2.356115,-0.000244,1.571443,0.785552,-1.207216,-2.310598,-0.571288,18.491716,0.788335,1.384149,-0.046104
0.181000,0.307123,0.000118,0.590251,0.307133,0.000353,0.590172,0.307120,0.000118,0.590251,-0.000010,-0.000235,0.000079,0.000248,0.000570,-0.784755,-0.000080,-2.355943,-0.000234,1.571345,0.785543,0.001360,-0.784731,-0.000096,-2.356113,-0.000245,1.571442,0.785553,-1.207216,-2.286794,-0.595092,18.467913,0.788335,1.396966,-0.052512
0.182000,0.307125,0.000118,0.590251,0.307134,0.000354,0.590171,0.307121,0.000118,0.590251,-0.000009,-0.000236,0.000081,0.000250,0.000570,-0.784751,-0.000080,-2.355941,-0.000234,1.571347,0.785543,0.001364,-0.784728,-0.000096,-2.356115,-0.000245,1.571445,0.785553,-1.231020,-2.310598,-0.595092,18.491716,0.782842,1.396966,-0.052512
0.183000,0.307126,0.000118,0.590251,0.307134,0.000355,0.590169,0.307122,0.000118,0.590251,-0.000008,-0.000236,0.000082,0.000250,0.000570,-0.784746,-0.000080,-2.355938,-0.000234,1.571349,0.785543,0.001364,-0.784726,-0.000096,-2.356117,-0.000245,1.571444,0.785552,-1.231020,-2.310598,-0.595092,18.519487,0.782842,1.390558,-0.046104
0.184000,0.307127,0.000118,0.590251,0.307134,0.000356,0.590169,0.307124,0.000118,0.590251,-0.000007,-0.000237,0.000083,0.000251,0.000570,-0.784742,-0.000080,-2.355936,-0.000234,1.571351,0.785543,0.001365,-0.784727,-0.000094,-2.356119,-0.000245,1.571446,0.785554,-1.207216,-2.286794,-0.622863,18.543291,0.782842,1.390558,-0.066245
0.185000,0.307129,0.000118,0.590251,0.307136,0.000353,0.590168,0.307125,0.000118,0.590251,-0.000007,-0.000235,0.000083,0.000249,0.000570,-0.784738,-0.000080,-2.355933,-0.000234,1.571352,0.785543,0.001362,-0.784723,-0.000099,-2.356117,-0.000243,1.571446,0.785555,-1.159609,-2.310598,-0.543517,18.519487,0.788335,1.370416,-0.072654
0.186000,0.307130,0.000118,0.590251,0.307136,0.000355,0.590167,0.307127,0.000118,0.590251,-0.000005,-0.000236,0.000084,0.000251,0.000570,-0.784733,-0.000080,-2.355931,-0.000234,1.571354,0.785543,0.001363,-0.784722,-0.000096,-2.356119,-0.000240,1.571447,0.785555,-1.131838,-2.310598,-0.595092,18.543291,0.776433,1.384149,-0.072654
0.187000,0.307132,0.000118,0.590251,0.307136,0.000357,0.590168,0.307128,0.000118,0.590251,-0.000004,-0.000239,0.000083,0.000253,0.000570,-0.784728,-0.000080,-2.355928,-0.000234,1.571356,0.785543,0.001368,-0.784721,-0.000094,-2.356117,-0.000241,1.571447,0.785556,-1.159609,-2.286794,-0.622863,18.519487,0.788335,1.390558,-0.085471
0.188000,0.307133,0.000118,0.590251,0.307136,0.000356,0.590167,0.307129,0.000118,0.590251,-0.000003,-0.000237,0.000084,0.000252,0.000570,-0.784724,-0.000080,-2.355925,-0.000234,1.571358,0.785543,0.001369,-0.784720,-0.000097,-2.356119,-0.000240,1.571447,0.785553,-1.159609,-2.286794,-0.571288,18.543291,0.782842,1.390558,-0.058921
0.189000,0.307135,0.000118,0.590251,0.307137,0.000357,0.590166,0.307131,0.000118,0.590251,-0.000002,-0.000239,0.000085,0.000254,0.000570,-0.784719,-0.000080,-2.355923,-0.000234,1.571360,0.785543,0.001369,-0.784718,-0.000094,-2.356119,-0.000243,1.571448,0.785550,-1.131838,-2.286794,-0.622863,18.543291,0.776433,1.384149,-0.032371
0.190000,0.307136,0.000118,0.590251,0.307137,0.000357,0.590165,0.307132,0.000118,0.590251,-0.000001,-0.000239,0.000086,0.000254,0.000570,-0.784714,-0.000080,-2.355920,-0.000234,1.571362,0.785543,0.001374,-0.784716,-0.000097,-2.356119,-0.000245,1.571447,0.785550,-1.159609,-2.310598,-0.571288,18.543291,0.782842,1.396966,-0.032371
0.191000,0.307138,0.000118,0.590251,0.307138,0.000359,0.590167,0.307134,0.000118,0.590251,0.000000,-0.000240,0.000085,0.000255,0.000570,-0.784710,-0.000080,-2.355917,-0.000234,1.571365,0.785543,0.001372,-0.784715,-0.000092,-2.356116,-0.000243,1.571447,0.785550,-1.108034,-2.310598,-0.646667,18.543291,0.794744,1.390558,-0.025962
0.192000,0.307139,0.000118,0.590251,0.307137,0.000357,0.590166,0.307135,0.000118,0.590251,0.000002,-0.000239,0.000086,0.000254,0.000570,-0.784705,-0.000080,-2.355915,-0.000234,1.571367,0.785543,0.001372,-0.784715,-0.000096,-2.356117,-0.000244,1.571446,0.785556,-1.084231,-2.310598,-0.595092,18.567095,0.782842,1.403375,-0.079063
0.193000,0.307141,0.000118,0.590251,0.307138,0.000361,0.590165,0.307137,0.000118,0.590251,0.000003,-0.000242,0.000087,0.000257,0.000570,-0.784700,-0.000080,-2.355912,-0.000234,1.571369,0.785543,0.001377,-0.784712,-0.000090,-2.356118,-0.000244,1.571446,0.785557,-1.108034,-2.362173,-0.670470,18.543291,0.776433,1.403375,-0.092796
0.194000,0.307143,0.000118,0.590251,0.307138,0.000359,0.590165,0.307139,0.000118,0.590251,0.000004,-0.000240,0.000086,0.000255,0.000570,-0.784695,-0.000080,-2.355909,-0.000234,1.571371,0.785543,0.001375,-0.784711,-0.000094,-2.356116,-0.000246,1.571444,0.785557,-1.060427,-2.338369,-0.622863,18.543291,0.788335,1.417108,-0.092796
0.195000,0.307144,0.000118,0.590251,0.307138,0.000361,0.590163,0.307140,0.000118,0.590251,0.000006,-0.000242,0.000088,0.000258,0.000570,-0.784690,-0.000080,-2.355906,-0.000234,1.571373,0.785543,0.001378,-0.784712,-0.000092,-2.356121,-0.000243,1.571448,0.785556,-1.108034,-2.310598,-0.646667,18.594866,0.788335,1.409784,-0.085471
0.196000,0.307146,0.000118,0.590251,0.307138,0.000360,0.590166,0.307142,0.000118,0.590251,0.000008,-0.000241,0.000086,0.000256,0.000570,-0.784685,-0.000080,-2.355903,-0.000234,1.571375,0.785543,0.001380,-0.784714,-0.000096,-2.356118,-0.000245,1.571450,0.785551,-1.131838,-2.286794,-0.595092,18.567095,0.788335,1.403375,-0.039695
0.197000,0.307147,0.000118,0.590251,0.307139,0.000361,0.590166,0.307143,0.000118,0.590251,0.000009,-0.000243,0.000085,0.000258,0.000570,-0.784680,-0.000080,-2.355900,-0.000234,1.571377,0.785543,0.001382,-0.784712,-0.000094,-2.356116,-0.000242,1.571450,0.785553,-1.159609,-2.286794,-0.622863,18.543291,0.788335,1.409784,-0.058921
0.198000,0.307149,0.000118,0.590251,0.307139,0.000361,0.590166,0.307145,0.000118,0.590251,0.000010,-0.000243,0.000086,0.000258,0.000570,-0.784675,-0.000080,-2.355897,-0.000234,1.571379,0.785543,0.001382,-0.784711,-0.000094,-2.356115,-0.000241,1.571450,0.785553,-1.159609,-2.286794,-0.622863,18.543291,0.782842,1.409784,-0.058921
0.199000,0.307151,0.000118,0.590251,0.307140,0.000361,0.590165,0.307147,0.000118,0.590251,0.000011,-0.000243,0.000087,0.000258,0.000570,-0.784669,-0.000080,-2.355894,-0.000234,1.571382,0.785543,0.001385,-0.784708,-0.000096,-2.356117,-0.000244,1.571453,0.785556,-1.207216,-2.286794,-0.595092,18.567095,0.788335,1.409784,-0.079063
0.200000,0.307152,0.000118,0.590251,0.307140,0.000362,0.590166,0.307148,0.000118,0.590251,0.000013,-0.000244,0.000086,0.000259,0.000570,-0.784664,-0.000080,-2.355892,-0.000234,1.571384,0.785543,0.001387,-0.784709,-0.000094,-2.356115,-0.000245,1.571453,0.785554,-1.231020,-2.262991,-0.622863,18.543291,0.782842,1.423517,-0.066245
0.201000,0.307154,0.000118,0.590251,0.307140,0.000362,0.590164,0.307150,0.000118,0.590251,0.000014,-0.000244,0.000087,0.000259,0.000570,-0.784659,-0.000080,-2.355888,-0.000234,1.571386,0.785543,0.001384,-0.784709,-0.000092,-2.356119,-0.000245,1.571454,0.785555,-1.183413,-2.262991,-0.646667,18.594866,0.782842,1.417108,-0.072654
0.202000,0.307156,0.000118,0.590251,0.307141,0.000361,0.590162,0.307151,0.000118,0.590251,0.000015,-0.000243,0.000089,0.000259,0.000570,-0.784654,-0.000080,-2.355885,-0.000234,1.571389,0.785543,0.001384,-0.784705,-0.000096,-2.356121,-0.000241,1.571455,0.785555,-1.183413,-2.286794,-0.595092,18.618670,0.776433,1.409784,-0.072654
0.203000,0.307158,0.000118,0.590251,0.307141,0.000363,0.590163,0.307153,0.000118,0.590251,0.000016,-0.000245,0.000089,0.000261,0.000570,-0.784648,-0.000080,-2.355882,-0.000234,1.571391,0.785543,0.001385,-0.784704,-0.000090,-2.356119,-0.000245,1.571457,0.785555,-1.207216,-2.262991,-0.670470,18.594866,0.788335,1.417108,-0.072654
0.204000,0.307159,0.000118,0.590251,0.307141,0.000364,0.590165,0.307155,0.000118,0.590251,0.000018,-0.000246,0.000087,0.000261,0.000570,-0.784643,-0.000080,-2.355879,-0.000234,1.571393,0.785543,0.001389,-0.784705,-0.000090,-2.356115,-0.000245,1.571458,0.785553,-1.231020,-2.235220,-0.670470,18.543291,0.782842,1.417108,-0.052512
0.205000,0.307161,0.000118,0.590251,0.307143,0.000364,0.590163,0.307157,0.000118,0.590251,0.000018,-0.000245,0.000088,0.000262,0.000570,-0.784637,-0.000080,-2.355876,-0.000234,1.571396,0.785543,0.001392,-0.784699,-0.000094,-2.356115,-0.000245,1.571458,0.785552,-1.258791,-2.286794,-0.622863,18.543291,0.782842,1.417108,-0.046104
0.206000,0.307163,0.000118,0.590251,0.307144,0.000364,0.590161,0.307158,0.000118,0.590251,0.000019,-0.000246,0.000090,0.000263,0.000570,-0.784632,-0.000080,-2.355873,-0.000234,1.571398,0.785543,0.001394,-0.784698,-0.000094,-2.356119,-0.000246,1.571463,0.785552,-1.282595,-2.286794,-0.622863,18.594866,0.788335,1.409784,-0.046104
0.207000,0.307165,0.000118,0.590251,0.307144,0.000365,0.590162,0.307160,0.000118,0.590251,0.000021,-0.000247,0.000089,0.000263,0.000570,-0.784626,-0.000080,-2.355870,-0.000234,1.571400,0.785543,0.001396,-0.784698,-0.000094,-2.356117,-0.000246,1.571464,0.785552,-1.282595,-2.286794,-0.622863,18.567095,0.794744,1.409784,-0.046104
0.208000,0.307167,0.000118,0.590251,0.307144,0.000365,0.590163,0.307162,0.000118,0.590251,0.000023,-0.000247,0.000088,0.000263,0.000570,-0.784621,-0.000080,-2.355867,-0.000234,1.571403,0.785543,0.001393,-0.784699,-0.000092,-2.356117,-0.000245,1.571467,0.785555,-1.231020,-2.262991,-0.646667,18.567095,0.782842,1.409784,-0.072654
0.209000,0.307168,0.000118,0.590251,0.307145,0.000366,0.590164,0.307164,0.000118,0.590251,0.000023,-0.000248,0.000087,0.000264,0.000570,-0.784615,-0.000080,-2.355863,-0.000234,1.571405,0.785543,0.001395,-0.784694,-0.000090,-2.356112,-0.000245,1.571468,0.785556,-1.231020,-2.338369,-0.670470,18.519487,0.782842,1.409784,-0.079063
0.210000,0.307170,0.000118,0.590251,0.307146,0.000365,0.590162,0.307165,0.000118,0.590251,0.000024,-0.000246,0.000090,0.000263,0.000570,-0.784609,-0.000080,-2.355860,-0.000234,1.571408,0.785543,0.001397,-0.784692,-0.000096,-2.356116,-0.000244,1.571471,0.785555,-1.207216,-2.338369,-0.595092,18.567095,0.776433,1.417108,-0.072654
0.211000,0.307172,0.000118,0.590251,0.307146,0.000368,0.590162,0.307167,0.000118,0.590251,0.000026,-0.000249,0.000090,0.000266,0.000570,-0.784603,-0.000080,-2.355857,-0.000234,1.571410,0.785543,0.001400,-0.784693,-0.000090,-2.356117,-0.000246,1.571472,0.785557,-1.207216,-2.310598,-0.670470,18.567095,0.794744,1.417108,-0.092796
0.212000,0.307174,0.000118,0.590251,0.307147,0.000367,0.590161,0.307169,0.000118,0.590251,0.000027,-0.000248,0.000090,0.000266,0.000570,-0.784598,-0.000080,-2.355853,-0.000234,1.571413,0.785543,0.001401,-0.784691,-0.000094,-2.356117,-0.000245,1.571473,0.785550,-1.207216,-2.338369,-0.622863,18.567095,0.782842,1.417108,-0.032371
0.213000,0.307176,0.000118,0.590251,0.307146,0.000369,0.590163,0.307171,0.000118,0.590251,0.000029,-0.000250,0.000089,0.000267,0.000570,-0.784592,-0.000080,-2.355850,-0.000234,1.571415,0.785543,0.001403,-0.784693,-0.000090,-2.356115,-0.000244,1.571475,0.785555,-1.231020,-2.310598,-0.670470,18.567095,0.776433,1.423517,-0.072654
0.214000,0.307178,0.000118,0.590251,0.307147,0.000368,0.590161,0.307173,0.000118,0.590251,0.000030,-0.000249,0.000090,0.000267,0.000570,-0.784586,-0.000080,-2.355847,-0.000234,1.571418,0.785543,0.001402,-0.784689,-0.000092,-2.356116,-0.000245,1.571477,0.785556,-1.183413,-2.362173,-0.646667,18.567095,0.782842,1.423517,-0.079063
0.215000,0.307180,0.000118,0.590251,0.307148,0.000366,0.590164,0.307175,0.000118,0.590251,0.000032,-0.000248,0.000088,0.000265,0.000570,-0.784580,-0.000080,-2.355843,-0.000234,1.571420,0.785543,0.001403,-0.784691,-0.000096,-2.356113,-0.000245,1.571482,0.785552,-1.183413,-2.338369,-0.595092,18.543291,0.782842,1.409784,-0.046104
0.216000,0.307182,0.000118,0.590251,0.307147,0.000369,0.590165,0.307177,0.000118,0.590251,0.000034,-0.000251,0.000087,0.000267,0.000570,-0.784574,-0.000080,-2.355840,-0.000234,1.571423,0.785543,0.001407,-0.784692,-0.000092,-2.356113,-0.000246,1.571483,0.785555,-1.207216,-2.286794,-0.646667,18.543291,0.788335,1.403375,-0.072654
0.217000,0.307184,0.000118,0.590251,0.307149,0.000369,0.590162,0.307179,0.000118,0.590251,0.000035,-0.000250,0.000089,0.000268,0.000570,-0.784568,-0.000080,-2.355836,-0.000234,1.571425,0.785543,0.001406,-0.784686,-0.000092,-2.356114,-0.000245,1.571484,0.785556,-1.183413,-2.362173,-0.646667,18.567095,0.782842,1.403375,-0.085471
0.218000,0.307186,0.000118,0.590251,0.307148,0.000369,0.590163,0.307181,0.000118,0.590251,0.000037,-0.000251,0.000089,0.000269,0.000570,-0.784561,-0.000080,-2.355833,-0.000234,1.571428,0.785543,0.001411,-0.784689,-0.000095,-2.356114,-0.000244,1.571484,0.785556,-1.231020,-2.286794,-0.571288,18.567095,0.776433,1.403375,-0.079063
0.219000,0.307188,0.000118,0.590251,0.307149,0.000369,0.590163,0.307182,0.000118,0.590251,0.000039,-0.000251,0.000088,0.000269,0.000570,-0.784555,-0.000080,-2.355829,-0.000234,1.571431,0.785543,0.001407,-0.784687,-0.000091,-2.356112,-0.000245,1.571485,0.785555,-1.183413,-2.310598,-0.646667,18.567095,0.782842,1.423517,-0.072654
0.220000,0.307190,0.000118,0.590251,0.307149,0.000370,0.590163,0.307184,0.000118,0.590251,0.000040,-0.000252,0.000089,0.000270,0.000570,-0.784549,-0.000080,-2.355826,-0.000234,1.571433,0.785543,0.001410,-0.784686,-0.000092,-2.356113,-0.000246,1.571487,0.785550,-1.231020,-2.286794,-0.646667,18.567095,0.788335,1.417108,-0.032371
0.221000,0.307192,0.000118,0.590251,0.307150,0.000368,0.590163,0.307186,0.000118,0.590251,0.000042,-0.000249,0.000088,0.000268,0.000570,-0.784543,-0.000080,-2.355822,-0.000234,1.571436,0.785543,0.001406,-0.784684,-0.000096,-2.356110,-0.000244,1.571486,0.785550,-1.183413,-2.310598,-0.595092,18.543291,0.770940,1.429925,-0.032371
0.222000,0.307194,0.000118,0.590251,0.307150,0.000368,0.590163,0.307188,0.000118,0.590251,0.000043,-0.000250,0.000089,0.000269,0.000570,-0.784536,-0.000080,-2.355818,-0.000234,1.571439,0.785543,0.001407,-0.784685,-0.000094,-2.356113,-0.000246,1.571491,0.785553,-1.159609,-2.262991,-0.622863,18.594866,0.788335,1.409784,-0.052512
0.223000,0.307196,0.000118,0.590251,0.307151,0.000369,0.590162,0.307190,0.000118,0.590251,0.000044,-0.000251,0.000089,0.000270,0.000570,-0.784530,-0.000080,-2.355815,-0.000234,1.571442,0.785543,0.001411,-0.784680,-0.000095,-2.356111,-0.000246,1.571491,0.785549,-1.207216,-2.286794,-0.571288,18.567095,0.788335,1.423517,-0.052512
0.224000,0.307198,0.000118,0.590251,0.307151,0.000369,0.590162,0.307193,0.000118,0.590251,0.000047,-0.000250,0.000089,0.000270,0.000570,-0.784523,-0.000080,-2.355811,-0.000234,1.571444,0.785543,0.001408,-0.784680,-0.000093,-2.356111,-0.000247,1.571491,0.785557,-1.159609,-2.235220,-0.622863,18.567095,0.800237,1.429925,-0.099204
0.225000,0.307200,0.000118,0.590251,0.307152,0.000370,0.590162,0.307195,0.000118,0.590251,0.000047,-0.000251,0.000090,0.000271,0.000570,-0.784517,-0.000080,-2.355807,-0.000234,1.571447,0.785543,0.001409,-0.784678,-0.000093,-2.356111,-0.000243,1.571495,0.785555,-1.183413,-2.262991,-0.622863,18.567095,0.788335,1.423517,-0.079063
0.226000,0.307202,0.000118,0.590251,0.307154,0.000369,0.590159,0.307197,0.000118,0.590251,0.000048,-0.000251,0.000093,0.000272,0.000570,-0.784510,-0.000080,-2.355804,-0.000234,1.571450,0.785543,0.001410,-0.784673,-0.000096,-2.356114,-0.000242,1.571496,0.785555,-1.159609,-2.286794,-0.595092,18.618670,0.788335,1.423517,-0.072654
0.227000,0.307204,0.000118,0.590251,0.307154,0.000369,0.590159,0.307199,0.000118,0.590251,0.000051,-0.000251,0.000092,0.000272,0.000570,-0.784503,-0.000080,-2.355800,-0.000234,1.571453,0.785543,0.001412,-0.784674,-0.000096,-2.356114,-0.000244,1.571499,0.785556,-1.183413,-2.262991,-0.595092,18.618670,0.788335,1.429925,-0.079063
0.228000,0.307206,0.000118,0.590251,0.307155,0.000370,0.590161,0.307201,0.000118,0.590251,0.000052,-0.000251,0.000091,0.000272,0.000570,-0.784497,-0.000080,-2.355796,-0.000234,1.571456,0.785543,0.001411,-0.784672,-0.000094,-2.356110,-0.000245,1.571500,0.785553,-1.159609,-2.262991,-0.622863,18.594866,0.782842,1.429925,-0.052512
0.229000,0.307209,0.000118,0.590251,0.307154,0.000371,0.590159,0.307203,0.000118,0.590251,0.000055,-0.000253,0.000093,0.000275,0.000570,-0.784490,-0.000080,-2.355792,-0.000234,1.571459,0.785543,0.001413,-0.784675,-0.000092,-2.356117,-0.000245,1.571503,0.785551,-1.159609,-2.211416,-0.622863,18.670244,0.782842,1.436334,-0.066245
0.230000,0.307211,0.000118,0.590251,0.307156,0.000370,0.590159,0.307205,0.000118,0.590251,0.000055,-0.000251,0.000092,0.000273,0.000570,-0.784483,-0.000080,-2.355788,-0.000234,1.571462,0.785543,0.001412,-0.784669,-0.000095,-2.356112,-0.000243,1.571503,0.785554,-1.131838,-2.262991,-0.595092,18.594866,0.788335,1.443658,-0.072654
0.231000,0.307213,0.000118,0.590251,0.307156,0.000371,0.590159,0.307207,0.000118,0.590251,0.000057,-0.000253,0.000092,0.000275,0.000570,-0.784476,-0.000080,-2.355784,-0.000234,1.571465,0.785543,0.001414,-0.784668,-0.000093,-2.356112,-0.000244,1.571507,0.785555,-1.131838,-2.262991,-0.595092,18.618670,0.782842,1.436334,-0.079063
0.232000,0.307215,0.000118,0.590251,0.307157,0.000371,0.590162,0.307209,0.000118,0.590251,0.000059,-0.000252,0.000089,0.000274,0.000570,-0.784469,-0.000080,-2.355780,-0.000234,1.571468,0.785543,0.001413,-0.784669,-0.000093,-2.356108,-0.000245,1.571512,0.785555,-1.108034,-2.211416,-0.622863,18.567095,0.788335,1.436334,-0.079063
0.233000,0.307217,0.000118,0.590251,0.307157,0.000370,0.590162,0.307212,0.000118,0.590251,0.000060,-0.000251,0.000090,0.000274,0.000570,-0.784462,-0.000080,-2.355776,-0.000234,1.571471,0.785543,0.001414,-0.784667,-0.000095,-2.356108,-0.000246,1.571514,0.785556,-1.084231,-2.235220,-0.595092,18.567095,0.794744,1.429925,-0.085471
0.234000,0.307220,0.000118,0.590251,0.307157,0.000369,0.590162,0.307214,0.000118,0.590251,0.000062,-0.000250,0.000089,0.000273,0.000570,-0.784455,-0.000080,-2.355772,-0.000234,1.571474,0.785543,0.001415,-0.784668,-0.000099,-2.356108,-0.000245,1.571517,0.785554,-1.084231,-2.183645,-0.543517,18.567095,0.782842,1.436334,-0.066245
0.235000,0.307222,0.000118,0.590251,0.307159,0.000369,0.590159,0.307216,0.000118,0.590251,0.000063,-0.000251,0.000092,0.000275,0.000570,-0.784448,-0.000080,-2.355768,-0.000234,1.571477,0.785543,0.001415,-0.784663,-0.000098,-2.356111,-0.000246,1.571521,0.785556,-1.084231,-2.211416,-0.595092,18.618670,0.794744,1.443658,-0.085471
0.236000,0.307224,0.000118,0.590251,0.307160,0.000370,0.590159,0.307218,0.000118,0.590251,0.000064,-0.000251,0.000093,0.000275,0.000570,-0.784441,-0.000080,-2.355764,-0.000234,1.571480,0.785543,0.001415,-0.784660,-0.000098,-2.356111,-0.000243,1.571526,0.785553,-1.084231,-2.211416,-0.571288,18.618670,0.788335,1.436334,-0.058921
0.237000,0.307227,0.000118,0.590251,0.307161,0.000371,0.590159,0.307221,0.000118,0.590251,0.000065,-0.000252,0.000093,0.000277,0.000570,-0.784434,-0.000080,-2.355760,-0.000234,1.571483,0.785543,0.001417,-0.784659,-0.000096,-2.356111,-0.000244,1.571530,0.785551,-1.084231,-2.183645,-0.622863,18.618670,0.782842,1.443658,-0.039695
0.238000,0.307229,0.000118,0.590251,0.307162,0.000370,0.590160,0.307223,0.000118,0.590251,0.000067,-0.000252,0.000091,0.000276,0.000570,-0.784427,-0.000080,-2.355756,-0.000234,1.571486,0.785543,0.001420,-0.784655,-0.000100,-2.356106,-0.000244,1.571531,0.785550,-1.108034,-2.159841,-0.571288,18.543291,0.776433,1.450067,-0.025962
0.239000,0.307231,0.000118,0.590251,0.307163,0.000369,0.590159,0.307225,0.000118,0.590251,0.000068,-0.000251,0.000092,0.000276,0.000570,-0.784419,-0.000080,-2.355752,-0.000234,1.571489,0.785543,0.001420,-0.784653,-0.000102,-2.356107,-0.000242,1.571535,0.785553,-1.108034,-2.132070,-0.543517,18.567095,0.782842,1.443658,-0.052512
0.240000,0.307234,0.000118,0.590251,0.307165,0.000372,0.590159,0.307228,0.000118,0.590251,0.000069,-0.000254,0.000092,0.000279,0.000570,-0.784412,-0.000080,-2.355747,-0.000234,1.571492,0.785543,0.001426,-0.784649,-0.000099,-2.356105,-0.000244,1.571538,0.785557,-1.159609,-2.108267,-0.595092,18.567095,0.782842,1.456475,-0.092796
0.241000,0.307236,0.000118,0.590251,0.307167,0.000371,0.590159,0.307230,0.000118,0.590251,0.000069,-0.000253,0.000092,0.000278,0.000570,-0.784404,-0.000080,-2.355743,-0.000234,1.571496,0.785543,0.001422,-0.784643,-0.000098,-2.356103,-0.000245,1.571544,0.785557,-1.060427,-2.108267,-0.571288,18.543291,0.788335,1.450067,-0.092796
0.242000,0.307238,0.000118,0.590251,0.307168,0.000371,0.590158,0.307232,0.000118,0.590251,0.000070,-0.000253,0.000093,0.000278,0.000570,-0.784397,-0.000080,-2.355739,-0.000234,1.571499,0.785543,0.001424,-0.784639,-0.000100,-2.356103,-0.000245,1.571548,0.785556,-1.108034,-2.108267,-0.571288,18.543291,0.782842,1.450067,-0.079063
0.243000,0.307241,0.000118,0.590251,0.307169,0.000369,0.590159,0.307235,0.000118,0.590251,0.000072,-0.000251,0.000092,0.000277,0.000570,-0.784389,-0.000080,-2.355735,-0.000234,1.571502,0.785543,0.001420,-0.784640,-0.000102,-2.356103,-0.000244,1.571553,0.785553,-1.032656,-2.005117,-0.519713,18.543291,0.776433,1.450067,-0.058921
0.244000,0.307243,0.000118,0.590251,0.307171,0.000372,0.590158,0.307237,0.000118,0.590251,0.000073,-0.000254,0.000094,0.000280,0.000570,-0.784382,-0.000080,-2.355730,-0.000234,1.571505,0.785543,0.001424,-0.784634,-0.000100,-2.356104,-0.000242,1.571561,0.785550,-1.084231,-2.032888,-0.543517,18.594866,0.782842,1.450067,-0.032371
0.245000,0.307246,0.000118,0.590251,0.307173,0.000373,0.590155,0.307240,0.000118,0.590251,0.000073,-0.000254,0.000096,0.000281,0.000570,-0.784374,-0.000080,-2.355726,-0.000234,1.571509,0.785543,0.001426,-0.784627,-0.000099,-2.356106,-0.000241,1.571566,0.785549,-1.108034,-2.056692,-0.543517,18.594866,0.782842,1.456475,-0.052512
0.246000,0.307248,0.000118,0.590251,0.307174,0.000373,0.590157,0.307242,0.000118,0.590251,0.000074,-0.000255,0.000094,0.000282,0.000570,-0.784366,-0.000080,-2.355721,-0.000234,1.571512,0.785543,0.001428,-0.784625,-0.000099,-2.356100,-0.000241,1.571570,0.785552,-1.159609,-2.032888,-0.543517,18.543291,0.788335,1.469293,-0.052512
0.247000,0.307251,0.000118,0.590251,0.307176,0.000373,0.590157,0.307244,0.000118,0.590251,0.000074,-0.000254,0.000094,0.000281,0.000570,-0.784358,-0.000080,-2.355717,-0.000234,1.571515,0.785543,0.001429,-0.784620,-0.000101,-2.356098,-0.000244,1.571576,0.785554,-1.159609,-2.056692,-0.519713,18.519487,0.782842,1.462884,-0.072654
0.248000,0.307253,0.000118,0.590251,0.307178,0.000374,0.590157,0.307247,0.000118,0.590251,0.000076,-0.000255,0.000095,0.000283,0.000570,-0.784351,-0.000080,-2.355712,-0.000234,1.571519,0.785543,0.001431,-0.784618,-0.000099,-2.356099,-0.000245,1.571585,0.785554,-1.183413,-2.005117,-0.571288,18.543291,0.782842,1.450067,-0.066245
0.249000,0.307256,0.000118,0.590251,0.307180,0.000374,0.590158,0.307249,0.000118,0.590251,0.000076,-0.000256,0.000093,0.000282,0.000570,-0.784343,-0.000080,-2.355708,-0.000234,1.571522,0.785543,0.001430,-0.784612,-0.000098,-2.356094,-0.000244,1.571590,0.785553,-1.159609,-2.032888,-0.571288,18.491716,0.776433,1.456475,-0.052512
0.250000,0.307258,0.000118,0.590251,0.307182,0.000374,0.590155,0.307252,0.000118,0.590251,0.000076,-0.000256,0.000096,0.000284,0.000570,-0.784335,-0.000080,-2.355703,-0.000234,1.571525,0.785543,0.001434,-0.784605,-0.000100,-2.356096,-0.000246,1.571596,0.785553,-1.183413,-2.056692,-0.571288,18.567095,0.788335,1.450067,-0.052512
0.251000,0.307261,0.000118,0.590251,0.307184,0.000374,0.590155,0.307254,0.000118,0.590251,0.000077,-0.000256,0.000096,0.000284,0.000570,-0.784327,-0.000080,-2.355699,-0.000234,1.571529,0.785543,0.001433,-0.784602,-0.000100,-2.356096,-0.000246,1.571602,0.785557,-1.159609,-2.032888,-0.543517,18.543291,0.788335,1.443658,-0.092796
0.252000,0.307264,0.000118,0.590251,0.307184,0.000374,0.590156,0.307257,0.000118,0.590251,0.000079,-0.000256,0.000096,0.000284,0.000570,-0.784318,-0.000080,-2.355694,-0.000234,1.571532,0.785543,0.001433,-0.784603,-0.000100,-2.356096,-0.000245,1.571608,0.785556,-1.159609,-1.981313,-0.571288,18.567095,0.782842,1.436334,-0.079063
0.253000,0.307266,0.000118,0.590251,0.307187,0.000375,0.590154,0.307260,0.000118,0.590251,0.000079,-0.000256,0.000098,0.000285,0.000570,-0.784310,-0.000080,-2.355689,-0.000234,1.571536,0.785543,0.001435,-0.784594,-0.000100,-2.356095,-0.000244,1.571612,0.785554,-1.183413,-2.032888,-0.571288,18.567095,0.776433,1.436334,-0.066245
0.254000,0.307269,0.000118,0.590251,0.307188,0.000376,0.590156,0.307262,0.000118,0.590251,0.000081,-0.000257,0.000095,0.000286,0.000570,-0.784302,-0.000080,-2.355685,-0.000234,1.571539,0.785543,0.001438,-0.784593,-0.000100,-2.356089,-0.000244,1.571615,0.785551,-1.231020,-1.957510,-0.571288,18.519487,0.776433,1.429925,-0.039695
0.255000,0.307272,0.000118,0.590251,0.307191,0.000376,0.590155,0.307265,0.000118,0.590251,0.000081,-0.000257,0.000096,0.000286,0.000570,-0.784294,-0.000080,-2.355680,-0.000234,1.571543,0.785543,0.001437,-0.784583,-0.000099,-2.356087,-0.000245,1.571618,0.785546,-1.207216,-2.005117,-0.595092,18.491716,0.782842,1.429925,-0.025962
0.256000,0.307274,0.000118,0.590251,0.307192,0.000377,0.590153,0.307267,0.000118,0.590251,0.000082,-0.000258,0.000099,0.000289,0.000570,-0.784285,-0.000080,-2.355675,-0.000234,1.571547,0.785543,0.001439,-0.784578,-0.000098,-2.356088,-0.000242,1.571620,0.785555,-1.207216,-1.981313,-0.571288,18.519487,0.782842,1.429925,-0.079063
0.257000,0.307277,0.000118,0.590251,0.307194,0.000377,0.590151,0.307270,0.000118,0.590251,0.000083,-0.000259,0.000100,0.000290,0.000570,-0.784277,-0.000080,-2.355670,-0.000234,1.571550,0.785543,0.001439,-0.784570,-0.000098,-2.356086,-0.000241,1.571620,0.785558,-1.207216,-2.005117,-0.595092,18.491716,0.782842,1.429925,-0.105613
0.258000,0.307280,0.000118,0.590251,0.307195,0.000377,0.590152,0.307273,0.000118,0.590251,0.000085,-0.000258,0.000099,0.000289,0.000570,-0.784269,-0.000080,-2.355666,-0.000234,1.571554,0.785543,0.001440,-0.784567,-0.000100,-2.356083,-0.000241,1.571620,0.785557,-1.183413,-1.929739,-0.571288,18.444109,0.788335,1.429925,-0.092796
0.259000,0.307282,0.000118,0.590251,0.307197,0.000376,0.590150,0.307275,0.000118,0.590251,0.000085,-0.000257,0.000101,0.000289,0.000570,-0.784260,-0.000080,-2.355661,-0.000234,1.571557,0.785543,0.001439,-0.784558,-0.000102,-2.356081,-0.000242,1.571619,0.785556,-1.159609,-1.957510,-0.519713,18.444109,0.770940,1.443658,-0.085471
0.260000,0.307285,0.000118,0.590251,0.307200,0.000378,0.590149,0.307278,0.000118,0.590251,0.000085,-0.000260,0.000103,0.000292,0.000570,-0.784251,-0.000080,-2.355656,-0.000234,1.571561,0.785543,0.001441,-0.784548,-0.000096,-2.356078,-0.000244,1.571620,0.785551,-1.183413,-2.005117,-0.622863,18.416338,0.776433,1.429925,-0.039695
0.261000,0.307288,0.000118,0.590251,0.307203,0.000378,0.590146,0.307281,0.000118,0.590251,0.000085,-0.000260,0.000106,0.000293,0.000570,-0.784243,-0.000080,-2.355651,-0.000234,1.571565,0.785543,0.001443,-0.784538,-0.000099,-2.356078,-0.000242,1.571624,0.785550,-1.183413,-2.056692,-0.595092,18.444109,0.782842,1.423517,-0.025962
0.262000,0.307291,0.000118,0.590251,0.307204,0.000377,0.590144,0.307284,0.000118,0.590251,0.000087,-0.000258,0.000107,0.000293,0.000570,-0.784234,-0.000080,-2.355646,-0.000234,1.571569,0.785543,0.001444,-0.784534,-0.000102,-2.356079,-0.000244,1.571624,0.785552,-1.183413,-2.056692,-0.543517,18.467913,0.782842,1.436334,-0.046104
0.263000,0.307294,0.000118,0.590251,0.307206,0.000377,0.590143,0.307286,0.000118,0.590251,0.000087,-0.000259,0.000108,0.000294,0.000570,-0.784225,-0.000080,-2.355641,-0.000234,1.571572,0.785543,0.001444,-0.784527,-0.000100,-2.356077,-0.000245,1.571627,0.785556,-1.183413,-2.108267,-0.571288,18.444109,0.782842,1.436334,-0.085471
0.264000,0.307296,0.000118,0.590251,0.307208,0.000378,0.590142,0.307289,0.000118,0.590251,0.000088,-0.000260,0.000109,0.000295,0.000570,-0.784216,-0.000080,-2.355636,-0.000234,1.571576,0.785543,0.001446,-0.784520,-0.000101,-2.356074,-0.000244,1.571628,0.785556,-1.207216,-2.159841,-0.571288,18.444109,0.776433,1.436334,-0.085471
0.265000,0.307299,0.000118,0.590251,0.307209,0.000378,0.590141,0.307292,0.000118,0.590251,0.000090,-0.000259,0.000111,0.000296,0.000570,-0.784207,-0.000080,-2.355631,-0.000234,1.571580,0.785543,0.001441,-0.784517,-0.000097,-2.356075,-0.000244,1.571628,0.785556,-1.131838,-2.183645,-0.595092,18.467913,0.776433,1.443658,-0.079063
0.266000,0.307302,0.000118,0.590251,0.307211,0.000379,0.590141,0.307295,0.000118,0.590251,0.000092,-0.000260,0.000110,0.000297,0.000570,-0.784198,-0.000080,-2.355626,-0.000234,1.571584,0.785543,0.001443,-0.784512,-0.000096,-2.356073,-0.000245,1.571631,0.785551,-1.159609,-2.211416,-0.595092,18.491716,0.782842,1.443658,-0.039695
0.267000,0.307305,0.000118,0.590251,0.307210,0.000380,0.590141,0.307298,0.000118,0.590251,0.000095,-0.000261,0.000110,0.000299,0.000570,-0.784189,-0.000080,-2.355620,-0.000234,1.571588,0.785543,0.001443,-0.784515,-0.000094,-2.356075,-0.000244,1.571635,0.785549,-1.159609,-2.159841,-0.622863,18.519487,0.776433,1.450067,-0.052512
0.268000,0.307308,0.000118,0.590251,0.307212,0.000378,0.590140,0.307301,0.000118,0.590251,0.000096,-0.000260,0.000112,0.000299,0.000570,-0.784180,-0.000080,-2.355615,-0.000234,1.571592,0.785543,0.001444,-0.784508,-0.000099,-2.356073,-0.000242,1.571635,0.785554,-1.183413,-2.235220,-0.571288,18.519487,0.782842,1.462884,-0.072654
0.269000,0.307311,0.000118,0.590251,0.307214,0.000379,0.590138,0.307303,0.000118,0.590251,0.000097,-0.000261,0.000113,0.000301,0.000570,-0.784171,-0.000080,-2.355610,-0.000234,1.571596,0.785543,0.001443,-0.784503,-0.000094,-2.356074,-0.000244,1.571642,0.785554,-1.159609,-2.262991,-0.622863,18.543291,0.782842,1.436334,-0.072654
0.270000,0.307314,0.000118,0.590251,0.307215,0.000381,0.590136,0.307306,0.000118,0.590251,0.000098,-0.000262,0.000115,0.000303,0.000570,-0.784162,-0.000080,-2.355605,-0.000234,1.571600,0.785543,0.001443,-0.784498,-0.000091,-2.356076,-0.000246,1.571644,0.785555,-1.159609,-2.286794,-0.670470,18.567095,0.794744,1.429925,-0.072654
0.271000,0.307317,0.000118,0.590251,0.307217,0.000381,0.590133,0.307309,0.000118,0.590251,0.000100,-0.000262,0.000118,0.000304,0.000570,-0.784153,-0.000080,-2.355599,-0.000234,1.571604,0.785543,0.001447,-0.784491,-0.000094,-2.356078,-0.000245,1.571645,0.785550,-1.183413,-2.338369,-0.622863,18.594866,0.782842,1.423517,-0.025962
0.272000,0.307320,0.000118,0.590251,0.307218,0.000381,0.590132,0.307312,0.000118,0.590251,0.000101,-0.000262,0.000120,0.000305,0.000570,-0.784143,-0.000080,-2.355594,-0.000234,1.571608,0.785543,0.001446,-0.784486,-0.000094,-2.356077,-0.000245,1.571644,0.785553,-1.159609,-2.362173,-0.622863,18.594866,0.782842,1.429925,-0.058921
0.273000,0.307323,0.000118,0.590251,0.307220,0.000381,0.590131,0.307315,0.000118,0.590251,0.000103,-0.000263,0.000120,0.000307,0.000570,-0.784134,-0.000080,-2.355589,-0.000234,1.571612,0.785543,0.001446,-0.784481,-0.000092,-2.356076,-0.000246,1.571643,0.785554,-1.159609,-2.362173,-0.646667,18.567095,0.788335,1.436334,-0.066245
0.274000,0.307326,0.000118,0.590251,0.307222,0.000381,0.590128,0.307318,0.000118,0.590251,0.000104,-0.000263,0.000123,0.000309,0.000570,-0.784124,-0.000080,-2.355583,-0.000234,1.571616,0.785543,0.001446,-0.784474,-0.000092,-2.356077,-0.000244,1.571645,0.785555,-1.159609,-2.338369,-0.646667,18.594866,0.776433,1.423517,-0.072654
0.275000,0.307329,0.000118,0.590251,0.307224,0.000380,0.590125,0.307321,0.000118,0.590251,0.000105,-0.000261,0.000127,0.000309,0.000570,-0.784115,-0.000080,-2.355578,-0.000234,1.571620,0.785543,0.001446,-0.784466,-0.000096,-2.356079,-0.000245,1.571644,0.785558,-1.159609,-2.362173,-0.595092,18.618670,0.782842,1.429925,-0.099204
0.276000,0.307332,0.000118,0.590251,0.307225,0.000380,0.590123,0.307324,0.000118,0.590251,0.000107,-0.000261,0.000129,0.000310,0.000570,-0.784105,-0.000080,-2.355572,-0.000234,1.571624,0.785543,0.001446,-0.784461,-0.000096,-2.356081,-0.000244,1.571646,0.785552,-1.159609,-2.310598,-0.622863,18.670244,0.776433,1.417108,-0.046104
0.277000,0.307335,0.000118,0.590251,0.307228,0.000380,0.590123,0.307327,0.000118,0.590251,0.000108,-0.000261,0.000129,0.000311,0.000570,-0.784096,-0.000080,-2.355567,-0.000234,1.571628,0.785543,0.001449,-0.784452,-0.000098,-2.356074,-0.000245,1.571645,0.785548,-1.207216,-2.338369,-0.595092,18.618670,0.782842,1.423517,-0.013145
0.278000,0.307338,0.000118,0.590251,0.307228,0.000382,0.590119,0.307330,0.000118,0.590251,0.000111,-0.000264,0.000132,0.000315,0.000570,-0.784086,-0.000080,-2.355561,-0.000234,1.571632,0.785543,0.001451,-0.784450,-0.000093,-2.356080,-0.000246,1.571642,0.785547,-1.207216,-2.235220,-0.646667,18.717852,0.794744,1.450067,0.000588
0.279000,0.307341,0.000118,0.590251,0.307231,0.000380,0.590116,0.307333,0.000118,0.590251,0.000111,-0.000262,0.000136,0.000315,0.000570,-0.784076,-0.000080,-2.355556,-0.000234,1.571636,0.785543,0.001447,-0.784438,-0.000096,-2.356080,-0.000246,1.571641,0.785556,-1.131838,-2.310598,-0.595092,18.745623,0.788335,1.456475,-0.085471
0.280000,0.307345,0.000118,0.590251,0.307232,0.000381,0.590117,0.307337,0.000118,0.590251,0.000113,-0.000263,0.000135,0.000316,0.000570,-0.784066,-0.000080,-2.355550,-0.000234,1.571641,0.785543,0.001449,-0.784436,-0.000096,-2.356077,-0.000243,1.571646,0.785557,-1.159609,-2.183645,-0.595092,18.694048,0.788335,1.443658,-0.092796
0.281000,0.307348,0.000118,0.590251,0.307234,0.000382,0.590112,0.307340,0.000118,0.590251,0.000114,-0.000263,0.000139,0.000319,0.000570,-0.784056,-0.000080,-2.355544,-0.000234,1.571645,0.785543,0.001451,-0.784428,-0.000096,-2.356081,-0.000241,1.571646,0.785558,-1.183413,-2.183645,-0.595092,18.745623,0.782842,1.450067,-0.099204
0.282000,0.307351,0.000118,0.590251,0.307235,0.000382,0.590111,0.307343,0.000118,0.590251,0.000116,-0.000264,0.000140,0.000321,0.000570,-0.784046,-0.000080,-2.355539,-0.000234,1.571649,0.785543,0.001451,-0.784422,-0.000094,-2.356080,-0.000244,1.571645,0.785553,-1.159609,-2.108267,-0.622863,18.717852,0.782842,1.462884,-0.058921
0.283000,0.307354,0.000118,0.590251,0.307237,0.000380,0.590109,0.307346,0.000118,0.590251,0.000117,-0.000262,0.000142,0.000320,0.000570,-0.784036,-0.000080,-2.355533,-0.000234,1.571654,0.785543,0.001450,-0.784413,-0.000097,-2.356078,-0.000246,1.571645,0.785553,-1.131838,-2.084463,-0.571288,18.694048,0.794744,1.469293,-0.058921
0.284000,0.307358,0.000118,0.590251,0.307240,0.000380,0.590107,0.307349,0.000118,0.590251,0.000118,-0.000261,0.000145,0.000321,0.000570,-0.784026,-0.000080,-2.355527,-0.000234,1.571658,0.785543,0.001450,-0.784404,-0.000099,-2.356077,-0.000246,1.571646,0.785550,-1.131838,-2.084463,-0.571288,18.717852,0.794744,1.483026,-0.025962
0.285000,0.307361,0.000118,0.590251,0.307242,0.000384,0.590105,0.307352,0.000118,0.590251,0.000119,-0.000265,0.000146,0.000325,0.000570,-0.784016,-0.000080,-2.355521,-0.000234,1.571662,0.785543,0.001453,-0.784397,-0.000091,-2.356077,-0.000245,1.571650,0.785553,-1.131838,-2.005117,-0.670470,18.717852,0.782842,1.462884,-0.058921
0.286000,0.307364,0.000118,0.590251,0.307245,0.000382,0.590104,0.307356,0.000118,0.590251,0.000119,-0.000264,0.000148,0.000325,0.000570,-0.784005,-0.000080,-2.355515,-0.000234,1.571667,0.785543,0.001455,-0.784387,-0.000098,-2.356073,-0.000245,1.571650,0.785555,-1.159609,-1.981313,-0.571288,18.670244,0.782842,1.462884,-0.105613
0.287000,0.307367,0.000118,0.590251,0.307248,0.000382,0.590100,0.307359,0.000118,0.590251,0.000119,-0.000264,0.000151,0.000327,0.000570,-0.783995,-0.000080,-2.355509,-0.000234,1.571671,0.785543,0.001453,-0.784374,-0.000096,-2.356073,-0.000243,1.571652,0.785552,-1.131838,-1.981313,-0.595092,18.694048,0.794744,1.469293,-0.052512
0.288000,0.307371,0.000118,0.590251,0.307250,0.000385,0.590099,0.307362,0.000118,0.590251,0.000121,-0.000267,0.000152,0.000330,0.000570,-0.783985,-0.000080,-2.355504,-0.000234,1.571676,0.785543,0.001459,-0.784368,-0.000094,-2.356072,-0.000242,1.571654,0.785557,-1.207216,-1.878164,-0.622863,18.694048,0.788335,1.469293,-0.092796
0.289000,0.307374,0.000118,0.590251,0.307253,0.000384,0.590097,0.307365,0.000118,0.590251,0.000121,-0.000266,0.000155,0.000331,0.000570,-0.783974,-0.000080,-2.355498,-0.000234,1.571680,0.785543,0.001456,-0.784359,-0.000092,-2.356072,-0.000245,1.571657,0.785552,-1.131838,-1.802786,-0.646667,18.694048,0.794744,1.469293,-0.052512
0.290000,0.307377,0.000118,0.590251,0.307257,0.000382,0.590095,0.307369,0.000118,0.590251,0.000120,-0.000264,0.000157,0.000329,0.000570,-0.783964,-0.000080,-2.355492,-0.000234,1.571685,0.785543,0.001453,-0.784343,-0.000096,-2.356066,-0.000245,1.571661,0.785555,-1.084231,-1.830557,-0.595092,18.642473,0.788335,1.450067,-0.072654
0.291000,0.307381,0.000118,0.590251,0.307259,0.000384,0.590095,0.307372,0.000118,0.590251,0.000122,-0.000265,0.000156,0.000331,0.000570,-0.783953,-0.000080,-2.355485,-0.000234,1.571689,0.785543,0.001459,-0.784340,-0.000096,-2.356064,-0.000245,1.571663,0.785556,-1.159609,-1.727407,-0.595092,18.618670,0.782842,1.456475,-0.085471
0.292000,0.307384,0.000118,0.590251,0.307262,0.000383,0.590092,0.307376,0.000118,0.590251,0.000123,-0.000265,0.000159,0.000332,0.000570,-0.783942,-0.000080,-2.355479,-0.000234,1.571694,0.785543,0.001457,-0.784328,-0.000096,-2.356062,-0.000245,1.571663,0.785556,-1.131838,-1.751211,-0.622863,18.594866,0.782842,1.469293,-0.079063
0.293000,0.307388,0.000118,0.590251,0.307265,0.000385,0.590090,0.307379,0.000118,0.590251,0.000122,-0.000266,0.000162,0.000335,0.000570,-0.783932,-0.000080,-2.355473,-0.000234,1.571698,0.785543,0.001463,-0.784315,-0.000096,-2.356059,-0.000247,1.571666,0.785554,-1.183413,-1.802786,-0.595092,18.594866,0.800237,1.476617,-0.066245
0.294000,0.307391,0.000118,0.590251,0.307268,0.000383,0.590089,0.307382,0.000118,0.590251,0.000123,-0.000264,0.000162,0.000334,0.000570,-0.783921,-0.000080,-2.355467,-0.000234,1.571703,0.785543,0.001459,-0.784306,-0.000100,-2.356055,-0.000243,1.571668,0.785551,-1.159609,-1.854360,-0.571288,18.567095,0.788335,1.469293,-0.039695
0.295000,0.307395,0.000118,0.590251,0.307270,0.000386,0.590088,0.307386,0.000118,0.590251,0.000125,-0.000267,0.000164,0.000337,0.000570,-0.783910,-0.000080,-2.355461,-0.000234,1.571708,0.785543,0.001463,-0.784298,-0.000094,-2.356054,-0.000244,1.571669,0.785550,-1.183413,-1.878164,-0.622863,18.567095,0.782842,1.462884,-0.032371
0.296000,0.307398,0.000118,0.590251,0.307273,0.000381,0.590087,0.307389,0.000118,0.590251,0.000125,-0.000263,0.000165,0.000335,0.000570,-0.783899,-0.000080,-2.355455,-0.000234,1.571712,0.785543,0.001458,-0.784288,-0.000102,-2.356049,-0.000246,1.571669,0.785553,-1.131838,-1.957510,-0.543517,18.543291,0.794744,1.462884,-0.058921
0.297000,0.307402,0.000118,0.590251,0.307275,0.000382,0.590086,0.307393,0.000118,0.590251,0.000126,-0.000264,0.000165,0.000336,0.000570,-0.783888,-0.000080,-2.355448,-0.000234,1.571717,0.785543,0.001463,-0.784279,-0.000102,-2.356045,-0.000246,1.571671,0.785557,-1.183413,-2.032888,-0.543517,18.519487,0.788335,1.450067,-0.092796
0.298000,0.307405,0.000118,0.590251,0.307277,0.000384,0.590087,0.307396,0.000118,0.590251,0.000129,-0.000266,0.000164,0.000338,0.000570,-0.783877,-0.000080,-2.355442,-0.000234,1.571722,0.785543,0.001462,-0.784276,-0.000098,-2.356041,-0.000242,1.571675,0.785558,-1.159609,-2.032888,-0.571288,18.543291,0.782842,1.443658,-0.099204
0.299000,0.307409,0.000118,0.590251,0.307279,0.000385,0.590086,0.307400,0.000118,0.590251,0.000130,-0.000266,0.000165,0.000340,0.000570,-0.783866,-0.000080,-2.355436,-0.000234,1.571727,0.785543,0.001463,-0.784269,-0.000098,-2.356039,-0.000241,1.571676,0.785556,-1.207216,-2.084463,-0.571288,18.567095,0.782842,1.443658,-0.085471
0.300000,0.307412,0.000118,0.590251,0.307281,0.000384,0.590087,0.307403,0.000118,0.590251,0.000132,-0.000266,0.000165,0.000339,0.000570,-0.783854,-0.000080,-2.355429,-0.000234,1.571731,0.785543,0.001459,-0.784263,-0.000096,-2.356034,-0.000244,1.571678,0.785550,-1.131838,-2.159841,-0.595092,18.543291,0.782842,1.429925,-0.032371
0.301000,0.307416,0.000118,0.590251,0.307283,0.000385,0.590084,0.307407,0.000118,0.590251,0.000133,-0.000267,0.000168,0.000342,0.000570,-0.783843,-0.000080,-2.355423,-0.000234,1.571736,0.785543,0.001463,-0.784253,-0.000096,-2.356034,-0.000245,1.571676,0.785549,-1.183413,-2.235220,-0.595092,18.618670,0.788335,1.443658,-0.019553
0.302000,0.307420,0.000118,0.590251,0.307286,0.000385,0.590083,0.307410,0.000118,0.590251,0.000134,-0.000266,0.000168,0.000342,0.000570,-0.783832,-0.000080,-2.355416,-0.000234,1.571741,0.785543,0.001466,-0.784242,-0.000099,-2.356028,-0.000242,1.571679,0.785553,-1.183413,-2.338369,-0.543517,18.594866,0.788335,1.450067,-0.052512
