Swk6666/libfranka/data/circle_trajectory_impedance/circle_trajectory_data_impedance.csv
timestamp,desired_x,desired_y,desired_z,actual_x,actual_y,actual_z,commanded_x,commanded_y,commanded_z,error_x,error_y,error_z,error_norm,q_d0,q_d1,q_d2,q_d3,q_d4,q_d5,q_d6,q0,q1,q2,q3,q4,q5,q6,tau0,tau1,tau2,tau3,tau4,tau5,tau6
0.000000,0.307035,0.000177,0.590218,0.307035,0.000177,0.590218,0.307035,0.000177,0.590218,0.000000,-0.000001,-0.000000,0.000001,0.000537,-0.785006,0.000105,-2.356151,-0.000280,1.571196,0.785156,0.000540,-0.785006,0.000104,-2.356151,-0.000280,1.571196,0.785157,-1.282595,-2.719229,-0.722045,18.543291,1.056585,1.146112,0.219399
0.001000,0.307035,0.000177,0.590218,0.307035,0.000179,0.590218,0.307035,0.000177,0.590218,0.000000,-0.000002,-0.000000,0.000002,0.000537,-0.785006,0.000105,-2.356151,-0.000280,1.571196,0.785156,0.000539,-0.785008,0.000108,-2.356151,-0.000281,1.571196,0.785154,-1.258791,-2.667654,-0.773620,18.519487,1.062078,1.146112,0.219399
0.002000,0.307035,0.000177,0.590218,0.307035,0.000179,0.590218,0.307035,0.000177,0.590218,0.000000,-0.000003,-0.000000,0.000003,0.000537,-0.785006,0.000105,-2.356151,-0.000280,1.571196,0.785156,0.000544,-0.785009,0.000107,-2.356152,-0.000282,1.571198,0.785154,-1.330202,-2.643850,-0.749816,18.491716,1.044683,1.159845,0.219399
0.003000,0.307035,0.000177,0.590218,0.307036,0.000178,0.590219,0.307035,0.000177,0.590218,-0.000000,-0.000002,-0.000001,0.000002,0.000537,-0.785006,0.000105,-2.356151,-0.000280,1.571196,0.785156,0.000540,-0.785004,0.000107,-2.356147,-0.000279,1.571195,0.785158,-1.207216,-2.643850,-0.749816,18.317156,0.978765,1.199212,0.152566
0.004000,0.307035,0.000177,0.590218,0.307034,0.000177,0.590217,0.307035,0.000177,0.590218,0.000002,-0.000000,0.000001,0.000002,0.000537,-0.785006,0.000105,-2.356151,-0.000280,1.571196,0.785156,0.000540,-0.785011,0.000104,-2.356155,-0.000280,1.571194,0.785157,-1.131838,-2.489126,-0.670470,18.340960,0.943059,1.238580,0.119607
0.005000,0.307035,0.000177,0.590218,0.307034,0.000177,0.590219,0.307035,0.000177,0.590218,0.000002,0.000000,-0.000001,0.000002,0.000537,-0.785006,0.000105,-2.356151,-0.000280,1.571196,0.785156,0.000539,-0.785012,0.000103,-2.356152,-0.000279,1.571195,0.785155,-1.060427,-2.437551,-0.646667,18.166399,0.919256,1.265130,0.099465
0.006000,0.307035,0.000177,0.590218,0.307034,0.000178,0.590216,0.307035,0.000177,0.590218,0.000001,-0.000001,0.000001,0.000002,0.000537,-0.785006,0.000105,-2.356151,-0.000280,1.571196,0.785156,0.000543,-0.785011,0.000103,-2.356158,-0.000282,1.571201,0.785154,-1.008852,-2.362173,-0.646667,18.214006,0.919256,1.258722,0.086648
0.007000,0.307035,0.000177,0.590218,0.307035,0.000180,0.590215,0.307035,0.000177,0.590218,0.000000,-0.000003,0.000002,0.000004,0.000537,-0.785006,0.000105,-2.356151,-0.000280,1.571196,0.785156,0.000551,-0.785009,0.000103,-2.356159,-0.000283,1.571204,0.785152,-1.060427,-2.338369,-0.646667,18.214006,0.943059,1.244989,0.106789
0.008000,0.307035,0.000177,0.590218,0.307034,0.000179,0.590214,0.307035,0.000177,0.590218,0.000001,-0.000003,0.000004,0.000005,0.000537,-0.785006,0.000105,-2.356151,-0.000280,1.571196,0.785156,0.000552,-0.785011,0.000101,-2.356163,-0.000285,1.571200,0.785149,-0.985048,-2.286794,-0.622863,18.265581,0.937566,1.258722,0.126015
0.009000,0.307035,0.000177,0.590218,0.307034,0.000181,0.590214,0.307035,0.000177,0.590218,0.000001,-0.000004,0.000003,0.000005,0.000537,-0.785006,0.000105,-2.356151,-0.000280,1.571196,0.785156,0.000557,-0.785010,0.000101,-2.356161,-0.000285,1.571201,0.785153,-0.961245,-2.235220,-0.622863,18.265581,0.931157,1.238580,0.093056
0.010000,0.307035,0.000177,0.590218,0.307035,0.000182,0.590213,0.307035,0.000177,0.590218,0.000000,-0.000005,0.000005,0.000007,0.000537,-0.785006,0.000105,-2.356151,-0.000280,1.571196,0.785156,0.000561,-0.785009,0.000101,-2.356164,-0.000284,1.571202,0.785154,-0.961245,-2.235220,-0.622863,18.317156,0.913762,1.252313,0.086648
0.011000,0.307035,0.000177,0.590218,0.307034,0.000182,0.590213,0.307035,0.000177,0.590218,0.000001,-0.000005,0.000005,0.000007,0.000537,-0.785006,0.000105,-2.356151,-0.000280,1.571196,0.785156,0.000562,-0.785010,0.000099,-2.356164,-0.000286,1.571200,0.785150,-0.933474,-2.183645,-0.595092,18.317156,0.907354,1.277948,0.086648
0.012000,0.307035,0.000177,0.590218,0.307034,0.000184,0.590212,0.307035,0.000177,0.590218,0.000001,-0.000008,0.000005,0.000009,0.000537,-0.785006,0.000105,-2.356151,-0.000280,1.571196,0.785156,0.000571,-0.785010,0.000099,-2.356165,-0.000285,1.571200,0.785145,-1.008852,-2.132070,-0.595092,18.340960,0.883550,1.285272,0.126015
0.013000,0.307035,0.000177,0.590218,0.307034,0.000184,0.590210,0.307035,0.000177,0.590218,0.000001,-0.000008,0.000008,0.000011,0.000537,-0.785006,0.000105,-2.356151,-0.000280,1.571196,0.785156,0.000570,-0.785009,0.000099,-2.356169,-0.000283,1.571197,0.785148,-0.985048,-2.108267,-0.595092,18.392534,0.866155,1.310907,0.093056
0.014000,0.307035,0.000177,0.590218,0.307035,0.000186,0.590209,0.307035,0.000177,0.590218,0.000000,-0.000009,0.000009,0.000013,0.000537,-0.785006,0.000105,-2.356151,-0.000280,1.571196,0.785156,0.000571,-0.785006,0.000103,-2.356171,-0.000284,1.571200,0.785150,-0.985048,-2.132070,-0.622863,18.416338,0.871648,1.318231,0.072915
0.015000,0.307035,0.000177,0.590218,0.307034,0.000188,0.590208,0.307035,0.000177,0.590218,0.000001,-0.000011,0.000010,0.000015,0.000537,-0.785006,0.000105,-2.356151,-0.000280,1.571196,0.785156,0.000576,-0.785009,0.000104,-2.356174,-0.000286,1.571201,0.785150,-1.032656,-2.084463,-0.622863,18.467913,0.889959,1.318231,0.080239
0.016000,0.307035,0.000177,0.590218,0.307034,0.000188,0.590207,0.307035,0.000177,0.590218,0.000001,-0.000011,0.000011,0.000015,0.000537,-0.785006,0.000105,-2.356151,-0.000280,1.571196,0.785156,0.000580,-0.785009,0.000102,-2.356176,-0.000289,1.571200,0.785151,-1.008852,-2.056692,-0.595092,18.491716,0.889959,1.331048,0.066506
0.017000,0.307035,0.000177,0.590218,0.307036,0.000190,0.590203,0.307035,0.000177,0.590218,-0.000001,-0.000013,0.000014,0.000019,0.000537,-0.785006,0.000105,-2.356151,-0.000280,1.571196,0.785156,0.000585,-0.785002,0.000102,-2.356179,-0.000289,1.571202,0.785147,-1.032656,-2.108267,-0.622863,18.543291,0.878057,1.337457,0.072915
0.018000,0.307035,0.000177,0.590218,0.307036,0.000190,0.590203,0.307035,0.000177,0.590218,-0.000001,-0.000013,0.000014,0.000020,0.000537,-0.785006,0.000105,-2.356151,-0.000280,1.571196,0.785156,0.000585,-0.785002,0.000103,-2.356179,-0.000289,1.571204,0.785146,-0.985048,-2.108267,-0.646667,18.543291,0.878057,1.364007,0.072915
0.019000,0.307035,0.000177,0.590218,0.307038,0.000193,0.590201,0.307035,0.000177,0.590218,-0.000002,-0.000016,0.000016,0.000023,0.000537,-0.785006,0.000105,-2.356150,-0.000280,1.571197,0.785156,0.000596,-0.784997,0.000103,-2.356181,-0.000289,1.571206,0.785146,-1.060427,-2.132070,-0.646667,18.567095,0.871648,1.384149,0.072915
0.020000,0.307035,0.000177,0.590218,0.307037,0.000194,0.590201,0.307035,0.000177,0.590218,-0.000002,-0.000017,0.000017,0.000024,0.000537,-0.785006,0.000105,-2.356150,-0.000280,1.571197,0.785156,0.000600,-0.785000,0.000101,-2.356183,-0.000291,1.571205,0.785140,-1.032656,-2.084463,-0.595092,18.594866,0.889959,1.409784,0.093056
0.021000,0.307035,0.000177,0.590218,0.307037,0.000196,0.590202,0.307035,0.000177,0.590218,-0.000001,-0.000020,0.000016,0.000025,0.000537,-0.785006,0.000105,-2.356150,-0.000280,1.571197,0.785156,0.000606,-0.785001,0.000104,-2.356183,-0.000291,1.571207,0.785144,-1.032656,-2.032888,-0.646667,18.594866,0.889959,1.423517,0.053689
0.022000,0.307035,0.000177,0.590218,0.307038,0.000198,0.590200,0.307035,0.000177,0.590218,-0.000003,-0.000021,0.000018,0.000028,0.000537,-0.785006,0.000105,-2.356150,-0.000280,1.571197,0.785156,0.000617,-0.784997,0.000100,-2.356185,-0.000289,1.571210,0.785142,-1.060427,-2.084463,-0.571288,18.618670,0.878057,1.409784,0.033547
0.023000,0.307035,0.000177,0.590218,0.307040,0.000199,0.590199,0.307035,0.000177,0.590218,-0.000005,-0.000022,0.000019,0.000029,0.000537,-0.785006,0.000105,-2.356150,-0.000280,1.571197,0.785156,0.000622,-0.784991,0.000098,-2.356183,-0.000291,1.571212,0.785135,-1.032656,-2.159841,-0.571288,18.594866,0.889959,1.417108,0.086648
0.024000,0.307035,0.000177,0.590218,0.307041,0.000202,0.590196,0.307035,0.000177,0.590218,-0.000005,-0.000026,0.000021,0.000034,0.000537,-0.785006,0.000105,-2.356150,-0.000280,1.571197,0.785156,0.000626,-0.784987,0.000104,-2.356186,-0.000289,1.571211,0.785139,-0.961245,-2.211416,-0.622863,18.642473,0.878057,1.409784,0.046364
0.025000,0.307036,0.000177,0.590218,0.307041,0.000204,0.590196,0.307035,0.000177,0.590218,-0.000006,-0.000027,0.000022,0.000035,0.000537,-0.785006,0.000105,-2.356150,-0.000280,1.571197,0.785156,0.000633,-0.784987,0.000102,-2.356188,-0.000293,1.571214,0.785140,-0.933474,-2.211416,-0.595092,18.670244,0.878057,1.403375,0.039956
0.026000,0.307036,0.000177,0.590218,0.307041,0.000207,0.590196,0.307035,0.000177,0.590218,-0.000006,-0.000030,0.000022,0.000038,0.000537,-0.785005,0.000105,-2.356150,-0.000280,1.571197,0.785156,0.000642,-0.784987,0.000102,-2.356188,-0.000294,1.571215,0.785137,-0.933474,-2.211416,-0.595092,18.670244,0.878057,1.409784,0.060097
0.027000,0.307036,0.000177,0.590218,0.307042,0.000207,0.590196,0.307035,0.000177,0.590218,-0.000007,-0.000031,0.000021,0.000038,0.000537,-0.785005,0.000105,-2.356150,-0.000280,1.571197,0.785156,0.000646,-0.784984,0.000101,-2.356185,-0.000293,1.571215,0.785138,-0.885866,-2.262991,-0.571288,18.618670,0.866155,1.409784,0.053689
0.028000,0.307036,0.000177,0.590218,0.307044,0.000211,0.590196,0.307036,0.000177,0.590218,-0.000008,-0.000035,0.000022,0.000042,0.000537,-0.785005,0.000105,-2.356150,-0.000280,1.571197,0.785156,0.000657,-0.784978,0.000102,-2.356183,-0.000292,1.571216,0.785136,-0.909670,-2.310598,-0.595092,18.594866,0.859746,1.396966,0.072915
0.029000,0.307036,0.000177,0.590218,0.307043,0.000213,0.590196,0.307036,0.000177,0.590218,-0.000008,-0.000037,0.000022,0.000043,0.000537,-0.785005,0.000105,-2.356150,-0.000280,1.571197,0.785156,0.000666,-0.784979,0.000100,-2.356183,-0.000291,1.571215,0.785138,-0.909670,-2.286794,-0.595092,18.594866,0.854253,1.409784,0.027138
0.030000,0.307036,0.000177,0.590218,0.307044,0.000217,0.590195,0.307036,0.000177,0.590218,-0.000009,-0.000041,0.000023,0.000048,0.000537,-0.785005,0.000105,-2.356150,-0.000280,1.571197,0.785156,0.000677,-0.784975,0.000102,-2.356183,-0.000291,1.571216,0.785135,-0.961245,-2.310598,-0.622863,18.594866,0.847844,1.403375,0.046364
0.031000,0.307036,0.000177,0.590218,0.307045,0.000219,0.590194,0.307036,0.000177,0.590218,-0.000009,-0.000042,0.000023,0.000049,0.000537,-0.785005,0.000105,-2.356150,-0.000280,1.571197,0.785156,0.000684,-0.784974,0.000102,-2.356183,-0.000293,1.571216,0.785135,-0.933474,-2.310598,-0.595092,18.594866,0.866155,1.396966,0.039956
0.032000,0.307036,0.000177,0.590218,0.307046,0.000224,0.590193,0.307036,0.000177,0.590218,-0.000010,-0.000048,0.000024,0.000055,0.000537,-0.785005,0.000105,-2.356150,-0.000280,1.571197,0.785156,0.000694,-0.784970,0.000107,-2.356183,-0.000295,1.571218,0.785139,-0.909670,-2.338369,-0.670470,18.594866,0.854253,1.409784,0.006997
0.033000,0.307036,0.000177,0.590218,0.307048,0.000224,0.590193,0.307036,0.000177,0.590218,-0.000012,-0.000047,0.000025,0.000055,0.000537,-0.785005,0.000105,-2.356150,-0.000280,1.571197,0.785156,0.000699,-0.784965,0.000104,-2.356181,-0.000298,1.571221,0.785136,-0.862063,-2.362173,-0.622863,18.567095,0.878057,1.396966,0.033547
0.034000,0.307036,0.000177,0.590218,0.307049,0.000227,0.590193,0.307036,0.000177,0.590218,-0.000013,-0.000050,0.000025,0.000058,0.000537,-0.785004,0.000105,-2.356150,-0.000280,1.571197,0.785156,0.000708,-0.784962,0.000104,-2.356179,-0.000297,1.571223,0.785135,-0.862063,-2.362173,-0.622863,18.543291,0.859746,1.376825,0.039956
0.035000,0.307036,0.000177,0.590218,0.307050,0.000231,0.590191,0.307036,0.000177,0.590218,-0.000014,-0.000055,0.000026,0.000062,0.000537,-0.785004,0.000105,-2.356150,-0.000280,1.571197,0.785156,0.000721,-0.784959,0.000106,-2.356181,-0.000301,1.571224,0.785132,-0.909670,-2.362173,-0.646667,18.567095,0.866155,1.396966,0.066506
0.036000,0.307036,0.000177,0.590218,0.307050,0.000234,0.590192,0.307036,0.000177,0.590218,-0.000014,-0.000058,0.000026,0.000065,0.000537,-0.785004,0.000105,-2.356150,-0.000280,1.571197,0.785156,0.000732,-0.784956,0.000104,-2.356178,-0.000299,1.571223,0.785138,-0.933474,-2.338369,-0.622863,18.519487,0.866155,1.417108,-0.013145
0.037000,0.307036,0.000177,0.590218,0.307053,0.000237,0.590191,0.307036,0.000177,0.590218,-0.000017,-0.000060,0.000027,0.000068,0.000537,-0.785004,0.000105,-2.356149,-0.000280,1.571197,0.785156,0.000739,-0.784948,0.000104,-2.356176,-0.000297,1.571228,0.785132,-0.933474,-2.389944,-0.622863,18.491716,0.854253,1.409784,0.027138
0.038000,0.307036,0.000177,0.590218,0.307054,0.000241,0.590188,0.307036,0.000177,0.590218,-0.000018,-0.000064,0.000029,0.000073,0.000537,-0.785004,0.000105,-2.356149,-0.000280,1.571197,0.785156,0.000750,-0.784942,0.000106,-2.356178,-0.000300,1.571230,0.785128,-0.961245,-2.389944,-0.646667,18.519487,0.854253,1.429925,0.060097
0.039000,0.307036,0.000177,0.590218,0.307055,0.000246,0.590188,0.307036,0.000177,0.590218,-0.000019,-0.000069,0.000029,0.000077,0.000537,-0.785004,0.000105,-2.356149,-0.000280,1.571197,0.785156,0.000764,-0.784940,0.000108,-2.356176,-0.000300,1.571231,0.785131,-1.060427,-2.338369,-0.670470,18.491716,0.847844,1.436334,0.033547
0.040000,0.307036,0.000177,0.590218,0.307057,0.000246,0.590186,0.307036,0.000177,0.590218,-0.000021,-0.000069,0.000032,0.000079,0.000537,-0.785003,0.000105,-2.356149,-0.000280,1.571198,0.785156,0.000767,-0.784934,0.000106,-2.356178,-0.000301,1.571231,0.785130,-1.032656,-2.338369,-0.646667,18.519487,0.854253,1.436334,0.013405
0.041000,0.307036,0.000177,0.590218,0.307057,0.000248,0.590187,0.307036,0.000177,0.590218,-0.000021,-0.000071,0.000031,0.000080,0.000537,-0.785003,0.000105,-2.356149,-0.000280,1.571198,0.785156,0.000773,-0.784933,0.000108,-2.356174,-0.000302,1.571230,0.785127,-1.032656,-2.286794,-0.670470,18.467913,0.859746,1.443658,0.033547
0.042000,0.307036,0.000177,0.590218,0.307059,0.000251,0.590183,0.307036,0.000177,0.590218,-0.000023,-0.000074,0.000034,0.000085,0.000537,-0.785003,0.000105,-2.356149,-0.000280,1.571198,0.785156,0.000780,-0.784926,0.000110,-2.356178,-0.000301,1.571231,0.785125,-1.084231,-2.310598,-0.698241,18.519487,0.854253,1.436334,0.039956
0.043000,0.307036,0.000177,0.590218,0.307060,0.000255,0.590184,0.307036,0.000177,0.590218,-0.000024,-0.000078,0.000034,0.000088,0.000537,-0.785003,0.000105,-2.356149,-0.000280,1.571198,0.785156,0.000787,-0.784923,0.000114,-2.356176,-0.000300,1.571237,0.785125,-1.131838,-2.286794,-0.722045,18.491716,0.847844,1.417108,0.046364
0.044000,0.307037,0.000177,0.590218,0.307061,0.000259,0.590182,0.307036,0.000177,0.590218,-0.000024,-0.000083,0.000036,0.000093,0.000537,-0.785002,0.000105,-2.356149,-0.000280,1.571198,0.785156,0.000796,-0.784922,0.000118,-2.356179,-0.000300,1.571239,0.785131,-1.183413,-2.262991,-0.773620,18.543291,0.847844,1.436334,-0.013145
0.045000,0.307037,0.000177,0.590218,0.307063,0.000261,0.590180,0.307036,0.000177,0.590218,-0.000026,-0.000084,0.000038,0.000096,0.000537,-0.785002,0.000105,-2.356148,-0.000280,1.571198,0.785156,0.000800,-0.784915,0.000118,-2.356179,-0.000300,1.571241,0.785126,-1.183413,-2.310598,-0.773620,18.543291,0.842351,1.429925,0.006997
0.048000,0.307037,0.000177,0.590218,0.307065,0.000272,0.590177,0.307037,0.000177,0.590218,-0.000028,-0.000095,0.000040,0.000107,0.000537,-0.785001,0.000105,-2.356148,-0.000280,1.571198,0.785156,0.000821,-0.784906,0.000131,-2.356179,-0.000300,1.571242,0.785126,-1.231020,-2.338369,-0.876769,18.543291,0.842351,1.469293,0.006997
0.049000,0.307037,0.000177,0.590218,0.307066,0.000273,0.590177,0.307037,0.000177,0.590218,-0.000029,-0.000096,0.000040,0.000108,0.000537,-0.785001,0.000105,-2.356148,-0.000280,1.571199,0.785156,0.000828,-0.784905,0.000127,-2.356179,-0.000299,1.571245,0.785120,-1.231020,-2.338369,-0.848998,18.543291,0.835943,1.469293,0.046364
0.050000,0.307037,0.000177,0.590218,0.307066,0.000275,0.590176,0.307037,0.000177,0.590218,-0.000029,-0.000098,0.000041,0.000110,0.000537,-0.785001,0.000105,-2.356148,-0.000280,1.571199,0.785156,0.000836,-0.784903,0.000125,-2.356181,-0.000302,1.571247,0.785125,-1.231020,-2.362173,-0.797423,18.567095,0.835943,1.462884,0.000588
0.051000,0.307037,0.000177,0.590218,0.307068,0.000277,0.590176,0.307037,0.000177,0.590218,-0.000030,-0.000100,0.000042,0.000113,0.000537,-0.785000,0.000105,-2.356147,-0.000280,1.571199,0.785156,0.000838,-0.784898,0.000130,-2.356178,-0.000301,1.571246,0.785120,-1.159609,-2.437551,-0.848998,18.519487,0.842351,1.476617,0.046364
0.052000,0.307037,0.000177,0.590218,0.307069,0.000279,0.590173,0.307037,0.000177,0.590218,-0.000032,-0.000103,0.000045,0.000116,0.000537,-0.785000,0.000105,-2.356147,-0.000280,1.571199,0.785156,0.000847,-0.784894,0.000130,-2.356183,-0.000302,1.571251,0.785125,-1.183413,-2.465322,-0.848998,18.594866,0.859746,1.456475,0.000588
0.053000,0.307038,0.000177,0.590218,0.307069,0.000281,0.590172,0.307037,0.000177,0.590218,-0.000031,-0.000104,0.000045,0.000118,0.000537,-0.785000,0.000105,-2.356147,-0.000280,1.571199,0.785156,0.000854,-0.784895,0.000128,-2.356185,-0.000302,1.571251,0.785120,-1.159609,-2.437551,-0.825194,18.618670,0.866155,1.469293,0.019814
0.054000,0.307038,0.000177,0.590218,0.307069,0.000284,0.590172,0.307037,0.000177,0.590218,-0.000032,-0.000107,0.000045,0.000120,0.000537,-0.784999,0.000105,-2.356147,-0.000280,1.571199,0.785156,0.000861,-0.784893,0.000128,-2.356183,-0.000298,1.571251,0.785122,-1.131838,-2.437551,-0.825194,18.594866,0.830449,1.469293,0.013405
0.055000,0.307038,0.000177,0.590218,0.307070,0.000283,0.590171,0.307037,0.000177,0.590218,-0.000032,-0.000106,0.000046,0.000120,0.000537,-0.784999,0.000105,-2.356146,-0.000280,1.571200,0.785156,0.000861,-0.784892,0.000128,-2.356185,-0.000304,1.571252,0.785125,-1.032656,-2.437551,-0.825194,18.618670,0.847844,1.462884,0.000588
0.056000,0.307038,0.000177,0.590218,0.307072,0.000288,0.590170,0.307038,0.000177,0.590218,-0.000034,-0.000111,0.000048,0.000125,0.000537,-0.784998,0.000105,-2.356146,-0.000280,1.571200,0.785156,0.000870,-0.784886,0.000132,-2.356185,-0.000301,1.571255,0.785122,-1.060427,-2.489126,-0.876769,18.618670,0.847844,1.462884,0.027138
0.057000,0.307038,0.000177,0.590218,0.307072,0.000287,0.590169,0.307038,0.000177,0.590218,-0.000034,-0.000110,0.000049,0.000125,0.000537,-0.784998,0.000105,-2.356146,-0.000280,1.571200,0.785156,0.000871,-0.784883,0.000130,-2.356185,-0.000301,1.571255,0.785123,-0.985048,-2.516897,-0.848998,18.618670,0.847844,1.476617,0.019814
0.058000,0.307038,0.000177,0.590218,0.307072,0.000290,0.590166,0.307038,0.000177,0.590218,-0.000034,-0.000114,0.000051,0.000129,0.000537,-0.784998,0.000105,-2.356146,-0.000280,1.571200,0.785156,0.000881,-0.784883,0.000130,-2.356190,-0.000300,1.571255,0.785121,-1.008852,-2.489126,-0.848998,18.694048,0.847844,1.476617,0.033547
0.059000,0.307038,0.000177,0.590218,0.307075,0.000291,0.590167,0.307038,0.000177,0.590218,-0.000036,-0.000114,0.000051,0.000130,0.000537,-0.784997,0.000105,-2.356145,-0.000280,1.571200,0.785156,0.000885,-0.784875,0.000130,-2.356185,-0.000304,1.571259,0.785123,-0.961245,-2.592275,-0.848998,18.618670,0.847844,1.469293,0.013405
0.060000,0.307039,0.000177,0.590218,0.307075,0.000292,0.590166,0.307038,0.000177,0.590218,-0.000036,-0.000116,0.000051,0.000131,0.000537,-0.784997,0.000105,-2.356145,-0.000280,1.571200,0.785156,0.000892,-0.784874,0.000128,-2.356185,-0.000306,1.571257,0.785125,-0.961245,-2.568472,-0.825194,18.618670,0.859746,1.476617,0.000588
0.061000,0.307039,0.000177,0.590218,0.307076,0.000294,0.590166,0.307038,0.000177,0.590218,-0.000037,-0.000117,0.000052,0.000134,0.000537,-0.784996,0.000105,-2.356145,-0.000280,1.571201,0.785156,0.000895,-0.784871,0.000130,-2.356185,-0.000306,1.571258,0.785120,-0.909670,-2.568472,-0.825194,18.618670,0.854253,1.483026,0.046364
0.062000,0.307039,0.000177,0.590218,0.307077,0.000295,0.590165,0.307038,0.000177,0.590218,-0.000038,-0.000118,0.000052,0.000134,0.000537,-0.784996,0.000105,-2.356145,-0.000280,1.571201,0.785156,0.000899,-0.784868,0.000129,-2.356183,-0.000306,1.571259,0.785125,-0.909670,-2.568472,-0.825194,18.594866,0.854253,1.483026,0.000588
0.063000,0.307039,0.000177,0.590218,0.307077,0.000295,0.590163,0.307039,0.000177,0.590218,-0.000038,-0.000119,0.000055,0.000136,0.000537,-0.784995,0.000105,-2.356144,-0.000280,1.571201,0.785156,0.000901,-0.784867,0.000129,-2.356188,-0.000306,1.571260,0.785116,-0.862063,-2.540701,-0.797423,18.670244,0.854253,1.476617,0.053689
0.064000,0.307039,0.000177,0.590218,0.307077,0.000299,0.590163,0.307039,0.000177,0.590218,-0.000038,-0.000122,0.000055,0.000139,0.000537,-0.784994,0.000105,-2.356144,-0.000280,1.571201,0.785156,0.000910,-0.784866,0.000131,-2.356188,-0.000307,1.571263,0.785117,-0.933474,-2.540701,-0.825194,18.670244,0.866155,1.483026,0.033547
0.065000,0.307039,0.000177,0.590218,0.307078,0.000301,0.590164,0.307039,0.000177,0.590218,-0.000039,-0.000124,0.000054,0.000141,0.000537,-0.784994,0.000105,-2.356144,-0.000280,1.571202,0.785156,0.000910,-0.784863,0.000135,-2.356185,-0.000306,1.571264,0.785120,-0.909670,-2.568472,-0.876769,18.618670,0.854253,1.483026,0.000588
0.066000,0.307040,0.000177,0.590218,0.307079,0.000302,0.590162,0.307039,0.000177,0.590218,-0.000039,-0.000125,0.000055,0.000142,0.000537,-0.784993,0.000105,-2.356143,-0.000280,1.571202,0.785156,0.000914,-0.784861,0.000135,-2.356186,-0.000306,1.571266,0.785119,-0.933474,-2.568472,-0.876769,18.642473,0.859746,1.462884,0.039956
0.067000,0.307040,0.000177,0.590218,0.307080,0.000304,0.590163,0.307039,0.000177,0.590218,-0.000041,-0.000127,0.000055,0.000144,0.000537,-0.784993,0.000105,-2.356143,-0.000280,1.571202,0.785156,0.000919,-0.784857,0.000137,-2.356183,-0.000306,1.571269,0.785120,-0.985048,-2.616079,-0.876769,18.594866,0.859746,1.469293,0.006997
0.068000,0.307040,0.000177,0.590218,0.307079,0.000303,0.590164,0.307040,0.000177,0.590218,-0.000039,-0.000127,0.000054,0.000143,0.000537,-0.784992,0.000105,-2.356143,-0.000280,1.571202,0.785156,0.000917,-0.784862,0.000136,-2.356185,-0.000305,1.571269,0.785122,-0.961245,-2.540701,-0.848998,18.618670,0.842351,1.476617,0.013405
0.069000,0.307040,0.000177,0.590218,0.307080,0.000307,0.590164,0.307040,0.000177,0.590218,-0.000040,-0.000130,0.000054,0.000146,0.000537,-0.784991,0.000105,-2.356142,-0.000280,1.571203,0.785156,0.000921,-0.784858,0.000142,-2.356183,-0.000306,1.571271,0.785115,-1.008852,-2.592275,-0.900573,18.594866,0.859746,1.462884,0.060097
0.070000,0.307040,0.000177,0.590218,0.307080,0.000308,0.590163,0.307040,0.000177,0.590218,-0.000039,-0.000132,0.000055,0.000148,0.000537,-0.784991,0.000105,-2.356142,-0.000280,1.571203,0.785156,0.000924,-0.784860,0.000143,-2.356185,-0.000304,1.571269,0.785121,-1.060427,-2.568472,-0.900573,18.618670,0.835943,1.483026,-0.006736
0.071000,0.307041,0.000177,0.590218,0.307080,0.000309,0.590162,0.307040,0.000177,0.590218,-0.000039,-0.000132,0.000055,0.000148,0.000537,-0.784990,0.000105,-2.356142,-0.000280,1.571203,0.785156,0.000928,-0.784860,0.000141,-2.356186,-0.000305,1.571270,0.785114,-1.108034,-2.568472,-0.876769,18.642473,0.842351,1.476617,0.053689
0.072000,0.307041,0.000177,0.590218,0.307081,0.000310,0.590163,0.307040,0.000177,0.590218,-0.000040,-0.000134,0.000055,0.000150,0.000537,-0.784989,0.000105,-2.356141,-0.000280,1.571204,0.785156,0.000926,-0.784858,0.000147,-2.356185,-0.000305,1.571274,0.785116,-1.084231,-2.568472,-0.924377,18.618670,0.842351,1.469293,0.039956
0.073000,0.307041,0.000177,0.590218,0.307080,0.000312,0.590162,0.307041,0.000177,0.590218,-0.000039,-0.000135,0.000056,0.000151,0.000537,-0.784989,0.000105,-2.356141,-0.000280,1.571204,0.785156,0.000932,-0.784859,0.000146,-2.356188,-0.000305,1.571275,0.785122,-1.131838,-2.540701,-0.900573,18.642473,0.847844,1.469293,-0.013145
0.074000,0.307041,0.000177,0.590218,0.307081,0.000313,0.590162,0.307041,0.000177,0.590218,-0.000040,-0.000137,0.000056,0.000153,0.000537,-0.784988,0.000105,-2.356140,-0.000280,1.571204,0.785156,0.000932,-0.784857,0.000150,-2.356187,-0.000305,1.571276,0.785114,-1.131838,-2.540701,-0.952148,18.642473,0.847844,1.462884,0.060097
0.075000,0.307042,0.000177,0.590218,0.307081,0.000313,0.590163,0.307041,0.000177,0.590218,-0.000039,-0.000136,0.000055,0.000152,0.000537,-0.784987,0.000105,-2.356140,-0.000280,1.571204,0.785156,0.000936,-0.784858,0.000146,-2.356185,-0.000306,1.571275,0.785114,-1.183413,-2.516897,-0.900573,18.618670,0.854253,1.476617,0.060097
0.076000,0.307042,0.000177,0.590218,0.307082,0.000315,0.590163,0.307041,0.000177,0.590218,-0.000040,-0.000138,0.000055,0.000154,0.000537,-0.784986,0.000105,-2.356139,-0.000280,1.571205,0.785156,0.000939,-0.784854,0.000148,-2.356183,-0.000305,1.571279,0.785122,-1.159609,-2.540701,-0.900573,18.594866,0.847844,1.469293,-0.013145
0.077000,0.307042,0.000177,0.590218,0.307082,0.000316,0.590164,0.307042,0.000177,0.590218,-0.000040,-0.000139,0.000054,0.000155,0.000537,-0.784986,0.000105,-2.356139,-0.000280,1.571205,0.785156,0.000942,-0.784856,0.000149,-2.356183,-0.000305,1.571280,0.785121,-1.183413,-2.489126,-0.900573,18.594866,0.847844,1.462884,-0.006736
0.078000,0.307042,0.000177,0.590218,0.307082,0.000317,0.590163,0.307042,0.000177,0.590218,-0.000040,-0.000140,0.000055,0.000156,0.000537,-0.784985,0.000105,-2.356139,-0.000280,1.571206,0.785156,0.000943,-0.784854,0.000151,-2.356183,-0.000305,1.571281,0.785121,-1.159609,-2.489126,-0.924377,18.594866,0.842351,1.462884,-0.006736
0.079000,0.307043,0.000177,0.590218,0.307082,0.000318,0.590163,0.307042,0.000177,0.590218,-0.000039,-0.000141,0.000055,0.000156,0.000537,-0.784984,0.000105,-2.356138,-0.000280,1.571206,0.785156,0.000946,-0.784855,0.000149,-2.356185,-0.000305,1.571281,0.785114,-1.159609,-2.465322,-0.900573,18.618670,0.842351,1.462884,0.053689
0.080000,0.307043,0.000177,0.590218,0.307083,0.000320,0.590163,0.307042,0.000177,0.590218,-0.000040,-0.000143,0.000055,0.000159,0.000537,-0.784983,0.000105,-2.356138,-0.000280,1.571206,0.785156,0.000951,-0.784853,0.000152,-2.356183,-0.000305,1.571285,0.785121,-1.159609,-2.465322,-0.900573,18.594866,0.842351,1.456475,-0.006736
0.081000,0.307043,0.000177,0.590218,0.307083,0.000320,0.590163,0.307043,0.000177,0.590218,-0.000040,-0.000143,0.000054,0.000158,0.000537,-0.784982,0.000105,-2.356137,-0.000280,1.571207,0.785156,0.000951,-0.784852,0.000150,-2.356181,-0.000304,1.571283,0.785116,-1.108034,-2.465322,-0.900573,18.567095,0.835943,1.456475,0.033547
0.082000,0.307044,0.000177,0.590218,0.307083,0.000318,0.590162,0.307043,0.000177,0.590218,-0.000039,-0.000141,0.000056,0.000157,0.000537,-0.784981,0.000105,-2.356137,-0.000280,1.571207,0.785156,0.000953,-0.784853,0.000144,-2.356185,-0.000305,1.571283,0.785119,-1.084231,-2.413748,-0.825194,18.618670,0.842351,1.450067,0.013405
0.083000,0.307044,0.000177,0.590218,0.307084,0.000318,0.590163,0.307043,0.000177,0.590218,-0.000040,-0.000141,0.000055,0.000157,0.000537,-0.784980,0.000105,-2.356136,-0.000280,1.571207,0.785156,0.000956,-0.784850,0.000142,-2.356181,-0.000304,1.571283,0.785115,-1.084231,-2.413748,-0.797423,18.567095,0.835943,1.450067,0.046364
0.084000,0.307044,0.000177,0.590218,0.307083,0.000320,0.590162,0.307043,0.000177,0.590218,-0.000039,-0.000143,0.000056,0.000158,0.000537,-0.784980,0.000105,-2.356135,-0.000280,1.571208,0.785156,0.000956,-0.784853,0.000148,-2.356185,-0.000305,1.571283,0.785116,-1.032656,-2.362173,-0.876769,18.594866,0.847844,1.443658,0.033547
0.085000,0.307045,0.000177,0.590218,0.307083,0.000319,0.590162,0.307044,0.000177,0.590218,-0.000039,-0.000143,0.000055,0.000158,0.000537,-0.784979,0.000105,-2.356135,-0.000280,1.571208,0.785156,0.000956,-0.784852,0.000146,-2.356184,-0.000305,1.571283,0.785119,-0.985048,-2.362173,-0.825194,18.594866,0.847844,1.443658,0.006997
0.086000,0.307045,0.000177,0.590218,0.307083,0.000319,0.590163,0.307044,0.000177,0.590218,-0.000038,-0.000143,0.000055,0.000158,0.000537,-0.784978,0.000105,-2.356134,-0.000280,1.571209,0.785156,0.000957,-0.784852,0.000145,-2.356183,-0.000304,1.571283,0.785114,-0.961245,-2.362173,-0.797423,18.594866,0.835943,1.443658,0.053689
0.087000,0.307045,0.000177,0.590218,0.307083,0.000320,0.590163,0.307044,0.000177,0.590218,-0.000037,-0.000143,0.000055,0.000157,0.000537,-0.784977,0.000105,-2.356134,-0.000280,1.571209,0.785156,0.000959,-0.784854,0.000145,-2.356183,-0.000306,1.571282,0.785117,-0.961245,-2.338369,-0.797423,18.594866,0.859746,1.456475,0.027138
0.088000,0.307046,0.000177,0.590218,0.307083,0.000319,0.590165,0.307045,0.000177,0.590218,-0.000037,-0.000142,0.000053,0.000156,0.000537,-0.784975,0.000105,-2.356133,-0.000280,1.571210,0.785156,0.000961,-0.784854,0.000143,-2.356179,-0.000309,1.571283,0.785118,-0.985048,-2.338369,-0.797423,18.543291,0.854253,1.443658,-0.013145
0.089000,0.307046,0.000177,0.590218,0.307084,0.000319,0.590162,0.307045,0.000177,0.590218,-0.000038,-0.000142,0.000055,0.000157,0.000537,-0.784974,0.000105,-2.356133,-0.000280,1.571210,0.785156,0.000959,-0.784852,0.000143,-2.356185,-0.000307,1.571286,0.785109,-0.961245,-2.362173,-0.773620,18.618670,0.854253,1.443658,0.060097
0.090000,0.307046,0.000177,0.590218,0.307083,0.000320,0.590163,0.307045,0.000177,0.590218,-0.000037,-0.000143,0.000054,0.000157,0.000537,-0.784973,0.000105,-2.356132,-0.000280,1.571210,0.785156,0.000961,-0.784854,0.000144,-2.356183,-0.000305,1.571287,0.785114,-0.961245,-2.338369,-0.773620,18.594866,0.847844,1.450067,0.013405
0.091000,0.307047,0.000177,0.590218,0.307083,0.000316,0.590163,0.307046,0.000177,0.590218,-0.000037,-0.000139,0.000054,0.000154,0.000537,-0.784972,0.000105,-2.356131,-0.000280,1.571211,0.785156,0.000958,-0.784854,0.000136,-2.356183,-0.000306,1.571287,0.785116,-0.909670,-2.310598,-0.698241,18.594866,0.854253,1.450067,0.027138
0.092000,0.307047,0.000177,0.590218,0.307083,0.000316,0.590163,0.307046,0.000177,0.590218,-0.000036,-0.000139,0.000055,0.000154,0.000537,-0.784971,0.000105,-2.356131,-0.000280,1.571211,0.785156,0.000959,-0.784853,0.000136,-2.356183,-0.000305,1.571285,0.785113,-0.909670,-2.310598,-0.698241,18.594866,0.842351,1.469293,0.033547
0.093000,0.307047,0.000177,0.590218,0.307083,0.000317,0.590162,0.307046,0.000177,0.590218,-0.000036,-0.000140,0.000055,0.000155,0.000537,-0.784970,0.000105,-2.356130,-0.000280,1.571212,0.785156,0.000961,-0.784853,0.000137,-2.356185,-0.000309,1.571286,0.785117,-0.909670,-2.310598,-0.722045,18.618670,0.854253,1.456475,-0.013145
0.094000,0.307048,0.000177,0.590218,0.307083,0.000319,0.590165,0.307047,0.000177,0.590218,-0.000036,-0.000142,0.000053,0.000156,0.000537,-0.784969,0.000105,-2.356129,-0.000280,1.571212,0.785156,0.000965,-0.784853,0.000139,-2.356179,-0.000306,1.571286,0.785108,-0.961245,-2.338369,-0.722045,18.543291,0.847844,1.456475,0.066506
0.095000,0.307048,0.000177,0.590218,0.307083,0.000319,0.590163,0.307047,0.000177,0.590218,-0.000035,-0.000143,0.000054,0.000157,0.000537,-0.784968,0.000105,-2.356129,-0.000280,1.571213,0.785156,0.000965,-0.784853,0.000140,-2.356183,-0.000306,1.571287,0.785115,-0.961245,-2.310598,-0.722045,18.594866,0.854253,1.450067,0.000588
0.096000,0.307049,0.000177,0.590218,0.307084,0.000317,0.590164,0.307048,0.000177,0.590218,-0.000035,-0.000140,0.000053,0.000154,0.000537,-0.784966,0.000105,-2.356128,-0.000280,1.571214,0.785156,0.000958,-0.784853,0.000138,-2.356181,-0.000306,1.571287,0.785115,-0.885866,-2.310598,-0.698241,18.567095,0.854253,1.450067,0.000588
0.097000,0.307049,0.000177,0.590218,0.307083,0.000320,0.590165,0.307048,0.000177,0.590218,-0.000034,-0.000143,0.000053,0.000156,0.000537,-0.784965,0.000105,-2.356127,-0.000280,1.571214,0.785156,0.000963,-0.784853,0.000142,-2.356179,-0.000305,1.571286,0.785109,-0.933474,-2.338369,-0.773620,18.543291,0.847844,1.462884,0.060097
0.098000,0.307049,0.000177,0.590218,0.307084,0.000318,0.590164,0.307048,0.000177,0.590218,-0.000035,-0.000141,0.000054,0.000155,0.000537,-0.784964,0.000105,-2.356126,-0.000280,1.571215,0.785156,0.000960,-0.784851,0.000139,-2.356181,-0.000305,1.571289,0.785115,-0.885866,-2.338369,-0.749816,18.567095,0.842351,1.462884,0.006997
0.099000,0.307050,0.000177,0.590218,0.307083,0.000317,0.590165,0.307049,0.000177,0.590218,-0.000034,-0.000141,0.000053,0.000154,0.000537,-0.784962,0.000105,-2.356126,-0.000280,1.571215,0.785156,0.000962,-0.784854,0.000137,-2.356181,-0.000306,1.571290,0.785111,-0.909670,-2.286794,-0.722045,18.567095,0.854253,1.462884,0.039956
0.100000,0.307050,0.000177,0.590218,0.307083,0.000317,0.590165,0.307049,0.000177,0.590218,-0.000033,-0.000140,0.000053,0.000153,0.000537,-0.784961,0.000105,-2.356125,-0.000280,1.571216,0.785156,0.000962,-0.784855,0.000135,-2.356181,-0.000304,1.571291,0.785114,-0.909670,-2.310598,-0.698241,18.567095,0.835943,1.456475,0.013405
0.101000,0.307051,0.000177,0.590218,0.307084,0.000318,0.590165,0.307050,0.000177,0.590218,-0.000033,-0.000142,0.000053,0.000155,0.000537,-0.784960,0.000105,-2.356124,-0.000280,1.571216,0.785156,0.000965,-0.784854,0.000137,-2.356181,-0.000305,1.571291,0.785115,-0.961245,-2.338369,-0.722045,18.567095,0.847844,1.456475,0.000588
0.102000,0.307051,0.000177,0.590218,0.307084,0.000317,0.590163,0.307050,0.000177,0.590218,-0.000033,-0.000140,0.000055,0.000154,0.000537,-0.784958,0.000105,-2.356123,-0.000280,1.571217,0.785156,0.000964,-0.784852,0.000135,-2.356185,-0.000310,1.571294,0.785111,-0.933474,-2.362173,-0.698241,18.618670,0.859746,1.462884,0.039956
0.103000,0.307052,0.000177,0.590218,0.307084,0.000316,0.590165,0.307051,0.000177,0.590218,-0.000032,-0.000140,0.000052,0.000153,0.000537,-0.784957,0.000105,-2.356123,-0.000280,1.571218,0.785156,0.000964,-0.784854,0.000133,-2.356181,-0.000306,1.571295,0.785111,-0.909670,-2.338369,-0.670470,18.567095,0.847844,1.456475,0.039956
0.104000,0.307052,0.000177,0.590218,0.307083,0.000317,0.590166,0.307051,0.000177,0.590218,-0.000031,-0.000140,0.000052,0.000153,0.000537,-0.784955,0.000105,-2.356122,-0.000280,1.571218,0.785156,0.000965,-0.784856,0.000135,-2.356181,-0.000309,1.571294,0.785110,-0.909670,-2.310598,-0.698241,18.567095,0.854253,1.476617,0.046364
0.105000,0.307053,0.000177,0.590218,0.307084,0.000318,0.590164,0.307051,0.000177,0.590218,-0.000031,-0.000141,0.000053,0.000154,0.000537,-0.784954,0.000105,-2.356121,-0.000280,1.571219,0.785156,0.000967,-0.784854,0.000135,-2.356183,-0.000306,1.571295,0.785115,-0.933474,-2.338369,-0.698241,18.594866,0.842351,1.469293,0.006997
0.106000,0.307053,0.000177,0.590218,0.307085,0.000319,0.590165,0.307052,0.000177,0.590218,-0.000032,-0.000143,0.000053,0.000155,0.000537,-0.784952,0.000105,-2.356120,-0.000280,1.571219,0.785156,0.000969,-0.784852,0.000137,-2.356181,-0.000308,1.571298,0.785110,-0.961245,-2.362173,-0.698241,18.567095,0.842351,1.469293,0.046364
0.107000,0.307054,0.000177,0.590218,0.307084,0.000318,0.590164,0.307052,0.000177,0.590218,-0.000031,-0.000141,0.000053,0.000154,0.000537,-0.784951,0.000105,-2.356119,-0.000280,1.571220,0.785156,0.000967,-0.784854,0.000136,-2.356183,-0.000310,1.571296,0.785116,-0.909670,-2.338369,-0.698241,18.594866,0.847844,1.462884,-0.006736
0.108000,0.307054,0.000177,0.590218,0.307085,0.000316,0.590164,0.307053,0.000177,0.590218,-0.000030,-0.000139,0.000054,0.000152,0.000537,-0.784949,0.000105,-2.356118,-0.000280,1.571221,0.785156,0.000966,-0.784852,0.000132,-2.356183,-0.000309,1.571296,0.785111,-0.909670,-2.362173,-0.646667,18.594866,0.842351,1.456475,0.039956
0.109000,0.307055,0.000177,0.590218,0.307084,0.000319,0.590164,0.307053,0.000177,0.590218,-0.000029,-0.000142,0.000053,0.000154,0.000537,-0.784948,0.000105,-2.356117,-0.000280,1.571221,0.785156,0.000969,-0.784856,0.000135,-2.356185,-0.000306,1.571298,0.785111,-0.961245,-2.310598,-0.698241,18.618670,0.842351,1.436334,0.039956
0.110000,0.307055,0.000177,0.590218,0.307084,0.000318,0.590166,0.307054,0.000177,0.590218,-0.000029,-0.000142,0.000052,0.000153,0.000537,-0.784946,0.000105,-2.356116,-0.000280,1.571222,0.785156,0.000969,-0.784854,0.000135,-2.356179,-0.000310,1.571297,0.785118,-0.961245,-2.310598,-0.698241,18.543291,0.854253,1.443658,-0.019553
0.111000,0.307056,0.000177,0.590218,0.307085,0.000318,0.590165,0.307054,0.000177,0.590218,-0.000029,-0.000141,0.000053,0.000153,0.000537,-0.784944,0.000105,-2.356115,-0.000280,1.571223,0.785156,0.000969,-0.784851,0.000133,-2.356181,-0.000310,1.571297,0.785109,-0.933474,-2.362173,-0.670470,18.567095,0.854253,1.443658,0.060097
0.112000,0.307056,0.000177,0.590218,0.307084,0.000320,0.590166,0.307055,0.000177,0.590218,-0.000027,-0.000143,0.000052,0.000155,0.000537,-0.784943,0.000105,-2.356114,-0.000280,1.571224,0.785156,0.000972,-0.784856,0.000137,-2.356181,-0.000311,1.571296,0.785112,-0.961245,-2.310598,-0.722045,18.567095,0.854253,1.456475,0.033547
0.113000,0.307057,0.000177,0.590218,0.307084,0.000320,0.590164,0.307055,0.000177,0.590218,-0.000027,-0.000143,0.000053,0.000155,0.000537,-0.784941,0.000105,-2.356114,-0.000280,1.571224,0.785156,0.000973,-0.784854,0.000135,-2.356183,-0.000310,1.571297,0.785112,-0.985048,-2.338369,-0.698241,18.594866,0.847844,1.450067,0.000588
0.114000,0.307057,0.000177,0.590218,0.307085,0.000320,0.590164,0.307056,0.000177,0.590218,-0.000028,-0.000143,0.000054,0.000155,0.000537,-0.784939,0.000105,-2.356113,-0.000280,1.571225,0.785156,0.000972,-0.784850,0.000137,-2.356181,-0.000311,1.571296,0.785107,-0.961245,-2.362173,-0.722045,18.567095,0.854253,1.456475,0.039956
0.115000,0.307058,0.000177,0.590218,0.307085,0.000320,0.590165,0.307057,0.000177,0.590218,-0.000027,-0.000144,0.000052,0.000155,0.000537,-0.784937,0.000105,-2.356111,-0.000280,1.571226,0.785156,0.000975,-0.784851,0.000135,-2.356179,-0.000309,1.571297,0.785111,-1.008852,-2.362173,-0.698241,18.543291,0.835943,1.450067,0.000588
0.116000,0.307059,0.000177,0.590218,0.307084,0.000318,0.590167,0.307057,0.000177,0.590218,-0.000026,-0.000141,0.000051,0.000152,0.000537,-0.784936,0.000105,-2.356110,-0.000280,1.571227,0.785156,0.000970,-0.784854,0.000133,-2.356178,-0.000310,1.571295,0.785109,-0.933474,-2.338369,-0.670470,18.519487,0.847844,1.462884,0.039956
0.117000,0.307059,0.000177,0.590218,0.307085,0.000321,0.590165,0.307058,0.000177,0.590218,-0.000026,-0.000144,0.000053,0.000155,0.000537,-0.784934,0.000105,-2.356109,-0.000280,1.571227,0.785156,0.000976,-0.784854,0.000135,-2.356183,-0.000308,1.571301,0.785107,-0.985048,-2.310598,-0.698241,18.594866,0.859746,1.443658,0.039956
0.118000,0.307060,0.000177,0.590218,0.307085,0.000319,0.590165,0.307058,0.000177,0.590218,-0.000025,-0.000143,0.000053,0.000154,0.000537,-0.784932,0.000105,-2.356108,-0.000280,1.571228,0.785156,0.000974,-0.784851,0.000133,-2.356181,-0.000309,1.571298,0.785115,-0.985048,-2.362173,-0.670470,18.567095,0.847844,1.450067,-0.006736
0.119000,0.307060,0.000177,0.590218,0.307085,0.000319,0.590165,0.307059,0.000177,0.590218,-0.000024,-0.000142,0.000053,0.000153,0.000537,-0.784930,0.000105,-2.356107,-0.000280,1.571229,0.785156,0.000972,-0.784854,0.000133,-2.356183,-0.000309,1.571301,0.785106,-0.933474,-2.338369,-0.670470,18.594866,0.842351,1.443658,0.053689
0.120000,0.307061,0.000177,0.590218,0.307087,0.000321,0.590162,0.307059,0.000177,0.590218,-0.000025,-0.000144,0.000055,0.000156,0.000537,-0.784928,0.000105,-2.356106,-0.000280,1.571230,0.785156,0.000975,-0.784846,0.000137,-2.356183,-0.000311,1.571300,0.785105,-0.961245,-2.413748,-0.722045,18.594866,0.854253,1.462884,0.053689
0.121000,0.307062,0.000177,0.590218,0.307085,0.000321,0.590163,0.307060,0.000177,0.590218,-0.000024,-0.000144,0.000055,0.000156,0.000537,-0.784926,0.000105,-2.356105,-0.000280,1.571231,0.785156,0.000978,-0.784851,0.000135,-2.356185,-0.000311,1.571301,0.785108,-1.008852,-2.338369,-0.698241,18.618670,0.859746,1.456475,0.027138
0.122000,0.307062,0.000177,0.590218,0.307085,0.000321,0.590164,0.307061,0.000177,0.590218,-0.000023,-0.000144,0.000054,0.000155,0.000537,-0.784924,0.000105,-2.356104,-0.000280,1.571232,0.785156,0.000975,-0.784851,0.000135,-2.356183,-0.000306,1.571300,0.785105,-0.961245,-2.338369,-0.698241,18.594866,0.842351,1.462884,0.053689
0.123000,0.307063,0.000177,0.590218,0.307086,0.000321,0.590162,0.307061,0.000177,0.590218,-0.000023,-0.000145,0.000056,0.000157,0.000537,-0.784922,0.000105,-2.356103,-0.000280,1.571232,0.785156,0.000978,-0.784847,0.000135,-2.356185,-0.000309,1.571300,0.785105,-1.008852,-2.389944,-0.698241,18.618670,0.847844,1.462884,0.053689
0.124000,0.307064,0.000177,0.590218,0.307086,0.000323,0.590164,0.307062,0.000177,0.590218,-0.000023,-0.000146,0.000054,0.000158,0.000537,-0.784920,0.000105,-2.356102,-0.000280,1.571233,0.785156,0.000978,-0.784847,0.000139,-2.356181,-0.000306,1.571301,0.785108,-1.008852,-2.389944,-0.749816,18.567095,0.847844,1.456475,0.027138
0.125000,0.307064,0.000177,0.590218,0.307086,0.000322,0.590163,0.307063,0.000177,0.590218,-0.000022,-0.000145,0.000055,0.000157,0.000537,-0.784918,0.000105,-2.356100,-0.000280,1.571234,0.785156,0.000975,-0.784847,0.000139,-2.356183,-0.000309,1.571300,0.785112,-0.961245,-2.413748,-0.749816,18.594866,0.847844,1.462884,-0.013145
0.126000,0.307065,0.000177,0.590218,0.307087,0.000322,0.590164,0.307063,0.000177,0.590218,-0.000022,-0.000145,0.000054,0.000156,0.000537,-0.784916,0.000105,-2.356099,-0.000280,1.571235,0.785156,0.000980,-0.784848,0.000135,-2.356181,-0.000309,1.571303,0.785105,-1.032656,-2.389944,-0.698241,18.567095,0.842351,1.462884,0.053689
0.127000,0.307066,0.000177,0.590218,0.307087,0.000321,0.590163,0.307064,0.000177,0.590218,-0.000021,-0.000144,0.000055,0.000155,0.000537,-0.784914,0.000105,-2.356098,-0.000280,1.571236,0.785156,0.000975,-0.784847,0.000135,-2.356183,-0.000306,1.571304,0.785111,-0.961245,-2.389944,-0.698241,18.594866,0.842351,1.462884,0.000588
0.128000,0.307066,0.000177,0.590218,0.307086,0.000322,0.590163,0.307065,0.000177,0.590218,-0.000020,-0.000146,0.000054,0.000157,0.000537,-0.784911,0.000105,-2.356097,-0.000280,1.571237,0.785156,0.000978,-0.784849,0.000137,-2.356183,-0.000305,1.571303,0.785109,-1.008852,-2.362173,-0.722045,18.594866,0.842351,1.483026,0.013405
0.129000,0.307067,0.000177,0.590218,0.307087,0.000322,0.590162,0.307065,0.000177,0.590218,-0.000020,-0.000145,0.000056,0.000157,0.000537,-0.784909,0.000105,-2.356095,-0.000280,1.571238,0.785156,0.000977,-0.784845,0.000137,-2.356185,-0.000308,1.571303,0.785109,-0.985048,-2.413748,-0.722045,18.618670,0.842351,1.476617,0.039956
0.130000,0.307068,0.000177,0.590218,0.307087,0.000322,0.590162,0.307066,0.000177,0.590218,-0.000019,-0.000145,0.000055,0.000157,0.000537,-0.784907,0.000105,-2.356094,-0.000280,1.571239,0.785156,0.000977,-0.784847,0.000139,-2.356185,-0.000309,1.571304,0.785111,-0.985048,-2.389944,-0.749816,18.618670,0.847844,1.469293,0.006997
0.131000,0.307069,0.000177,0.590218,0.307086,0.000321,0.590164,0.307067,0.000177,0.590218,-0.000018,-0.000144,0.000053,0.000155,0.000537,-0.784905,0.000105,-2.356093,-0.000280,1.571240,0.785156,0.000973,-0.784849,0.000139,-2.356181,-0.000309,1.571304,0.785107,-0.933474,-2.362173,-0.749816,18.567095,0.842351,1.469293,0.033547
0.132000,0.307069,0.000177,0.590218,0.307088,0.000322,0.590162,0.307068,0.000177,0.590218,-0.000018,-0.000146,0.000056,0.000157,0.000537,-0.784902,0.000105,-2.356091,-0.000280,1.571241,0.785156,0.000977,-0.784844,0.000139,-2.356183,-0.000307,1.571304,0.785107,-0.985048,-2.437551,-0.749816,18.594866,0.854253,1.469293,0.033547
0.133000,0.307070,0.000177,0.590218,0.307087,0.000322,0.590162,0.307068,0.000177,0.590218,-0.000017,-0.000145,0.000056,0.000157,0.000537,-0.784900,0.000105,-2.356090,-0.000280,1.571242,0.785156,0.000979,-0.784847,0.000137,-2.356186,-0.000309,1.571307,0.785110,-0.985048,-2.389944,-0.722045,18.642473,0.847844,1.476617,0.006997
0.134000,0.307071,0.000177,0.590218,0.307087,0.000321,0.590165,0.307069,0.000177,0.590218,-0.000016,-0.000144,0.000053,0.000155,0.000537,-0.784898,0.000105,-2.356089,-0.000280,1.571243,0.785156,0.000976,-0.784849,0.000137,-2.356181,-0.000310,1.571309,0.785106,-0.933474,-2.362173,-0.722045,18.567095,0.847844,1.462884,0.039956
0.135000,0.307072,0.000177,0.590218,0.307087,0.000323,0.590162,0.307070,0.000177,0.590218,-0.000015,-0.000146,0.000055,0.000157,0.000537,-0.784895,0.000105,-2.356087,-0.000280,1.571244,0.785156,0.000978,-0.784849,0.000139,-2.356186,-0.000311,1.571310,0.785113,-0.961245,-2.362173,-0.749816,18.642473,0.854253,1.462884,-0.019553
0.136000,0.307073,0.000177,0.590218,0.307087,0.000322,0.590165,0.307071,0.000177,0.590218,-0.000014,-0.000146,0.000053,0.000155,0.000537,-0.784893,0.000105,-2.356086,-0.000280,1.571245,0.785156,0.000980,-0.784849,0.000137,-2.356181,-0.000311,1.571309,0.785109,-0.985048,-2.362173,-0.722045,18.567095,0.854253,1.469293,0.013405
0.137000,0.307073,0.000177,0.590218,0.307089,0.000324,0.590160,0.307071,0.000177,0.590218,-0.000016,-0.000147,0.000058,0.000159,0.000537,-0.784890,0.000105,-2.356085,-0.000280,1.571246,0.785156,0.000982,-0.784840,0.000139,-2.356186,-0.000311,1.571310,0.785106,-1.008852,-2.465322,-0.749816,18.642473,0.854253,1.462884,0.039956
0.138000,0.307074,0.000177,0.590218,0.307087,0.000323,0.590163,0.307072,0.000177,0.590218,-0.000013,-0.000147,0.000055,0.000157,0.000537,-0.784888,0.000105,-2.356083,-0.000280,1.571247,0.785156,0.000978,-0.784848,0.000141,-2.356185,-0.000310,1.571309,0.785110,-0.961245,-2.362173,-0.773620,18.618670,0.847844,1.469293,0.006997
0.139000,0.307075,0.000177,0.590218,0.307088,0.000321,0.590161,0.307073,0.000177,0.590218,-0.000013,-0.000145,0.000057,0.000156,0.000537,-0.784885,0.000105,-2.356082,-0.000280,1.571248,0.785156,0.000978,-0.784845,0.000135,-2.356186,-0.000309,1.571309,0.785106,-0.961245,-2.389944,-0.698241,18.642473,0.842351,1.469293,0.039956
0.140000,0.307076,0.000177,0.590218,0.307088,0.000321,0.590165,0.307074,0.000177,0.590218,-0.000012,-0.000144,0.000053,0.000154,0.000537,-0.784882,0.000105,-2.356080,-0.000280,1.571250,0.785156,0.000976,-0.784846,0.000137,-2.356179,-0.000311,1.571312,0.785106,-0.933474,-2.362173,-0.722045,18.543291,0.854253,1.469293,0.039956
0.141000,0.307077,0.000177,0.590218,0.307089,0.000320,0.590164,0.307075,0.000177,0.590218,-0.000012,-0.000143,0.000054,0.000153,0.000537,-0.784880,0.000105,-2.356079,-0.000280,1.571251,0.785156,0.000978,-0.784844,0.000132,-2.356181,-0.000309,1.571313,0.785110,-0.961245,-2.389944,-0.646667,18.567095,0.842351,1.469293,0.006997
0.142000,0.307078,0.000177,0.590218,0.307088,0.000323,0.590164,0.307075,0.000177,0.590218,-0.000011,-0.000146,0.000053,0.000156,0.000537,-0.784877,0.000105,-2.356077,-0.000280,1.571252,0.785156,0.000978,-0.784846,0.000139,-2.356181,-0.000311,1.571314,0.785105,-0.933474,-2.362173,-0.749816,18.567095,0.859746,1.469293,0.046364
0.143000,0.307079,0.000177,0.590218,0.307088,0.000323,0.590164,0.307076,0.000177,0.590218,-0.000009,-0.000146,0.000054,0.000156,0.000537,-0.784874,0.000105,-2.356075,-0.000280,1.571253,0.785156,0.000977,-0.784847,0.000141,-2.356183,-0.000311,1.571315,0.785111,-0.933474,-2.338369,-0.773620,18.594866,0.854253,1.456475,-0.006736
0.144000,0.307079,0.000177,0.590218,0.307088,0.000323,0.590164,0.307077,0.000177,0.590218,-0.000009,-0.000147,0.000053,0.000156,0.000537,-0.784872,0.000105,-2.356074,-0.000280,1.571254,0.785156,0.000981,-0.784846,0.000139,-2.356181,-0.000310,1.571314,0.785106,-0.961245,-2.362173,-0.749816,18.567095,0.847844,1.469293,0.039956
0.145000,0.307080,0.000177,0.590218,0.307089,0.000323,0.590163,0.307078,0.000177,0.590218,-0.000008,-0.000146,0.000055,0.000156,0.000537,-0.784869,0.000105,-2.356072,-0.000280,1.571255,0.785156,0.000981,-0.784844,0.000137,-2.356183,-0.000309,1.571315,0.785105,-0.961245,-2.389944,-0.722045,18.594866,0.842351,1.456475,0.053689
0.146000,0.307081,0.000177,0.590218,0.307089,0.000322,0.590164,0.307079,0.000177,0.590218,-0.000008,-0.000145,0.000054,0.000155,0.000537,-0.784866,0.000105,-2.356071,-0.000280,1.571257,0.785156,0.000981,-0.784844,0.000135,-2.356181,-0.000310,1.571317,0.785113,-0.961245,-2.389944,-0.698241,18.567095,0.847844,1.443658,-0.019553
0.147000,0.307082,0.000177,0.590218,0.307088,0.000324,0.590165,0.307080,0.000177,0.590218,-0.000006,-0.000147,0.000052,0.000156,0.000537,-0.784863,0.000105,-2.356069,-0.000280,1.571258,0.785156,0.000979,-0.784846,0.000141,-2.356179,-0.000311,1.571316,0.785111,-0.933474,-2.362173,-0.773620,18.543291,0.854253,1.450067,-0.006736
0.148000,0.307083,0.000177,0.590218,0.307089,0.000324,0.590162,0.307081,0.000177,0.590218,-0.000006,-0.000148,0.000055,0.000158,0.000537,-0.784860,0.000105,-2.356067,-0.000280,1.571259,0.785156,0.000979,-0.784844,0.000142,-2.356185,-0.000310,1.571315,0.785108,-0.933474,-2.389944,-0.797423,18.618670,0.847844,1.456475,0.019814
0.149000,0.307084,0.000177,0.590218,0.307088,0.000323,0.590164,0.307082,0.000177,0.590218,-0.000004,-0.000146,0.000053,0.000155,0.000537,-0.784857,0.000105,-2.356066,-0.000280,1.571260,0.785156,0.000983,-0.784845,0.000135,-2.356181,-0.000309,1.571315,0.785105,-0.985048,-2.338369,-0.698241,18.567095,0.842351,1.456475,0.046364
0.150000,0.307085,0.000177,0.590218,0.307088,0.000325,0.590165,0.307083,0.000177,0.590218,-0.000003,-0.000148,0.000053,0.000157,0.000537,-0.784854,0.000105,-2.356064,-0.000280,1.571262,0.785156,0.000984,-0.784847,0.000141,-2.356181,-0.000311,1.571315,0.785113,-0.961245,-2.338369,-0.773620,18.567095,0.854253,1.462884,-0.019553
0.151000,0.307086,0.000177,0.590218,0.307088,0.000325,0.590165,0.307084,0.000177,0.590218,-0.000002,-0.000148,0.000053,0.000158,0.000537,-0.784851,0.000105,-2.356062,-0.000280,1.571263,0.785156,0.000986,-0.784847,0.000139,-2.356181,-0.000309,1.571315,0.785105,-0.985048,-2.310598,-0.749816,18.567095,0.835943,1.456475,0.046364
0.152000,0.307087,0.000177,0.590218,0.307088,0.000323,0.590165,0.307085,0.000177,0.590218,-0.000001,-0.000146,0.000053,0.000156,0.000537,-0.784848,0.000105,-2.356061,-0.000280,1.571264,0.785156,0.000982,-0.784846,0.000137,-2.356181,-0.000310,1.571315,0.785105,-0.961245,-2.310598,-0.749816,18.567095,0.847844,1.462884,0.053689
0.153000,0.307088,0.000177,0.590218,0.307089,0.000325,0.590161,0.307086,0.000177,0.590218,-0.000001,-0.000148,0.000056,0.000159,0.000537,-0.784845,0.000105,-2.356059,-0.000280,1.571266,0.785156,0.000987,-0.784841,0.000138,-2.356185,-0.000311,1.571315,0.785111,-1.008852,-2.389944,-0.773620,18.618670,0.854253,1.462884,-0.006736
0.154000,0.307089,0.000177,0.590218,0.307088,0.000326,0.590164,0.307086,0.000177,0.590218,0.000001,-0.000149,0.000053,0.000158,0.000537,-0.784842,0.000105,-2.356057,-0.000280,1.571267,0.785156,0.000986,-0.784848,0.000141,-2.356183,-0.000310,1.571315,0.785105,-0.985048,-2.286794,-0.825194,18.594866,0.847844,1.462884,0.046364
0.155000,0.307090,0.000177,0.590218,0.307088,0.000325,0.590165,0.307087,0.000177,0.590218,0.000002,-0.000149,0.000053,0.000158,0.000537,-0.784839,0.000105,-2.356055,-0.000280,1.571268,0.785156,0.000986,-0.784846,0.000139,-2.356181,-0.000309,1.571317,0.785108,-0.985048,-2.310598,-0.797423,18.567095,0.835943,1.469293,0.019814
0.156000,0.307091,0.000177,0.590218,0.307089,0.000324,0.590165,0.307089,0.000177,0.590218,0.000003,-0.000147,0.000053,0.000156,0.000537,-0.784835,0.000105,-2.356053,-0.000280,1.571270,0.785156,0.000987,-0.784846,0.000136,-2.356181,-0.000310,1.571318,0.785111,-0.961245,-2.310598,-0.749816,18.567095,0.847844,1.469293,0.000588
0.157000,0.307092,0.000177,0.590218,0.307089,0.000324,0.590163,0.307090,0.000177,0.590218,0.000003,-0.000147,0.000054,0.000157,0.000537,-0.784832,0.000105,-2.356051,-0.000280,1.571271,0.785156,0.000987,-0.784844,0.000136,-2.356183,-0.000309,1.571319,0.785105,-0.985048,-2.338369,-0.749816,18.594866,0.842351,1.462884,0.046364
0.158000,0.307093,0.000177,0.590218,0.307089,0.000327,0.590165,0.307091,0.000177,0.590218,0.000005,-0.000150,0.000053,0.000159,0.000537,-0.784829,0.000105,-2.356050,-0.000280,1.571273,0.785156,0.000990,-0.784846,0.000140,-2.356181,-0.000309,1.571319,0.785109,-1.032656,-2.310598,-0.773620,18.567095,0.842351,1.469293,0.013405
0.159000,0.307094,0.000177,0.590218,0.307088,0.000326,0.590164,0.307092,0.000177,0.590218,0.000006,-0.000150,0.000054,0.000159,0.000537,-0.784825,0.000105,-2.356048,-0.000280,1.571274,0.785156,0.000986,-0.784848,0.000142,-2.356185,-0.000310,1.571318,0.785106,-0.985048,-2.286794,-0.797423,18.618670,0.847844,1.476617,0.039956
0.160000,0.307095,0.000177,0.590218,0.307088,0.000324,0.590165,0.307093,0.000177,0.590218,0.000007,-0.000147,0.000052,0.000157,0.000537,-0.784822,0.000105,-2.356046,-0.000280,1.571275,0.785156,0.000988,-0.784848,0.000135,-2.356181,-0.000309,1.571318,0.785102,-1.008852,-2.286794,-0.698241,18.567095,0.842351,1.476617,0.072915
0.161000,0.307097,0.000177,0.590218,0.307089,0.000327,0.590163,0.307094,0.000177,0.590218,0.000007,-0.000150,0.000055,0.000160,0.000537,-0.784819,0.000105,-2.356044,-0.000280,1.571277,0.785156,0.000988,-0.784844,0.000142,-2.356185,-0.000310,1.571322,0.785111,-0.985048,-2.310598,-0.797423,18.618670,0.847844,1.469293,-0.006736
0.162000,0.307098,0.000177,0.590218,0.307089,0.000327,0.590164,0.307095,0.000177,0.590218,0.000008,-0.000150,0.000053,0.000160,0.000537,-0.784815,0.000105,-2.356042,-0.000280,1.571278,0.785156,0.000993,-0.784846,0.000139,-2.356183,-0.000311,1.571324,0.785105,-1.032656,-2.310598,-0.749816,18.594866,0.854253,1.456475,0.053689
0.163000,0.307099,0.000177,0.590218,0.307089,0.000325,0.590164,0.307096,0.000177,0.590218,0.000010,-0.000149,0.000054,0.000158,0.000537,-0.784812,0.000105,-2.356040,-0.000280,1.571280,0.785156,0.000989,-0.784846,0.000137,-2.356185,-0.000309,1.571324,0.785109,-0.985048,-2.310598,-0.722045,18.618670,0.842351,1.462884,0.013405
0.164000,0.307100,0.000177,0.590218,0.307089,0.000327,0.590164,0.307097,0.000177,0.590218,0.000011,-0.000151,0.000054,0.000160,0.000537,-0.784808,0.000105,-2.356038,-0.000280,1.571281,0.785156,0.000991,-0.784844,0.000141,-2.356183,-0.000309,1.571323,0.785111,-1.008852,-2.338369,-0.773620,18.618670,0.842351,1.476617,0.000588
0.165000,0.307101,0.000177,0.590218,0.307088,0.000326,0.590166,0.307098,0.000177,0.590218,0.000013,-0.000149,0.000052,0.000158,0.000537,-0.784804,0.000105,-2.356036,-0.000280,1.571283,0.785156,0.000988,-0.784850,0.000139,-2.356182,-0.000309,1.571323,0.785111,-0.961245,-2.262991,-0.749816,18.594866,0.842351,1.476617,-0.006736
0.166000,0.307102,0.000177,0.590218,0.307090,0.000325,0.590163,0.307099,0.000177,0.590218,0.000012,-0.000148,0.000054,0.000158,0.000537,-0.784801,0.000105,-2.356034,-0.000280,1.571285,0.785156,0.000988,-0.784842,0.000137,-2.356183,-0.000310,1.571325,0.785109,-0.961245,-2.338369,-0.722045,18.594866,0.847844,1.483026,0.013405
0.167000,0.307104,0.000177,0.590218,0.307089,0.000326,0.590163,0.307101,0.000177,0.590218,0.000014,-0.000149,0.000055,0.000159,0.000537,-0.784797,0.000105,-2.356031,-0.000280,1.571286,0.785156,0.000990,-0.784846,0.000137,-2.356186,-0.000309,1.571325,0.785109,-0.961245,-2.310598,-0.722045,18.642473,0.842351,1.462884,0.013405
0.168000,0.307105,0.000177,0.590218,0.307089,0.000325,0.590163,0.307102,0.000177,0.590218,0.000015,-0.000148,0.000055,0.000159,0.000537,-0.784793,0.000105,-2.356029,-0.000280,1.571288,0.785156,0.000989,-0.784846,0.000137,-2.356186,-0.000309,1.571326,0.785106,-0.933474,-2.310598,-0.722045,18.642473,0.842351,1.476617,0.039956
0.169000,0.307106,0.000177,0.590218,0.307090,0.000326,0.590164,0.307103,0.000177,0.590218,0.000016,-0.000149,0.000054,0.000159,0.000537,-0.784790,0.000105,-2.356027,-0.000280,1.571289,0.785156,0.000991,-0.784844,0.000137,-2.356183,-0.000309,1.571327,0.785109,-0.961245,-2.310598,-0.722045,18.594866,0.842351,1.476617,-0.013145
0.170000,0.307107,0.000177,0.590218,0.307090,0.000327,0.590163,0.307104,0.000177,0.590218,0.000017,-0.000150,0.000055,0.000161,0.000537,-0.784786,0.000105,-2.356025,-0.000280,1.571291,0.785156,0.000991,-0.784843,0.000141,-2.356185,-0.000310,1.571327,0.785109,-0.961245,-2.310598,-0.773620,18.618670,0.847844,1.476617,0.000588
0.171000,0.307108,0.000177,0.590218,0.307090,0.000327,0.590164,0.307105,0.000177,0.590218,0.000018,-0.000150,0.000054,0.000161,0.000537,-0.784782,0.000105,-2.356023,-0.000280,1.571293,0.785156,0.000996,-0.784843,0.000137,-2.356183,-0.000311,1.571327,0.785104,-1.032656,-2.310598,-0.722045,18.594866,0.854253,1.476617,0.053689
0.172000,0.307110,0.000177,0.590218,0.307090,0.000324,0.590165,0.307107,0.000177,0.590218,0.000020,-0.000147,0.000052,0.000157,0.000537,-0.784778,0.000105,-2.356021,-0.000280,1.571294,0.785156,0.000986,-0.784845,0.000135,-2.356181,-0.000309,1.571329,0.785108,-0.885866,-2.286794,-0.698241,18.594866,0.835943,1.462884,0.019814
0.173000,0.307111,0.000177,0.590218,0.307091,0.000325,0.590163,0.307108,0.000177,0.590218,0.000020,-0.000148,0.000055,0.000159,0.000537,-0.784774,0.000105,-2.356018,-0.000280,1.571296,0.785156,0.000989,-0.784841,0.000135,-2.356184,-0.000309,1.571328,0.785109,-0.933474,-2.338369,-0.698241,18.618670,0.842351,1.469293,0.013405
0.174000,0.307112,0.000177,0.590218,0.307091,0.000323,0.590164,0.307109,0.000177,0.590218,0.000021,-0.000146,0.000053,0.000157,0.000537,-0.784770,0.000105,-2.356016,-0.000280,1.571298,0.785156,0.000986,-0.784841,0.000133,-2.356181,-0.000310,1.571328,0.785105,-0.885866,-2.338369,-0.670470,18.567095,0.847844,1.469293,0.046364
0.175000,0.307114,0.000177,0.590218,0.307090,0.000325,0.590164,0.307110,0.000177,0.590218,0.000024,-0.000148,0.000054,0.000159,0.000537,-0.784766,0.000105,-2.356014,-0.000280,1.571300,0.785156,0.000987,-0.784845,0.000137,-2.356185,-0.000311,1.571328,0.785112,-0.909670,-2.286794,-0.722045,18.618670,0.830449,1.469293,-0.013145
0.176000,0.307115,0.000177,0.590218,0.307090,0.000326,0.590164,0.307112,0.000177,0.590218,0.000025,-0.000149,0.000054,0.000160,0.000537,-0.784762,0.000105,-2.356011,-0.000280,1.571301,0.785156,0.000991,-0.784845,0.000137,-2.356185,-0.000310,1.571331,0.785106,-0.961245,-2.286794,-0.722045,18.618670,0.842351,1.469293,0.013405
0.177000,0.307116,0.000177,0.590218,0.307091,0.000324,0.590164,0.307113,0.000177,0.590218,0.000025,-0.000147,0.000054,0.000159,0.000537,-0.784758,0.000105,-2.356009,-0.000280,1.571303,0.785156,0.000991,-0.784841,0.000133,-2.356183,-0.000312,1.571333,0.785102,-0.933474,-2.338369,-0.698241,18.594866,0.859746,1.469293,0.039956
0.178000,0.307118,0.000177,0.590218,0.307091,0.000326,0.590164,0.307114,0.000177,0.590218,0.000026,-0.000150,0.000053,0.000161,0.000537,-0.784754,0.000105,-2.356007,-0.000280,1.571305,0.785156,0.000994,-0.784841,0.000136,-2.356181,-0.000310,1.571333,0.785111,-0.961245,-2.310598,-0.722045,18.567095,0.847844,1.469293,-0.013145
0.179000,0.307119,0.000177,0.590218,0.307093,0.000326,0.590162,0.307115,0.000177,0.590218,0.000026,-0.000149,0.000056,0.000162,0.000537,-0.784749,0.000105,-2.356004,-0.000280,1.571307,0.785156,0.000992,-0.784837,0.000137,-2.356185,-0.000310,1.571334,0.785103,-0.933474,-2.362173,-0.722045,18.618670,0.847844,1.462884,0.033547
0.180000,0.307120,0.000177,0.590218,0.307091,0.000326,0.590164,0.307117,0.000177,0.590218,0.000030,-0.000150,0.000054,0.000162,0.000537,-0.784745,0.000105,-2.356002,-0.000280,1.571309,0.785156,0.000992,-0.784844,0.000137,-2.356185,-0.000309,1.571334,0.785107,-0.933474,-2.286794,-0.722045,18.618670,0.835943,1.462884,0.019814
0.181000,0.307122,0.000177,0.590218,0.307092,0.000326,0.590163,0.307118,0.000177,0.590218,0.000029,-0.000149,0.000054,0.000162,0.000537,-0.784741,0.000105,-2.355999,-0.000280,1.571310,0.785156,0.000994,-0.784837,0.000135,-2.356181,-0.000310,1.571332,0.785110,-0.961245,-2.362173,-0.698241,18.567095,0.847844,1.476617,0.000588
0.182000,0.307123,0.000177,0.590218,0.307092,0.000327,0.590163,0.307120,0.000177,0.590218,0.000031,-0.000150,0.000055,0.000163,0.000537,-0.784736,0.000105,-2.355997,-0.000280,1.571312,0.785156,0.000994,-0.784838,0.000137,-2.356183,-0.000309,1.571332,0.785107,-0.961245,-2.338369,-0.722045,18.594866,0.842351,1.476617,0.033547
0.183000,0.307125,0.000177,0.590218,0.307092,0.000326,0.590164,0.307121,0.000177,0.590218,0.000032,-0.000149,0.000053,0.000161,0.000537,-0.784732,0.000105,-2.355994,-0.000280,1.571314,0.785156,0.000991,-0.784840,0.000137,-2.356181,-0.000310,1.571336,0.785112,-0.909670,-2.310598,-0.722045,18.567095,0.847844,1.469293,-0.013145
0.184000,0.307126,0.000177,0.590218,0.307093,0.000328,0.590164,0.307122,0.000177,0.590218,0.000033,-0.000151,0.000053,0.000163,0.000537,-0.784728,0.000105,-2.355992,-0.000280,1.571316,0.785156,0.000994,-0.784836,0.000139,-2.356179,-0.000309,1.571337,0.785108,-0.961245,-2.362173,-0.749816,18.543291,0.842351,1.469293,0.019814
0.185000,0.307127,0.000177,0.590218,0.307093,0.000327,0.590163,0.307124,0.000177,0.590218,0.000034,-0.000150,0.000055,0.000164,0.000537,-0.784723,0.000105,-2.355989,-0.000280,1.571318,0.785156,0.000992,-0.784836,0.000139,-2.356183,-0.000309,1.571338,0.785107,-0.933474,-2.362173,-0.749816,18.594866,0.842351,1.462884,0.033547
0.186000,0.307129,0.000177,0.590218,0.307093,0.000326,0.590163,0.307125,0.000177,0.590218,0.000036,-0.000149,0.000055,0.000163,0.000537,-0.784719,0.000105,-2.355987,-0.000280,1.571320,0.785156,0.000992,-0.784838,0.000137,-2.356183,-0.000311,1.571336,0.785112,-0.933474,-2.338369,-0.722045,18.594866,0.854253,1.483026,-0.013145
0.187000,0.307130,0.000177,0.590218,0.307093,0.000326,0.590163,0.307127,0.000177,0.590218,0.000038,-0.000149,0.000055,0.000163,0.000537,-0.784714,0.000105,-2.355984,-0.000280,1.571322,0.785156,0.000994,-0.784838,0.000135,-2.356183,-0.000310,1.571337,0.785101,-0.961245,-2.338369,-0.698241,18.594866,0.847844,1.476617,0.053689
0.188000,0.307132,0.000177,0.590218,0.307092,0.000326,0.590165,0.307128,0.000177,0.590218,0.000040,-0.000149,0.000053,0.000163,0.000537,-0.784709,0.000105,-2.355981,-0.000280,1.571324,0.785156,0.000990,-0.784841,0.000137,-2.356181,-0.000309,1.571338,0.785105,-0.933474,-2.286794,-0.722045,18.567095,0.835943,1.469293,0.013405
0.189000,0.307133,0.000177,0.590218,0.307093,0.000325,0.590164,0.307130,0.000177,0.590218,0.000041,-0.000149,0.000054,0.000163,0.000537,-0.784705,0.000105,-2.355979,-0.000280,1.571326,0.785156,0.000990,-0.784838,0.000137,-2.356181,-0.000310,1.571338,0.785107,-0.909670,-2.338369,-0.722045,18.567095,0.847844,1.469293,-0.013145
0.190000,0.307135,0.000177,0.590218,0.307092,0.000326,0.590163,0.307131,0.000177,0.590218,0.000043,-0.000149,0.000055,0.000165,0.000537,-0.784700,0.000105,-2.355976,-0.000280,1.571328,0.785156,0.000992,-0.784840,0.000137,-2.356185,-0.000309,1.571337,0.785107,-0.933474,-2.310598,-0.722045,18.618670,0.835943,1.476617,-0.013145
0.191000,0.307136,0.000177,0.590218,0.307092,0.000327,0.590164,0.307133,0.000177,0.590218,0.000044,-0.000150,0.000054,0.000165,0.000537,-0.784695,0.000105,-2.355973,-0.000280,1.571330,0.785156,0.000994,-0.784840,0.000137,-2.356183,-0.000310,1.571338,0.785108,-0.985048,-2.310598,-0.722045,18.594866,0.847844,1.469293,0.013405
0.192000,0.307138,0.000177,0.590218,0.307093,0.000327,0.590163,0.307134,0.000177,0.590218,0.000045,-0.000150,0.000054,0.000166,0.000537,-0.784690,0.000105,-2.355970,-0.000280,1.571332,0.785156,0.000995,-0.784838,0.000135,-2.356183,-0.000309,1.571339,0.785107,-0.985048,-2.310598,-0.698241,18.594866,0.842351,1.456475,0.000588
0.193000,0.307140,0.000177,0.590218,0.307094,0.000328,0.590163,0.307136,0.000177,0.590218,0.000046,-0.000151,0.000055,0.000167,0.000537,-0.784685,0.000105,-2.355968,-0.000280,1.571334,0.785156,0.000996,-0.784833,0.000139,-2.356181,-0.000309,1.571339,0.785110,-0.985048,-2.362173,-0.749816,18.594866,0.842351,1.462884,-0.006736
0.194000,0.307141,0.000177,0.590218,0.307094,0.000328,0.590161,0.307137,0.000177,0.590218,0.000048,-0.000151,0.000057,0.000168,0.000537,-0.784680,0.000105,-2.355965,-0.000280,1.571336,0.785156,0.000994,-0.784835,0.000139,-2.356186,-0.000309,1.571339,0.785102,-0.961245,-2.310598,-0.749816,18.642473,0.842351,1.462884,0.046364
0.195000,0.307143,0.000177,0.590218,0.307092,0.000325,0.590164,0.307139,0.000177,0.590218,0.000051,-0.000149,0.000054,0.000166,0.000537,-0.784675,0.000105,-2.355962,-0.000280,1.571338,0.785156,0.000994,-0.784839,0.000133,-2.356183,-0.000310,1.571337,0.785108,-0.961245,-2.262991,-0.670470,18.594866,0.847844,1.476617,-0.013145
0.196000,0.307144,0.000177,0.590218,0.307094,0.000326,0.590162,0.307140,0.000177,0.590218,0.000050,-0.000149,0.000055,0.000167,0.000537,-0.784670,0.000105,-2.355959,-0.000280,1.571341,0.785156,0.000994,-0.784834,0.000135,-2.356183,-0.000311,1.571341,0.785104,-0.933474,-2.310598,-0.698241,18.594866,0.854253,1.469293,0.013405
0.197000,0.307146,0.000177,0.590218,0.307094,0.000329,0.590160,0.307142,0.000177,0.590218,0.000052,-0.000152,0.000057,0.000171,0.000537,-0.784665,0.000105,-2.355956,-0.000280,1.571343,0.785156,0.000998,-0.784832,0.000139,-2.356185,-0.000309,1.571338,0.785106,-1.008852,-2.310598,-0.749816,18.618670,0.842351,1.476617,0.027138
0.198000,0.307148,0.000177,0.590218,0.307094,0.000328,0.590161,0.307144,0.000177,0.590218,0.000053,-0.000151,0.000057,0.000170,0.000537,-0.784660,0.000105,-2.355953,-0.000280,1.571345,0.785156,0.000998,-0.784832,0.000137,-2.356185,-0.000309,1.571339,0.785109,-0.985048,-2.286794,-0.722045,18.618670,0.842351,1.462884,0.006997
0.199000,0.307149,0.000177,0.590218,0.307094,0.000326,0.590161,0.307145,0.000177,0.590218,0.000055,-0.000150,0.000057,0.000169,0.000537,-0.784655,0.000105,-2.355950,-0.000280,1.571347,0.785156,0.000995,-0.784832,0.000135,-2.356185,-0.000311,1.571338,0.785103,-0.933474,-2.286794,-0.698241,18.618670,0.854253,1.469293,0.033547
0.200000,0.307151,0.000177,0.590218,0.307094,0.000328,0.590161,0.307147,0.000177,0.590218,0.000057,-0.000151,0.000056,0.000171,0.000537,-0.784650,0.000105,-2.355947,-0.000280,1.571349,0.785156,0.000997,-0.784834,0.000138,-2.356184,-0.000310,1.571337,0.785103,-0.985048,-2.262991,-0.773620,18.642473,0.847844,1.476617,0.027138
0.201000,0.307153,0.000177,0.590218,0.307094,0.000329,0.590161,0.307148,0.000177,0.590218,0.000058,-0.000152,0.000057,0.000173,0.000537,-0.784645,0.000105,-2.355944,-0.000280,1.571352,0.785156,0.000998,-0.784832,0.000140,-2.356184,-0.000310,1.571340,0.785107,-0.985048,-2.286794,-0.773620,18.618670,0.847844,1.476617,-0.006736
0.202000,0.307154,0.000177,0.590218,0.307095,0.000329,0.590162,0.307150,0.000177,0.590218,0.000060,-0.000152,0.000056,0.000173,0.000537,-0.784639,0.000105,-2.355941,-0.000280,1.571354,0.785156,0.000999,-0.784832,0.000139,-2.356183,-0.000309,1.571341,0.785099,-0.985048,-2.286794,-0.749816,18.594866,0.842351,1.476617,0.060097
0.203000,0.307156,0.000177,0.590218,0.307095,0.000331,0.590161,0.307152,0.000177,0.590218,0.000061,-0.000154,0.000056,0.000175,0.000537,-0.784634,0.000105,-2.355938,-0.000280,1.571356,0.785156,0.001001,-0.784830,0.000142,-2.356182,-0.000309,1.571341,0.785108,-1.008852,-2.310598,-0.797423,18.618670,0.842351,1.483026,-0.019553
0.204000,0.307158,0.000177,0.590218,0.307095,0.000330,0.590162,0.307154,0.000177,0.590218,0.000063,-0.000153,0.000056,0.000175,0.000537,-0.784628,0.000105,-2.355935,-0.000280,1.571359,0.785156,0.001002,-0.784832,0.000139,-2.356182,-0.000310,1.571342,0.785106,-1.032656,-2.286794,-0.749816,18.594866,0.847844,1.476617,0.000588
0.205000,0.307160,0.000177,0.590218,0.307095,0.000330,0.590161,0.307155,0.000177,0.590218,0.000064,-0.000153,0.000056,0.000176,0.000537,-0.784623,0.000105,-2.355932,-0.000280,1.571361,0.785156,0.001000,-0.784830,0.000141,-2.356183,-0.000310,1.571343,0.785103,-0.961245,-2.286794,-0.749816,18.594866,0.847844,1.462884,0.027138
0.206000,0.307162,0.000177,0.590218,0.307095,0.000331,0.590163,0.307157,0.000177,0.590218,0.000067,-0.000155,0.000055,0.000177,0.000537,-0.784617,0.000105,-2.355929,-0.000280,1.571363,0.785156,0.001001,-0.784834,0.000143,-2.356183,-0.000311,1.571346,0.785106,-1.008852,-2.211416,-0.797423,18.594866,0.854253,1.469293,0.000588
0.207000,0.307163,0.000177,0.590218,0.307096,0.000332,0.590162,0.307159,0.000177,0.590218,0.000068,-0.000155,0.000056,0.000178,0.000537,-0.784612,0.000105,-2.355926,-0.000280,1.571366,0.785156,0.000999,-0.784829,0.000144,-2.356181,-0.000309,1.571343,0.785102,-0.985048,-2.286794,-0.825194,18.594866,0.835943,1.476617,0.033547
0.208000,0.307165,0.000177,0.590218,0.307096,0.000328,0.590162,0.307161,0.000177,0.590218,0.000069,-0.000152,0.000055,0.000176,0.000537,-0.784606,0.000105,-2.355922,-0.000280,1.571368,0.785156,0.000999,-0.784829,0.000137,-2.356180,-0.000310,1.571345,0.785105,-0.985048,-2.286794,-0.722045,18.567095,0.847844,1.476617,0.006997
0.209000,0.307167,0.000177,0.590218,0.307096,0.000328,0.590160,0.307162,0.000177,0.590218,0.000071,-0.000151,0.000057,0.000176,0.000537,-0.784600,0.000105,-2.355919,-0.000280,1.571371,0.785156,0.000997,-0.784828,0.000137,-2.356185,-0.000310,1.571348,0.785107,-0.961245,-2.262991,-0.722045,18.618670,0.847844,1.462884,-0.006736
0.210000,0.307169,0.000177,0.590218,0.307096,0.000328,0.590161,0.307164,0.000177,0.590218,0.000072,-0.000151,0.000057,0.000177,0.000537,-0.784595,0.000105,-2.355916,-0.000280,1.571373,0.785156,0.000997,-0.784828,0.000137,-2.356183,-0.000309,1.571346,0.785103,-0.961245,-2.262991,-0.722045,18.594866,0.842351,1.476617,0.053689
0.211000,0.307171,0.000177,0.590218,0.307097,0.000328,0.590159,0.307166,0.000177,0.590218,0.000073,-0.000151,0.000059,0.000178,0.000537,-0.784589,0.000105,-2.355913,-0.000280,1.571376,0.785156,0.000999,-0.784824,0.000137,-2.356185,-0.000310,1.571347,0.785102,-0.985048,-2.310598,-0.749816,18.618670,0.847844,1.469293,0.046364
0.212000,0.307173,0.000177,0.590218,0.307096,0.000330,0.590162,0.307168,0.000177,0.590218,0.000076,-0.000153,0.000056,0.000180,0.000537,-0.784583,0.000105,-2.355909,-0.000280,1.571378,0.785156,0.001001,-0.784829,0.000140,-2.356183,-0.000310,1.571348,0.785109,-0.985048,-2.235220,-0.773620,18.618670,0.847844,1.462884,-0.025962
0.213000,0.307174,0.000177,0.590218,0.307097,0.000329,0.590158,0.307170,0.000177,0.590218,0.000077,-0.000152,0.000059,0.000180,0.000537,-0.784577,0.000105,-2.355906,-0.000280,1.571381,0.785156,0.000998,-0.784823,0.000139,-2.356186,-0.000310,1.571347,0.785106,-0.961245,-2.286794,-0.749816,18.642473,0.847844,1.476617,0.000588
0.214000,0.307176,0.000177,0.590218,0.307098,0.000329,0.590158,0.307171,0.000177,0.590218,0.000079,-0.000153,0.000059,0.000182,0.000537,-0.784571,0.000105,-2.355903,-0.000280,1.571383,0.785156,0.000998,-0.784822,0.000140,-2.356185,-0.000309,1.571347,0.785107,-0.961245,-2.262991,-0.773620,18.618670,0.842351,1.469293,-0.006736
0.215000,0.307178,0.000177,0.590218,0.307097,0.000329,0.590161,0.307173,0.000177,0.590218,0.000081,-0.000152,0.000056,0.000181,0.000537,-0.784565,0.000105,-2.355899,-0.000280,1.571386,0.785156,0.001000,-0.784825,0.000137,-2.356181,-0.000309,1.571351,0.785107,-0.961245,-2.211416,-0.722045,18.594866,0.842351,1.469293,-0.006736
0.216000,0.307180,0.000177,0.590218,0.307099,0.000329,0.590159,0.307175,0.000177,0.590218,0.000082,-0.000153,0.000059,0.000183,0.000537,-0.784559,0.000105,-2.355896,-0.000280,1.571388,0.785156,0.000998,-0.784821,0.000141,-2.356184,-0.000310,1.571352,0.785107,-0.961245,-2.262991,-0.773620,18.618670,0.847844,1.469293,-0.006736
0.217000,0.307182,0.000177,0.590218,0.307099,0.000330,0.590159,0.307177,0.000177,0.590218,0.000083,-0.000153,0.000059,0.000184,0.000537,-0.784553,0.000105,-2.355892,-0.000280,1.571391,0.785156,0.001001,-0.784819,0.000139,-2.356182,-0.000309,1.571351,0.785101,-0.985048,-2.262991,-0.749816,18.618670,0.835943,1.476617,0.046364
0.218000,0.307184,0.000177,0.590218,0.307100,0.000330,0.590158,0.307179,0.000177,0.590218,0.000084,-0.000153,0.000060,0.000185,0.000537,-0.784547,0.000105,-2.355889,-0.000280,1.571394,0.785156,0.001000,-0.784816,0.000141,-2.356182,-0.000309,1.571352,0.785107,-0.961245,-2.262991,-0.773620,18.594866,0.842351,1.469293,-0.013145
0.219000,0.307186,0.000177,0.590218,0.307100,0.000330,0.590156,0.307181,0.000177,0.590218,0.000087,-0.000154,0.000061,0.000187,0.000537,-0.784541,0.000105,-2.355885,-0.000280,1.571396,0.785156,0.001001,-0.784816,0.000142,-2.356186,-0.000314,1.571351,0.785101,-0.961245,-2.211416,-0.797423,18.642473,0.854253,1.476617,0.039956
0.220000,0.307188,0.000177,0.590218,0.307099,0.000329,0.590158,0.307183,0.000177,0.590218,0.000089,-0.000152,0.000059,0.000186,0.000537,-0.784534,0.000105,-2.355882,-0.000280,1.571399,0.785156,0.000999,-0.784819,0.000139,-2.356183,-0.000314,1.571351,0.785101,-0.933474,-2.159841,-0.722045,18.594866,0.847844,1.483026,0.039956
0.221000,0.307190,0.000177,0.590218,0.307101,0.000329,0.590158,0.307185,0.000177,0.590218,0.000090,-0.000153,0.000060,0.000187,0.000537,-0.784528,0.000105,-2.355878,-0.000280,1.571402,0.785156,0.001002,-0.784813,0.000138,-2.356181,-0.000311,1.571351,0.785106,-0.985048,-2.183645,-0.722045,18.594866,0.847844,1.476617,0.000588
0.222000,0.307192,0.000177,0.590218,0.307101,0.000330,0.590157,0.307187,0.000177,0.590218,0.000091,-0.000154,0.000060,0.000189,0.000537,-0.784522,0.000105,-2.355874,-0.000280,1.571404,0.785156,0.001003,-0.784811,0.000139,-2.356180,-0.000309,1.571351,0.785102,-0.961245,-2.183645,-0.749816,18.567095,0.835943,1.476617,0.033547
0.223000,0.307194,0.000177,0.590218,0.307103,0.000330,0.590156,0.307189,0.000177,0.590218,0.000092,-0.000153,0.000061,0.000189,0.000537,-0.784515,0.000105,-2.355871,-0.000280,1.571407,0.785156,0.000999,-0.784807,0.000141,-2.356181,-0.000309,1.571355,0.785107,-0.933474,-2.211416,-0.773620,18.594866,0.842351,1.469293,-0.006736
0.224000,0.307196,0.000177,0.590218,0.307102,0.000330,0.590159,0.307191,0.000177,0.590218,0.000095,-0.000153,0.000059,0.000189,0.000537,-0.784509,0.000105,-2.355867,-0.000280,1.571410,0.785156,0.001001,-0.784811,0.000139,-2.356178,-0.000310,1.571356,0.785104,-0.961245,-2.108267,-0.749816,18.567095,0.847844,1.476617,0.019814
0.225000,0.307199,0.000177,0.590218,0.307103,0.000330,0.590158,0.307193,0.000177,0.590218,0.000096,-0.000153,0.000059,0.000190,0.000537,-0.784502,0.000105,-2.355863,-0.000280,1.571413,0.785156,0.001001,-0.784806,0.000139,-2.356176,-0.000310,1.571356,0.785104,-0.961245,-2.132070,-0.749816,18.543291,0.847844,1.476617,0.013405
0.226000,0.307201,0.000177,0.590218,0.307103,0.000331,0.590156,0.307195,0.000177,0.590218,0.000097,-0.000154,0.000062,0.000192,0.000537,-0.784496,0.000105,-2.355859,-0.000280,1.571416,0.785156,0.001002,-0.784804,0.000141,-2.356180,-0.000309,1.571355,0.785108,-0.985048,-2.108267,-0.773620,18.594866,0.842351,1.483026,-0.019553
0.227000,0.307203,0.000177,0.590218,0.307104,0.000328,0.590157,0.307197,0.000177,0.590218,0.000099,-0.000151,0.000061,0.000191,0.000537,-0.784489,0.000105,-2.355856,-0.000280,1.571418,0.785156,0.000999,-0.784803,0.000137,-2.356178,-0.000309,1.571357,0.785101,-0.933474,-2.084463,-0.722045,18.567095,0.842351,1.469293,0.046364
0.228000,0.307205,0.000177,0.590218,0.307104,0.000327,0.590155,0.307199,0.000177,0.590218,0.000101,-0.000150,0.000062,0.000191,0.000537,-0.784482,0.000105,-2.355852,-0.000280,1.571421,0.785156,0.000997,-0.784802,0.000135,-2.356180,-0.000310,1.571359,0.785101,-0.909670,-2.056692,-0.698241,18.594866,0.847844,1.476617,0.039956
0.229000,0.307207,0.000177,0.590218,0.307105,0.000330,0.590157,0.307202,0.000177,0.590218,0.000102,-0.000153,0.000061,0.000194,0.000537,-0.784476,0.000105,-2.355848,-0.000280,1.571424,0.785156,0.001003,-0.784800,0.000139,-2.356176,-0.000310,1.571359,0.785107,-0.961245,-2.032888,-0.749816,18.543291,0.847844,1.489434,-0.006736
0.230000,0.307209,0.000177,0.590218,0.307107,0.000329,0.590155,0.307204,0.000177,0.590218,0.000102,-0.000152,0.000063,0.000194,0.000537,-0.784469,0.000105,-2.355844,-0.000280,1.571427,0.785156,0.001003,-0.784793,0.000135,-2.356176,-0.000310,1.571362,0.785100,-0.961245,-2.084463,-0.722045,18.543291,0.847844,1.469293,0.053689
0.231000,0.307212,0.000177,0.590218,0.307108,0.000331,0.590153,0.307206,0.000177,0.590218,0.000104,-0.000154,0.000065,0.000197,0.000537,-0.784462,0.000105,-2.355840,-0.000280,1.571430,0.785156,0.001007,-0.784788,0.000136,-2.356176,-0.000309,1.571357,0.785103,-1.008852,-2.108267,-0.722045,18.543291,0.835943,1.483026,0.027138
0.232000,0.307214,0.000177,0.590218,0.307109,0.000330,0.590152,0.307208,0.000177,0.590218,0.000105,-0.000153,0.000066,0.000197,0.000537,-0.784455,0.000105,-2.355836,-0.000280,1.571433,0.785156,0.001004,-0.784785,0.000139,-2.356176,-0.000312,1.571358,0.785105,-0.961245,-2.108267,-0.749816,18.543291,0.835943,1.489434,0.006997
0.233000,0.307216,0.000177,0.590218,0.307109,0.000329,0.590149,0.307210,0.000177,0.590218,0.000107,-0.000152,0.000068,0.000198,0.000537,-0.784448,0.000105,-2.355832,-0.000280,1.571436,0.785156,0.001002,-0.784784,0.000137,-2.356181,-0.000309,1.571361,0.785101,-0.933474,-2.084463,-0.722045,18.618670,0.830449,1.469293,0.046364
0.234000,0.307218,0.000177,0.590218,0.307109,0.000331,0.590151,0.307213,0.000177,0.590218,0.000109,-0.000154,0.000066,0.000200,0.000537,-0.784441,0.000105,-2.355828,-0.000280,1.571439,0.785156,0.001005,-0.784784,0.000139,-2.356178,-0.000311,1.571362,0.785102,-0.985048,-2.032888,-0.722045,18.567095,0.854253,1.469293,0.033547
0.235000,0.307221,0.000177,0.590218,0.307110,0.000329,0.590149,0.307215,0.000177,0.590218,0.000110,-0.000153,0.000068,0.000200,0.000537,-0.784434,0.000105,-2.355824,-0.000280,1.571442,0.785156,0.001002,-0.784781,0.000138,-2.356180,-0.000310,1.571363,0.785100,-0.933474,-2.032888,-0.722045,18.594866,0.847844,1.456475,0.053689
0.236000,0.307223,0.000177,0.590218,0.307112,0.000331,0.590149,0.307217,0.000177,0.590218,0.000111,-0.000154,0.000069,0.000202,0.000537,-0.784427,0.000105,-2.355820,-0.000280,1.571445,0.785156,0.001004,-0.784774,0.000139,-2.356176,-0.000309,1.571362,0.785103,-0.961245,-2.084463,-0.749816,18.543291,0.842351,1.469293,0.027138
0.237000,0.307225,0.000177,0.590218,0.307113,0.000332,0.590147,0.307219,0.000177,0.590218,0.000113,-0.000155,0.000070,0.000204,0.000537,-0.784419,0.000105,-2.355816,-0.000280,1.571448,0.785156,0.001007,-0.784771,0.000139,-2.356178,-0.000310,1.571362,0.785102,-1.008852,-2.084463,-0.749816,18.567095,0.847844,1.462884,0.033547
0.238000,0.307228,0.000177,0.590218,0.307114,0.000331,0.590146,0.307222,0.000177,0.590218,0.000114,-0.000154,0.000071,0.000204,0.000537,-0.784412,0.000105,-2.355812,-0.000280,1.571451,0.785156,0.001004,-0.784768,0.000139,-2.356178,-0.000310,1.571363,0.785106,-0.961245,-2.084463,-0.749816,18.567095,0.847844,1.456475,0.000588
0.239000,0.307230,0.000177,0.590218,0.307115,0.000332,0.590145,0.307224,0.000177,0.590218,0.000115,-0.000155,0.000072,0.000206,0.000537,-0.784405,0.000105,-2.355808,-0.000280,1.571455,0.785156,0.001005,-0.784763,0.000141,-2.356176,-0.000309,1.571362,0.785099,-0.985048,-2.108267,-0.773620,18.543291,0.842351,1.469293,0.060097
0.240000,0.307232,0.000177,0.590218,0.307116,0.000332,0.590145,0.307226,0.000177,0.590218,0.000116,-0.000155,0.000073,0.000207,0.000537,-0.784397,0.000105,-2.355803,-0.000280,1.571458,0.785156,0.001007,-0.784760,0.000139,-2.356176,-0.000309,1.571364,0.785100,-1.008852,-2.108267,-0.749816,18.567095,0.842351,1.450067,0.019814
0.241000,0.307235,0.000177,0.590218,0.307117,0.000331,0.590143,0.307229,0.000177,0.590218,0.000118,-0.000154,0.000074,0.000208,0.000537,-0.784390,0.000105,-2.355799,-0.000280,1.571461,0.785156,0.001006,-0.784755,0.000139,-2.356175,-0.000309,1.571362,0.785105,-0.961245,-2.132070,-0.749816,18.567095,0.842351,1.469293,-0.006736
0.242000,0.307237,0.000177,0.590218,0.307117,0.000330,0.590143,0.307231,0.000177,0.590218,0.000120,-0.000153,0.000074,0.000208,0.000537,-0.784382,0.000105,-2.355795,-0.000280,1.571464,0.785156,0.001006,-0.784753,0.000135,-2.356175,-0.000310,1.571362,0.785099,-0.985048,-2.108267,-0.698241,18.567095,0.847844,1.462884,0.053689
0.243000,0.307240,0.000177,0.590218,0.307119,0.000330,0.590141,0.307233,0.000177,0.590218,0.000121,-0.000154,0.000077,0.000210,0.000537,-0.784375,0.000105,-2.355790,-0.000280,1.571467,0.785156,0.001008,-0.784748,0.000135,-2.356177,-0.000310,1.571363,0.785103,-0.985048,-2.132070,-0.698241,18.567095,0.847844,1.456475,0.027138
0.244000,0.307242,0.000177,0.590218,0.307121,0.000332,0.590140,0.307236,0.000177,0.590218,0.000121,-0.000155,0.000078,0.000212,0.000537,-0.784367,0.000105,-2.355786,-0.000280,1.571471,0.785156,0.001005,-0.784742,0.000141,-2.356175,-0.000310,1.571366,0.785106,-0.933474,-2.183645,-0.773620,18.567095,0.847844,1.462884,0.000588
0.245000,0.307244,0.000177,0.590218,0.307121,0.000331,0.590139,0.307238,0.000177,0.590218,0.000123,-0.000154,0.000078,0.000212,0.000536,-0.784360,0.000105,-2.355782,-0.000280,1.571474,0.785156,0.001005,-0.784740,0.000139,-2.356175,-0.000309,1.571367,0.785103,-0.961245,-2.159841,-0.722045,18.567095,0.842351,1.462884,0.027138
0.246000,0.307247,0.000177,0.590218,0.307123,0.000332,0.590138,0.307241,0.000177,0.590218,0.000124,-0.000155,0.000079,0.000214,0.000536,-0.784352,0.000105,-2.355777,-0.000280,1.571477,0.785156,0.001006,-0.784735,0.000141,-2.356175,-0.000311,1.571368,0.785105,-0.985048,-2.183645,-0.773620,18.567095,0.854253,1.456475,0.006997
0.247000,0.307249,0.000177,0.590218,0.307124,0.000330,0.590135,0.307243,0.000177,0.590218,0.000125,-0.000153,0.000083,0.000215,0.000536,-0.784344,0.000105,-2.355773,-0.000280,1.571481,0.785156,0.001004,-0.784728,0.000137,-2.356177,-0.000309,1.571366,0.785099,-0.933474,-2.235220,-0.722045,18.594866,0.842351,1.476617,0.060097
0.248000,0.307252,0.000177,0.590218,0.307126,0.000332,0.590134,0.307246,0.000177,0.590218,0.000126,-0.000155,0.000084,0.000217,0.000536,-0.784336,0.000105,-2.355768,-0.000280,1.571484,0.785156,0.001007,-0.784723,0.000139,-2.356177,-0.000309,1.571371,0.785106,-0.961245,-2.262991,-0.749816,18.594866,0.835943,1.456475,0.000588
0.249000,0.307255,0.000177,0.590218,0.307127,0.000331,0.590132,0.307248,0.000177,0.590218,0.000128,-0.000154,0.000085,0.000217,0.000536,-0.784328,0.000105,-2.355764,-0.000280,1.571488,0.785156,0.001007,-0.784719,0.000137,-2.356177,-0.000310,1.571369,0.785104,-0.961245,-2.310598,-0.722045,18.594866,0.847844,1.483026,0.013405
0.251000,0.307260,0.000177,0.590218,0.307129,0.000330,0.590132,0.307253,0.000177,0.590218,0.000131,-0.000153,0.000086,0.000219,0.000536,-0.784312,0.000105,-2.355755,-0.000280,1.571494,0.785156,0.001005,-0.784712,0.000137,-2.356173,-0.000313,1.571369,0.785104,-0.933474,-2.338369,-0.722045,18.543291,0.835943,1.483026,0.013405
0.252000,0.307262,0.000177,0.590218,0.307129,0.000331,0.590131,0.307256,0.000177,0.590218,0.000134,-0.000154,0.000087,0.000222,0.000536,-0.784304,0.000105,-2.355750,-0.000280,1.571498,0.785156,0.001009,-0.784712,0.000137,-2.356177,-0.000311,1.571371,0.785104,-0.985048,-2.310598,-0.722045,18.594866,0.842351,1.469293,0.019814
0.253000,0.307265,0.000177,0.590218,0.307129,0.000331,0.590129,0.307258,0.000177,0.590218,0.000136,-0.000154,0.000088,0.000223,0.000536,-0.784296,0.000105,-2.355745,-0.000280,1.571501,0.785156,0.001007,-0.784710,0.000137,-2.356177,-0.000310,1.571369,0.785103,-0.933474,-2.286794,-0.722045,18.594866,0.847844,1.489434,0.027138
0.254000,0.307268,0.000177,0.590218,0.307131,0.000331,0.590128,0.307261,0.000177,0.590218,0.000137,-0.000154,0.000090,0.000225,0.000536,-0.784288,0.000105,-2.355741,-0.000280,1.571505,0.785156,0.001008,-0.784704,0.000137,-2.356177,-0.000309,1.571370,0.785107,-0.933474,-2.338369,-0.722045,18.594866,0.842351,1.483026,-0.006736
0.255000,0.307270,0.000177,0.590218,0.307132,0.000333,0.590126,0.307263,0.000177,0.590218,0.000139,-0.000156,0.000092,0.000228,0.000536,-0.784279,0.000105,-2.355736,-0.000280,1.571508,0.785156,0.001010,-0.784702,0.000141,-2.356180,-0.000310,1.571373,0.785101,-0.961245,-2.338369,-0.773620,18.642473,0.847844,1.483026,0.046364
0.256000,0.307273,0.000177,0.590218,0.307133,0.000331,0.590126,0.307266,0.000177,0.590218,0.000140,-0.000155,0.000092,0.000228,0.000536,-0.784271,0.000105,-2.355731,-0.000280,1.571512,0.785156,0.001007,-0.784697,0.000139,-2.356177,-0.000310,1.571373,0.785104,-0.909670,-2.362173,-0.749816,18.594866,0.847844,1.489434,0.013405
0.257000,0.307276,0.000177,0.590218,0.307135,0.000332,0.590123,0.307269,0.000177,0.590218,0.000141,-0.000155,0.000094,0.000230,0.000536,-0.784263,0.000105,-2.355726,-0.000280,1.571516,0.785156,0.001008,-0.784690,0.000141,-2.356178,-0.000313,1.571374,0.785104,-0.961245,-2.413748,-0.773620,18.618670,0.847844,1.483026,0.013405
0.258000,0.307278,0.000177,0.590218,0.307137,0.000332,0.590120,0.307271,0.000177,0.590218,0.000142,-0.000155,0.000098,0.000231,0.000536,-0.784254,0.000105,-2.355721,-0.000280,1.571519,0.785156,0.001007,-0.784682,0.000139,-2.356180,-0.000311,1.571373,0.785103,-0.961245,-2.489126,-0.749816,18.642473,0.847844,1.495843,0.027138
0.259000,0.307281,0.000177,0.590218,0.307136,0.000331,0.590120,0.307274,0.000177,0.590218,0.000145,-0.000154,0.000098,0.000233,0.000536,-0.784246,0.000105,-2.355717,-0.000280,1.571523,0.785156,0.001013,-0.784684,0.000133,-2.356182,-0.000310,1.571373,0.785107,-1.008852,-2.437551,-0.670470,18.670244,0.842351,1.495843,-0.013145
0.260000,0.307284,0.000177,0.590218,0.307138,0.000332,0.590119,0.307277,0.000177,0.590218,0.000146,-0.000155,0.000099,0.000235,0.000536,-0.784237,0.000105,-2.355712,-0.000280,1.571527,0.785156,0.001010,-0.784678,0.000137,-2.356180,-0.000310,1.571373,0.785104,-0.961245,-2.489126,-0.722045,18.642473,0.847844,1.495843,0.019814
0.261000,0.307287,0.000177,0.590218,0.307138,0.000331,0.590118,0.307279,0.000177,0.590218,0.000148,-0.000154,0.000100,0.000236,0.000536,-0.784228,0.000105,-2.355707,-0.000280,1.571530,0.785156,0.001006,-0.784675,0.000137,-2.356180,-0.000310,1.571374,0.785103,-0.909670,-2.489126,-0.722045,18.642473,0.847844,1.489434,0.027138
0.262000,0.307289,0.000177,0.590218,0.307139,0.000331,0.590115,0.307282,0.000177,0.590218,0.000150,-0.000154,0.000102,0.000238,0.000536,-0.784220,0.000105,-2.355702,-0.000280,1.571534,0.785156,0.001010,-0.784672,0.000135,-2.356184,-0.000311,1.571376,0.785105,-0.961245,-2.489126,-0.698241,18.694048,0.854253,1.495843,0.006997
0.263000,0.307292,0.000177,0.590218,0.307140,0.000332,0.590118,0.307285,0.000177,0.590218,0.000152,-0.000155,0.000100,0.000239,0.000536,-0.784211,0.000105,-2.355697,-0.000280,1.571538,0.785156,0.001007,-0.784671,0.000139,-2.356178,-0.000309,1.571378,0.785105,-0.909670,-2.465322,-0.749816,18.618670,0.842351,1.489434,0.006997
0.264000,0.307295,0.000177,0.590218,0.307140,0.000330,0.590116,0.307288,0.000177,0.590218,0.000155,-0.000154,0.000102,0.000241,0.000536,-0.784202,0.000105,-2.355692,-0.000280,1.571542,0.785156,0.001008,-0.784670,0.000135,-2.356182,-0.000311,1.571379,0.785101,-0.933474,-2.437551,-0.698241,18.670244,0.859746,1.483026,0.039956
0.265000,0.307298,0.000177,0.590218,0.307141,0.000330,0.590115,0.307291,0.000177,0.590218,0.000157,-0.000153,0.000103,0.000242,0.000536,-0.784193,0.000105,-2.355687,-0.000280,1.571545,0.785156,0.001008,-0.784667,0.000133,-2.356182,-0.000311,1.571378,0.785104,-0.933474,-2.389944,-0.670470,18.670244,0.854253,1.495843,0.013405
0.266000,0.307301,0.000177,0.590218,0.307142,0.000331,0.590113,0.307293,0.000177,0.590218,0.000158,-0.000154,0.000104,0.000245,0.000536,-0.784184,0.000105,-2.355682,-0.000280,1.571549,0.785156,0.001010,-0.784662,0.000135,-2.356182,-0.000310,1.571379,0.785105,-0.961245,-2.413748,-0.698241,18.670244,0.847844,1.489434,0.006997
0.267000,0.307304,0.000177,0.590218,0.307143,0.000332,0.590112,0.307296,0.000177,0.590218,0.000160,-0.000155,0.000106,0.000247,0.000536,-0.784175,0.000105,-2.355676,-0.000280,1.571553,0.785156,0.001010,-0.784658,0.000137,-2.356182,-0.000311,1.571377,0.785099,-0.961245,-2.389944,-0.722045,18.670244,0.859746,1.502252,0.060097
0.268000,0.307307,0.000177,0.590218,0.307144,0.000333,0.590111,0.307299,0.000177,0.590218,0.000162,-0.000156,0.000107,0.000249,0.000536,-0.784166,0.000105,-2.355671,-0.000280,1.571557,0.785156,0.001012,-0.784654,0.000139,-2.356182,-0.000311,1.571377,0.785106,-0.961245,-2.362173,-0.749816,18.670244,0.854253,1.502252,0.000588
0.269000,0.307310,0.000177,0.590218,0.307146,0.000331,0.590109,0.307302,0.000177,0.590218,0.000164,-0.000154,0.000108,0.000250,0.000536,-0.784157,0.000105,-2.355666,-0.000280,1.571561,0.785156,0.001011,-0.784649,0.000135,-2.356182,-0.000311,1.571378,0.785104,-0.961245,-2.338369,-0.698241,18.670244,0.854253,1.495843,0.013405
0.270000,0.307313,0.000177,0.590218,0.307148,0.000331,0.590107,0.307305,0.000177,0.590218,0.000164,-0.000154,0.000111,0.000251,0.000536,-0.784147,0.000105,-2.355661,-0.000280,1.571565,0.785156,0.001012,-0.784641,0.000133,-2.356182,-0.000309,1.571381,0.785104,-0.985048,-2.338369,-0.698241,18.670244,0.842351,1.495843,0.013405
0.271000,0.307315,0.000177,0.590218,0.307149,0.000331,0.590107,0.307308,0.000177,0.590218,0.000167,-0.000154,0.000111,0.000253,0.000536,-0.784138,0.000105,-2.355655,-0.000280,1.571569,0.785156,0.001014,-0.784639,0.000132,-2.356182,-0.000311,1.571383,0.785103,-0.985048,-2.262991,-0.698241,18.670244,0.854253,1.489434,0.027138
0.272000,0.307318,0.000177,0.590218,0.307151,0.000331,0.590103,0.307311,0.000177,0.590218,0.000168,-0.000154,0.000115,0.000255,0.000536,-0.784129,0.000105,-2.355650,-0.000280,1.571573,0.785156,0.001013,-0.784630,0.000132,-2.356184,-0.000311,1.571381,0.785101,-0.961245,-2.262991,-0.698241,18.694048,0.854253,1.509576,0.039956
0.273000,0.307322,0.000177,0.590218,0.307153,0.000332,0.590103,0.307314,0.000177,0.590218,0.000169,-0.000155,0.000115,0.000256,0.000536,-0.784119,0.000105,-2.355645,-0.000280,1.571577,0.785156,0.001013,-0.784623,0.000136,-2.356180,-0.000314,1.571385,0.785106,-0.985048,-2.286794,-0.749816,18.642473,0.854253,1.502252,0.000588
0.274000,0.307325,0.000177,0.590218,0.307153,0.000330,0.590102,0.307317,0.000177,0.590218,0.000172,-0.000153,0.000116,0.000258,0.000536,-0.784110,0.000105,-2.355639,-0.000280,1.571581,0.785156,0.001011,-0.784625,0.000132,-2.356184,-0.000314,1.571386,0.785105,-0.933474,-2.183645,-0.698241,18.694048,0.842351,1.502252,0.006997
0.275000,0.307328,0.000177,0.590218,0.307155,0.000331,0.590102,0.307320,0.000177,0.590218,0.000173,-0.000154,0.000116,0.000259,0.000536,-0.784100,0.000105,-2.355634,-0.000280,1.571585,0.785156,0.001013,-0.784619,0.000132,-2.356180,-0.000312,1.571387,0.785098,-0.961245,-2.183645,-0.698241,18.642473,0.854253,1.495843,0.066506
0.276000,0.307331,0.000177,0.590218,0.307155,0.000330,0.590103,0.307323,0.000177,0.590218,0.000175,-0.000153,0.000114,0.000260,0.000536,-0.784091,0.000105,-2.355628,-0.000280,1.571589,0.785156,0.001011,-0.784616,0.000132,-2.356174,-0.000310,1.571388,0.785107,-0.933474,-2.132070,-0.670470,18.594866,0.847844,1.495843,-0.006736
0.277000,0.307334,0.000177,0.590218,0.307157,0.000331,0.590101,0.307326,0.000177,0.590218,0.000177,-0.000154,0.000116,0.000262,0.000536,-0.784081,0.000105,-2.355623,-0.000280,1.571594,0.785156,0.001013,-0.784611,0.000133,-2.356176,-0.000310,1.571388,0.785099,-0.961245,-2.108267,-0.670470,18.594866,0.847844,1.489434,0.033547
0.278000,0.307337,0.000177,0.590218,0.307158,0.000333,0.590101,0.307329,0.000177,0.590218,0.000179,-0.000156,0.000117,0.000264,0.000536,-0.784071,0.000105,-2.355617,-0.000280,1.571598,0.785156,0.001013,-0.784606,0.000137,-2.356174,-0.000313,1.571391,0.785100,-0.961245,-2.084463,-0.698241,18.594866,0.847844,1.495843,0.013405
0.279000,0.307340,0.000177,0.590218,0.307159,0.000333,0.590099,0.307332,0.000177,0.590218,0.000181,-0.000156,0.000118,0.000267,0.000536,-0.784062,0.000105,-2.355612,-0.000280,1.571602,0.785156,0.001011,-0.784602,0.000140,-2.356175,-0.000312,1.571393,0.785100,-0.933474,-2.084463,-0.722045,18.618670,0.854253,1.489434,0.039956
0.280000,0.307343,0.000177,0.590218,0.307161,0.000334,0.590099,0.307335,0.000177,0.590218,0.000182,-0.000157,0.000119,0.000268,0.000536,-0.784052,0.000105,-2.355606,-0.000280,1.571606,0.785156,0.001015,-0.784597,0.000138,-2.356173,-0.000309,1.571394,0.785107,-0.985048,-2.108267,-0.722045,18.594866,0.835943,1.483026,-0.013145
0.281000,0.307346,0.000177,0.590218,0.307163,0.000331,0.590097,0.307338,0.000177,0.590218,0.000184,-0.000154,0.000120,0.000268,0.000536,-0.784042,0.000105,-2.355600,-0.000280,1.571610,0.785156,0.001008,-0.784590,0.000137,-2.356171,-0.000311,1.571393,0.785106,-0.885866,-2.132070,-0.722045,18.567095,0.854253,1.489434,-0.006736
0.282000,0.307350,0.000177,0.590218,0.307164,0.000334,0.590096,0.307341,0.000177,0.590218,0.000186,-0.000157,0.000121,0.000272,0.000536,-0.784032,0.000105,-2.355595,-0.000280,1.571615,0.785156,0.001013,-0.784586,0.000139,-2.356171,-0.000311,1.571395,0.785104,-0.961245,-2.132070,-0.722045,18.567095,0.854253,1.476617,0.013405
0.283000,0.307353,0.000177,0.590218,0.307165,0.000332,0.590096,0.307345,0.000177,0.590218,0.000188,-0.000155,0.000122,0.000272,0.000536,-0.784022,0.000105,-2.355589,-0.000280,1.571619,0.785156,0.001011,-0.784582,0.000136,-2.356170,-0.000309,1.571396,0.785097,-0.933474,-2.132070,-0.698241,18.543291,0.842351,1.462884,0.053689
0.284000,0.307356,0.000177,0.590218,0.307166,0.000332,0.590094,0.307348,0.000177,0.590218,0.000190,-0.000155,0.000123,0.000274,0.000536,-0.784011,0.000105,-2.355583,-0.000280,1.571623,0.785155,0.001010,-0.784577,0.000137,-2.356170,-0.000310,1.571395,0.785101,-0.885866,-2.159841,-0.722045,18.543291,0.847844,1.469293,0.033547
0.285000,0.307359,0.000177,0.590218,0.307167,0.000331,0.590095,0.307351,0.000177,0.590218,0.000192,-0.000155,0.000122,0.000275,0.000536,-0.784001,0.000105,-2.355577,-0.000280,1.571628,0.785155,0.001012,-0.784574,0.000135,-2.356166,-0.000314,1.571396,0.785105,-0.933474,-2.159841,-0.698241,18.519487,0.854253,1.462884,0.006997
0.286000,0.307363,0.000177,0.590218,0.307168,0.000331,0.590096,0.307354,0.000177,0.590218,0.000195,-0.000155,0.000122,0.000277,0.000536,-0.783991,0.000105,-2.355571,-0.000280,1.571632,0.785155,0.001012,-0.784571,0.000135,-2.356163,-0.000311,1.571396,0.785101,-0.933474,-2.159841,-0.698241,18.491716,0.847844,1.489434,0.039956
0.287000,0.307366,0.000177,0.590218,0.307170,0.000332,0.590094,0.307358,0.000177,0.590218,0.000196,-0.000156,0.000124,0.000279,0.000536,-0.783981,0.000105,-2.355565,-0.000280,1.571637,0.785155,0.001012,-0.784564,0.000137,-2.356163,-0.000309,1.571396,0.785101,-0.933474,-2.211416,-0.722045,18.491716,0.835943,1.476617,0.013405
0.288000,0.307369,0.000177,0.590218,0.307171,0.000334,0.590090,0.307361,0.000177,0.590218,0.000199,-0.000157,0.000127,0.000283,0.000536,-0.783970,0.000105,-2.355559,-0.000280,1.571641,0.785155,0.001012,-0.784561,0.000141,-2.356168,-0.000309,1.571397,0.785102,-0.909670,-2.211416,-0.773620,18.567095,0.842351,1.483026,-0.006736
0.289000,0.307373,0.000177,0.590218,0.307172,0.000333,0.590088,0.307364,0.000177,0.590218,0.000201,-0.000156,0.000129,0.000285,0.000536,-0.783960,0.000105,-2.355553,-0.000280,1.571646,0.785155,0.001013,-0.784558,0.000137,-2.356170,-0.000310,1.571399,0.785099,-0.909670,-2.211416,-0.722045,18.567095,0.847844,1.476617,0.046364
0.290000,0.307376,0.000177,0.590218,0.307173,0.000333,0.590089,0.307367,0.000177,0.590218,0.000203,-0.000156,0.000129,0.000287,0.000536,-0.783949,0.000105,-2.355547,-0.000280,1.571650,0.785155,0.001015,-0.784553,0.000137,-2.356167,-0.000309,1.571400,0.785107,-0.933474,-2.235220,-0.722045,18.543291,0.842351,1.469293,-0.013145
0.291000,0.307380,0.000177,0.590218,0.307174,0.000334,0.590088,0.307371,0.000177,0.590218,0.000205,-0.000157,0.000130,0.000289,0.000536,-0.783939,0.000105,-2.355541,-0.000280,1.571655,0.785155,0.001015,-0.784548,0.000139,-2.356165,-0.000311,1.571399,0.785103,-0.933474,-2.262991,-0.749816,18.519487,0.854253,1.476617,0.027138
0.292000,0.307383,0.000177,0.590218,0.307175,0.000335,0.590087,0.307374,0.000177,0.590218,0.000208,-0.000158,0.000131,0.000292,0.000536,-0.783928,0.000105,-2.355535,-0.000280,1.571659,0.785155,0.001015,-0.784546,0.000141,-2.356166,-0.000309,1.571402,0.785101,-0.933474,-2.235220,-0.773620,18.543291,0.842351,1.476617,0.046364
0.293000,0.307386,0.000177,0.590218,0.307177,0.000334,0.590084,0.307378,0.000177,0.590218,0.000209,-0.000157,0.000133,0.000294,0.000536,-0.783917,0.000105,-2.355529,-0.000280,1.571664,0.785155,0.001015,-0.784539,0.000141,-2.356168,-0.000313,1.571404,0.785103,-0.933474,-2.262991,-0.773620,18.567095,0.847844,1.476617,0.000588
0.294000,0.307390,0.000177,0.590218,0.307178,0.000334,0.590081,0.307381,0.000177,0.590218,0.000212,-0.000157,0.000136,0.000297,0.000536,-0.783906,0.000105,-2.355523,-0.000280,1.571668,0.785155,0.001017,-0.784535,0.000139,-2.356172,-0.000314,1.571403,0.785099,-0.961245,-2.262991,-0.749816,18.618670,0.847844,1.483026,0.027138
0.295000,0.307393,0.000177,0.590218,0.307178,0.000334,0.590083,0.307384,0.000177,0.590218,0.000215,-0.000157,0.000134,0.000298,0.000536,-0.783895,0.000105,-2.355517,-0.000280,1.571673,0.785155,0.001017,-0.784534,0.000139,-2.356166,-0.000315,1.571403,0.785100,-0.961245,-2.235220,-0.749816,18.543291,0.854253,1.483026,0.006997
0.296000,0.307397,0.000177,0.590218,0.307180,0.000332,0.590080,0.307388,0.000177,0.590218,0.000217,-0.000155,0.000138,0.000301,0.000536,-0.783884,0.000105,-2.355510,-0.000280,1.571678,0.785155,0.001013,-0.784528,0.000137,-2.356170,-0.000312,1.571403,0.785105,-0.933474,-2.235220,-0.749816,18.594866,0.854253,1.489434,-0.006736
0.297000,0.307400,0.000177,0.590218,0.307182,0.000333,0.590079,0.307391,0.000177,0.590218,0.000218,-0.000157,0.000139,0.000303,0.000536,-0.783873,0.000105,-2.355504,-0.000280,1.571683,0.785155,0.001014,-0.784520,0.000138,-2.356168,-0.000310,1.571406,0.785096,-0.933474,-2.262991,-0.749816,18.594866,0.842351,1.489434,0.053689
0.298000,0.307404,0.000177,0.590218,0.307184,0.000334,0.590076,0.307395,0.000177,0.590218,0.000220,-0.000157,0.000141,0.000305,0.000536,-0.783862,0.000105,-2.355498,-0.000280,1.571687,0.785155,0.001018,-0.784514,0.000137,-2.356169,-0.000310,1.571407,0.785106,-0.985048,-2.262991,-0.722045,18.618670,0.847844,1.489434,-0.013145
0.299000,0.307408,0.000177,0.590218,0.307185,0.000335,0.590075,0.307398,0.000177,0.590218,0.000223,-0.000159,0.000143,0.000308,0.000536,-0.783851,0.000105,-2.355491,-0.000280,1.571692,0.785155,0.001018,-0.784510,0.000140,-2.356169,-0.000313,1.571407,0.785105,-0.985048,-2.235220,-0.773620,18.618670,0.847844,1.495843,0.006997
0.300000,0.307411,0.000177,0.590218,0.307186,0.000338,0.590073,0.307402,0.000177,0.590218,0.000225,-0.000161,0.000144,0.000312,0.000536,-0.783840,0.000105,-2.355485,-0.000280,1.571697,0.785155,0.001020,-0.784503,0.000144,-2.356169,-0.000310,1.571406,0.785100,-0.985048,-2.262991,-0.825194,18.618670,0.835943,1.502252,0.046364
0.301000,0.307415,0.000177,0.590218,0.307188,0.000335,0.590072,0.307405,0.000177,0.590218,0.000227,-0.000159,0.000146,0.000313,0.000536,-0.783829,0.000105,-2.355479,-0.000280,1.571702,0.785155,0.001017,-0.784500,0.000141,-2.356170,-0.000312,1.571409,0.785097,-0.961245,-2.235220,-0.749816,18.642473,0.859746,1.502252,0.046364
0.302000,0.307418,0.000177,0.590218,0.307189,0.000335,0.590070,0.307409,0.000177,0.590218,0.000229,-0.000159,0.000148,0.000315,0.000536,-0.783817,0.000105,-2.355472,-0.000280,1.571707,0.785155,0.001019,-0.784493,0.000140,-2.356170,-0.000311,1.571410,0.785104,-0.961245,-2.235220,-0.749816,18.642473,0.859746,1.502252,0.006997
0.303000,0.307422,0.000177,0.590218,0.307191,0.000337,0.590067,0.307413,0.000177,0.590218,0.000231,-0.000160,0.000151,0.000319,0.000536,-0.783806,0.000105,-2.355466,-0.000280,1.571712,0.785155,0.001019,-0.784487,0.000142,-2.356172,-0.000309,1.571408,0.785105,-0.985048,-2.262991,-0.797423,18.670244,0.835943,1.495843,0.000588
0.304000,0.307426,0.000177,0.590218,0.307192,0.000336,0.590067,0.307416,0.000177,0.590218,0.000234,-0.000159,0.000150,0.000321,0.000536,-0.783794,0.000105,-2.355459,-0.000280,1.571716,0.785155,0.001019,-0.784484,0.000141,-2.356169,-0.000310,1.571407,0.785105,-0.985048,-2.262991,-0.773620,18.618670,0.847844,1.495843,0.006997
0.305000,0.307429,0.000177,0.590218,0.307194,0.000335,0.590065,0.307420,0.000177,0.590218,0.000236,-0.000158,0.000152,0.000322,0.000536,-0.783783,0.000105,-2.355452,-0.000280,1.571721,0.785155,0.001018,-0.784475,0.000139,-2.356167,-0.000313,1.571407,0.785105,-0.985048,-2.338369,-0.749816,18.594866,0.842351,1.495843,0.006997
0.306000,0.307433,0.000177,0.590218,0.307194,0.000335,0.590064,0.307424,0.000177,0.590218,0.000239,-0.000158,0.000154,0.000325,0.000536,-0.783771,0.000105,-2.355446,-0.000280,1.571726,0.785155,0.001017,-0.784476,0.000141,-2.356172,-0.000316,1.571413,0.785104,-0.961245,-2.286794,-0.773620,18.670244,0.859746,1.495843,0.013405
0.307000,0.307437,0.000177,0.590218,0.307195,0.000335,0.590062,0.307427,0.000177,0.590218,0.000241,-0.000158,0.000156,0.000328,0.000536,-0.783759,0.000105,-2.355439,-0.000280,1.571731,0.785155,0.001019,-0.784470,0.000140,-2.356172,-0.000315,1.571412,0.785102,-0.961245,-2.286794,-0.797423,18.670244,0.847844,1.495843,0.006997
